vajneluc/RoboDemos/Webots-Demos/panda_python/joints_SERVO.csv
panda_joint1,panda_joint2,panda_joint3,panda_joint4,panda_joint5,panda_joint6,panda_joint7
0.0,-0.785398163397,0.0,-2.35619449019,0.0,1.57079632679,0.785398163397
0.026471762248200765,-0.8273933365792457,-0.05231995121259151,-2.4368476569094866,-0.05360210520687897,1.6250445079584432,0.6291334740177864
0.047559372552809856,-0.8676157830625225,-0.10348557064744801,-2.5085879274806286,-0.1047776063579452,1.6769889605883321,0.4905222044565363
0.06363512050998839,-0.9055676688037054,-0.15415473641225055,-2.5718072980282227,-0.1531946059793773,1.7254951403284988,0.36648121682995743
0.07517417386050572,-0.9405484328497807,-0.20458603913969528,-2.626719674024243,-0.19870537494088433,1.7696879072809355,0.2544918991703185
0.08278006682315496,-0.9718927690232418,-0.25470068199021106,-2.673592858324931,-0.24123070224741755,1.8090674298894474,0.1525958759729697
0.08717193898080447,-0.999120621696362,-0.3041761992919456,-2.7128492987704376,-0.2807114934261361,1.8435038444266922,0.059346493882813586
0.08913310286887652,-1.0220102957531159,-0.3525514821091135,-2.7450782940191636,-0.31710555694930076,1.873161321142924,-0.026279879869022166
0.08943787813172165,-1.040607474077446,-0.399324591672166,-2.7709990293470623,-0.35040354476094226,1.8983984401927907,-0.10499371044557439
0.08878034261444225,-1.055186481612273,-0.44403058904482706,-2.791404179481735,-0.3806447346555975,1.9196764455670163,-0.17730106771767307
0.08772401117820647,-1.066183654545222,-0.4862930684896649,-2.8071031886004563,-0.4079234870640657,1.9374899732204025,-0.2435941588673477
0.08668052189596333,-1.0741229464677924,-0.5258491692733755,-2.818875504704179,-0.432385317625419,1.9523222603867738,-0.3042153853791592
0.08591475019497335,-1.0795496995905363,-0.5625525629876604,-2.8274377260245926,-0.4542157423739148,1.9646203008404888,-0.35949511503125714
0.08556755841721292,-1.0829815211833422,-0.5963614077534198,-2.8334245908238054,-0.4736260337148647,1.9747836724520613,-0.4097686323672658
0.08568623333826685,-1.0848783376651758,-0.6273184304915354,-2.8373815479129827,-0.4908392357286472,1.9831616251205268,-0.4553794389783775
0.08625482774328057,-1.0856290113064697,-0.6555288643859072,-2.8397658033163267,-0.506078444683771,1.9900546688222962,-0.49667529747858924
0.08721988447881783,-1.085549863476917,-0.6811399381529494,-2.840952785788612,-0.5195581498537813,1.995718374173976,-0.5340015734754125
0.08850986647019793,-1.0848903975415325,-0.7043237585876697,-2.841245497796392,-0.5314786023076249,2.0003681022337307,-0.5676945615600852
0.09004846219542917,-1.0838424819457835,-0.725264101716064,-2.8408849028226224,-0.5420227385563351,2.004183970203245,-0.5980760629542917
0.09176283094627398,-1.0825504752328254,-0.7441468571668005,-2.840060146730521,-0.5513550332334376,2.0073156804539045,-0.6254495933255132
0.09358809289238945,-1.081120835382643,-0.7611535245062844,-2.8389179281916377,-0.5596216759450957,2.0098870133704776,-0.6500981323617988
0.09546925839669668,-1.0796305180897139,-0.7764570796454011,-2.837570700900503,-0.5669515703057819,2.0119998831918555,-0.672283134312557
0.09736154415673778,-1.0781339461618524,-0.7902195857997208,-2.8361036266857527,-0.5734577784102997,2.013737916904733,-0.6922444787180022
0.0992297617735718,-1.0766685948546424,-0.8025910335961971,-2.8345803353735812,-0.5792391497165099,2.015169555603709,-0.7102010718584677
0.10104724108570946,-1.0752593595663353,-0.8137090128621848,-2.833047615714492,-0.5843819666141703,2.0163507028365855,-0.7263518656425305
0.10279458094550428,-1.073921911113038,-0.8236989233090943,-2.8315391871482656,-0.5889615077910594,2.017326959207667,-0.7408771185734877
0.10445840050298755,-1.0726652391864544,-0.8326745157948725,-2.8300787028177967,-0.5930434779423491,2.018135489670915,-0.753939773472127
0.10603018441566958,-1.0714935605954208,-0.840738620190211,-2.8286821220494534,-0.5966852831256271,2.0188065717622736,-0.7656868661681959
0.10750526497515561,-1.0704077388871738,-0.8479839630096868,-2.8273595728870276,-0.5999371497726831,2.0193648713462036,-0.7762509089452077
0.10888195384295979,-1.0694063326600602,-0.8544940115348045,-2.826116806438725,-0.6028430958643916,2.0198304887244984,-0.7857512138174777
0.11016081903708451,-1.0684863642050515,-0.8603438045286432,-2.8249563269961917,-0.605441767945639,2.0202198132219604,-0.7942951356018675
0.11134409413540465,-1.0676438788909084,-0.8656007456047057,-2.8238782661169943,-0.6077671595461193,2.0205462193312873,-0.8019792248771668
0.11361824115146094,-1.0672325362207773,-0.866835024978143,-2.8238105127811464,-0.609204548618394,2.0188002101457134,-0.8080423414462259
0.11565855330977287,-1.0668537863083303,-0.8679261657311259,-2.8237596631353004,-0.610514963412755,2.017241664368265,-0.813480406593114
0.11748944092918262,-1.0665062734774868,-0.8688923148901992,-2.82372239876311,-0.6117080508254688,2.0158497466925165,-0.8183594944804963
0.12023153885605875,-1.0665128357821367,-0.8663171143552372,-2.824654923225479,-0.6120160431339499,2.0125735311307316,-0.8216812952034329
0.12271222268821982,-1.0664991009409135,-0.8639778347503265,-2.8255038796529255,-0.6123039713505181,2.009660468262379,-0.8246365038490332
0.12495518304970689,-1.066471185164885,-0.8618551573704317,-2.826275823119003,-0.6125716958896618,2.0070675978893155,-0.8272684408080015
0.12698221515162122,-1.0664337158419506,-0.8599308403844045,-2.8269769785545833,-0.6128195240546113,2.0047574834965216,-0.8296147984565764
0.12881331524914513,-1.0663901758893262,-0.8581877842604786,-2.8276132188278504,-0.6130480775985144,2.0026974382640965,-0.8317084574081546
0.1304667862909863,-1.0663431682562148,-0.8566100552157494,-2.8281900527932873,-0.6132581911963644,2.0008588666527802,-0.833578171373737
0.13301781158721576,-1.06663051381964,-0.8518282094193229,-2.8297222277120393,-0.6125363511984544,1.997319481493197,-0.8339392747790201
0.13535899731473203,-1.0668619846925564,-0.847513467289733,-2.831087234619072,-0.6118734234156267,1.9941637320736874,-0.8342316526716402
0.1375028000948947,-1.0670479668145705,-0.8436214392819982,-2.8323041334657497,-0.6112659164866842,1.9913476847495002,-0.834468523603117
0.1394620255639257,-1.0671969856271266,-0.8401116793546112,-2.833389713279835,-0.6107102686632951,1.988832837100987,-0.8346605423919269
0.14124949922722824,-1.0673160265511383,-0.8369473981768424,-2.834358767974907,-0.6102029236056481,1.986585383449104,-0.8348163008254704
0.14364117802198284,-1.0681835726323639,-0.830922043667136,-2.836585166120339,-0.6088665894539275,1.9832570728867163,-0.8334254637221876
0.1458682354343856,-1.068929509165909,-0.825493114008408,-2.8385534377197446,-0.6076300715482998,1.9802847412148012,-0.8321412315925617
0.14793304778164182,-1.0695715284461698,-0.8206024255947478,-2.8402956184752477,-0.6064898293961314,1.9776287211241765,-0.8309592526236419
0.14984039034393973,-1.0701247900225892,-0.8161972622651122,-2.841839498062017,-0.605441460087672,1.9752539972384644,-0.8298743816329347
0.15159671328063282,-1.070602244362065,-0.8122299128545886,-2.843209205325964,-0.6044800097572021,1.9731296340459807,-0.8288809985705414
0.1539317390621261,-1.0719259752120336,-0.805613988389846,-2.8458608243031085,-0.602578447298849,1.970157682861932,-0.8262248954994741
0.15612675472236873,-1.0730746205505362,-0.7996569674598085,-2.8481963104650987,-0.6008202448201553,1.9675017231491383,-0.8238031377042218
0.15817800670169582,-1.0740722012381154,-0.7942938121125616,-2.8502563504991842,-0.5992001678772101,1.965127186589364,-0.8215983272215512
0.16085258265354802,-1.0756525728529656,-0.7863558228062025,-2.8534115947749403,-0.5964626230236227,1.9619225353477425,-0.8173542820819939
0.16339431061934104,-1.0770106005463767,-0.7792117235204515,-2.856172154445654,-0.5939286376329719,1.9590596722607667,-0.813495506443021
0.1657907286383395,-1.0781779123756514,-0.7727827246328199,-2.8585915935946744,-0.5915917300561736,1.9565015375517367,-0.8099910601045381
0.16803549642623955,-1.0791819449713473,-0.7669976561938263,-2.8607157020376217,-0.5894433213878933,1.9542150084238776,-0.8068116390032268
0.17084593946995444,-1.0807786628173108,-0.7586700420206693,-2.863968584651917,-0.5860830188438448,1.9513603412423037,-0.8012015997601242
0.17352236430559623,-1.0821386727993187,-0.7511784558791337,-2.8668029370852044,-0.5829803986228367,1.9488111504979913,-0.7961146547320139
0.17656272860705607,-1.0842242605550434,-0.7413338491206464,-2.8708600674760625,-0.5787005629265035,1.9461370708720191,-0.7883235253134748
0.1795037908062103,-1.0859937674539304,-0.7324769340039229,-2.874377368793114,-0.5747380978843117,1.9437522471919055,-0.781262328598886
0.18278929564612095,-1.0883806467319697,-0.7213862856384204,-2.8790289946771823,-0.5695129340202665,1.941459238866398,-0.7712037328416784
0.18702628275974328,-1.090902245393849,-0.7083094643920487,-2.8842761962238828,-0.5631855355988289,1.9388249345209654,-0.7591952401022388
0.19119295640408937,-1.0929611125630196,-0.6965468719559114,-2.8887522951630777,-0.5573030564056949,1.9364943952219709,-0.7483064747915408
0.19522614493332524,-1.0946312035578738,-0.6859691613919816,-2.8925781001255544,-0.5518609541357121,1.9344357393840088,-0.7384419572236592
0.20070739062330392,-1.0961633327535836,-0.6734161016841869,-2.896731817988733,-0.5454285969083859,1.9317191851246143,-0.7273693551220218
0.205957725112156,-1.0972981743924302,-0.6621386502140711,-2.9002304030745263,-0.5394796424222371,1.9293372685326458,-0.7173308860717135
0.21093508834421126,-1.0981109836242584,-0.6520090682421169,-2.903182298036418,-0.5340007547950487,1.927249708711642,-0.7082391030451928
0.21769075716469233,-1.0987031484894207,-0.6399461433428809,-2.9063560185479345,-0.5277301794048554,1.9243642658764937,-0.6986390161288721
0.224053717045199,-1.0989610996794326,-0.6291205580498881,-2.9089797032884555,-0.5219530234314403,1.9218530830322091,-0.6899311558215357
0.2300031663126971,-1.0989611570374433,-0.6194065096527451,-2.911150210056663,-0.5166500954985667,1.919666408081395,-0.6820421282733372
0.23553307630045844,-1.0987666732799763,-0.6106902182441082,-2.9129474936721134,-0.5117972272763601,1.9177605542178904,-0.6749023080439344
0.24064811091587712,-1.0984295096890322,-0.6028690505376838,-2.9144374385138803,-0.5073673475473929,1.9160974724911637,-0.6684462114992639
0.24807551287765212,-1.0975134359639813,-0.5929664166920711,-2.9159159425332994,-0.5021389171749433,1.91326775223797,-0.6619777981981976
0.25493115242710906,-1.096453909925681,-0.5840886537502001,-2.9170797203983354,-0.49736071234250756,1.9108081590157378,-0.656112579573924
0.2612344188175506,-1.0953056132622991,-0.5761292580983177,-2.9179906476607735,-0.49300454895691054,1.9086663794406915,-0.650801283216715
0.26701118424542086,-1.0941114946516066,-0.5689924602540986,-2.918699049254241,-0.4890410779326555,1.9067977587556888,-0.6459968306786381
0.27229129160530646,-1.0929046853882163,-0.5625923104237266,-2.919245741928435,-0.48544085372610074,1.9051642463342007,-0.6416547682323481
0.2771066919777221,-1.091710223371967,-0.5568517827857354,-2.9196637456744217,-0.48217506961480455,1.9037334424118306,-0.6377335104412494
0.28388241347751436,-1.0899774184819437,-0.5488445239171388,-2.9202623616995607,-0.477551400127078,1.9015753341446824,-0.6323114684101381
0.29007815745448945,-1.0882425453685238,-0.5416704809565865,-2.9206836220178967,-0.4733497267527225,1.8996982858794202,-0.6274107166587444
0.2957298262851246,-1.0865374682184148,-0.5352416260681738,-2.920967014073375,-0.4695373200187171,1.8980620364873944,-0.6229850113939788
0.30087482314915387,-1.084885430574975,-0.5294792233117612,-2.921144129305017,-0.4660824458930899,1.8966325151965762,-0.6189911403197849
0.30555072004400474,-1.0833027499305614,-0.5243129170422572,-2.9212401421613103,-0.4629548239600666,1.895380876676389,-0.6153890340832039
0.31168773836082514,-1.081494555260828,-0.5168536430624243,-2.921826177874452,-0.4581275375289975,1.894066391212938,-0.6090480924708676
0.3172911720941487,-1.0797102837570365,-0.5101727297803954,-2.9222456501876244,-0.4537485988346878,1.8929377511843424,-0.6033303683320959
0.3238039288364396,-1.0778979056462348,-0.5013749622885558,-2.923319430716004,-0.4474235348956944,1.8923203683766274,-0.5938912630035251
0.3306911904247775,-1.0762272035567455,-0.49069530158741603,-2.9251681411851145,-0.4389908247363396,1.8928156436889227,-0.5799013226514248
0.33705049410285637,-1.0744447647356699,-0.4811317711837061,-2.9266241455083177,-0.4313366081017148,1.8933627450056851,-0.5672950020569231
0.34289650112855397,-1.0726113918967022,-0.4725666247031332,-2.9277656982929052,-0.4243997919823962,1.893938672450955,-0.5559407625636769
0.34981039044910905,-1.0704198761390562,-0.4621639240960959,-2.9292902064346786,-0.415816835448423,1.8953442464217167,-0.541388214190929
0.3561660072737866,-1.0681739664560777,-0.45284676934963114,-2.930462982550691,-0.40804737252410095,1.8967118120148174,-0.5282840982949623
0.36198641859241976,-1.065928790893198,-0.44450067188971687,-2.931356667841286,-0.4010226954269064,1.8980262360972013,-0.5164887592861277
0.36955355406341384,-1.0626015292168087,-0.4344001373171391,-2.9321032821435398,-0.3926665336748777,1.8996981908327915,-0.5027288295659695
0.376466060777716,-1.0593210864788343,-0.42536767155839234,-2.9325721501233946,-0.38511669908338986,1.9013031377567853,-0.49035467529123195
0.38561093879451597,-1.054404928585965,-0.4147784771378792,-2.9324557617585403,-0.37661828913496304,1.902820838233454,-0.47728923946730395
0.3939280903901604,-1.0496280201501662,-0.40533608405634547,-2.932104389603414,-0.3689467585773657,1.9042984321434453,-0.4655614141872686
0.4049075544660087,-1.0426465123546775,-0.39454711525561365,-2.9307247039251263,-0.36063414889370077,1.9051697944630894,-0.4543312549511578
0.4148393670156926,-1.035952914360953,-0.38495898533187417,-2.92919821646045,-0.3531419289406692,1.9060729938481085,-0.444282873633783
0.4238050533965758,-1.0296015895103112,-0.3764315417586695,-2.927594292231045,-0.34639581318935964,1.906976708298949,-0.4352945499921371
0.4318862818736857,-1.0236249348573945,-0.36884141197224884,-2.925964953073731,-0.3403258231731561,1.9078591712914863,-0.4272552248666341
0.4422571139068712,-1.015576055064798,-0.35975351949584683,-2.923485122256219,-0.33321896538234735,1.9084323854252534,-0.418636749164819
0.4515791778148401,-1.0080222493609854,-0.3516833450497244,-2.9210282935717027,-0.3268322013977086,1.9090237695795436,-0.41095197676482936
0.4599505350580253,-1.0009791564317556,-0.3445097644803619,-2.918635663651493,-0.3210954111386276,1.9096114706727112,-0.4040988866406864
0.46746339126010933,-0.9944471070021518,-0.3381269279088555,-2.9163359233790156,-0.3159440627077427,1.9101809794281117,-0.3979857928829001
0.47420315165166144,-0.9884155014029434,-0.33244232350457853,-2.9141481046489233,-0.3113192357887585,1.910723129805763,-0.39253073906385316
0.4829312207372393,-0.9805120469885462,-0.3250565264242391,-2.911328887109724,-0.30536078564163216,1.9113907414253966,-0.3855027476400257
0.49075116167457444,-0.9731944902184343,-0.3184906418597447,-2.908629836660085,-0.30001487211351185,1.912027297023785,-0.3792433820662913
0.49775558664348574,-0.9664478578849202,-0.3126476134330173,-2.9060703301645137,-0.2952191942342718,1.9126250987125004,-0.37366584052393265
0.5040289707741192,-0.9602492144567085,-0.30744277224324623,-2.903661701184518,-0.29091726964833414,1.9131803022076075,-0.3686930880286055
0.5120175464511683,-0.9521126700727058,-0.30053025654097826,-2.900601155970531,-0.2849742911726779,1.9140547927256202,-0.3614049730057607
0.5191629147962401,-0.9446180126405129,-0.2943862473535793,-2.8976985795201298,-0.27964435547231875,1.9148610657824017,-0.3549151809364116
0.5275955638444755,-0.9354088320379862,-0.2866258710206639,-2.8942789319317552,-0.27256752178177757,1.91629020195077,-0.34553520723385417
0.5372388704490115,-0.9246490277705922,-0.2774697429631789,-2.890381030188643,-0.2641891228407288,1.9184400963559185,-0.3339890888450795
0.5458378931107063,-0.9146876662553272,-0.26936075801860165,-2.886615953923371,-0.2566849110675363,1.9203941865587044,-0.32372493943574193
0.5535042431213298,-0.9055079671843096,-0.26216951190778204,-2.883021303712527,-0.2499646037671742,1.9221606044797124,-0.3145939503574914
0.5625480888460642,-0.8944859902800806,-0.25366429646284394,-2.87872384395397,-0.24206820203273394,1.9245204590174676,-0.30378593674102455
0.5705931390477418,-0.884334424162056,-0.24612885728122968,-2.874620795658971,-0.23500774413111145,1.926640154079212,-0.294184142797221
0.5801061419806831,-0.8719847967802324,-0.23751707136367395,-2.8694925765293915,-0.22686288675698005,1.9290269256732666,-0.2835236608228456
0.5885452415453949,-0.8606359715400737,-0.22989962198447306,-2.8646184214782844,-0.21959225017544487,1.9311515131516617,-0.2740764532629507
0.596034988504734,-0.8502439123550326,-0.22315119449707324,-2.8600245736049943,-0.2131008026021585,1.9330361032814316,-0.2656951117239203
0.6051015916766752,-0.8374313354341345,-0.21539683664613934,-2.8542118052253316,-0.2056088659004909,1.9350195076249128,-0.25667246629852764
0.6131272022345224,-0.8257176156709446,-0.2085388350930518,-2.8487464489162484,-0.1989322453853718,1.936756101571506,-0.24869468609012746
0.620237339449804,-0.8150377729050422,-0.20246352653266897,-2.843640505214842,-0.19297986860037714,1.9382723282024352,-0.24163078010056982
0.6265423447117616,-0.8053218910432449,-0.19707338452090895,-2.838895306364492,-0.18767068537750528,1.939593829251631,-0.23536746077893062
0.6344602695593742,-0.7931186778815139,-0.19043990453377196,-2.832897541902834,-0.18155252534111996,1.9410600882784292,-0.22843608288520495
0.6414627459084925,-0.7820147502495948,-0.18456025151904662,-2.8273127002938043,-0.17611177817214466,1.9423145442184884,-0.22231013382087217
0.6476627319866725,-0.7719303259927027,-0.17934086127019977,-2.822136714277434,-0.1712703666051879,1.943385708543831,-0.21688734557119813
0.6531585918407633,-0.762785806013322,-0.17470121572899894,-2.817358401111757,-0.16695935747271717,1.9442993600536003,-0.21207975149116556
0.6603259875530424,-0.7507842040564788,-0.16877262695088976,-2.811024658209428,-0.16188084351318324,1.9450651104939833,-0.20674492317093118
0.6666587231608035,-0.7398995428820306,-0.16350871414915277,-2.8051645074789775,-0.15737655835301026,1.9456776834247231,-0.2020350635944835
0.6722616709360418,-0.7300413428742174,-0.15882843554532633,-2.7997623561244853,-0.15337818173587714,1.9461632979899481,-0.19786941835603516
0.6772255661982044,-0.7211225515649399,-0.15466186407956622,-2.794797761017819,-0.14982579148920913,1.9465445966804498,-0.19417891303690313
0.6816289479752714,-0.7130607395881375,-0.15094844435435623,-2.7902472287319178,-0.1466668760493156,1.9468408397479506,-0.19090430270074887
0.6878095400310092,-0.7014795933560088,-0.14601303614619013,-2.7835796112611675,-0.14261043900346765,1.9464040130160578,-0.1873511754785231
0.6932696320936339,-0.691014232985959,-0.1416217671420903,-2.77745606447553,-0.13901960883558862,1.9459327173324363,-0.18421920553781912
0.6981006650158698,-0.6815644550848118,-0.13770983579143672,-2.7718464541450087,-0.13583762913088238,1.945443133072279,-0.18145268222549008
0.702381353863099,-0.6730369150136963,-0.13422111082486912,-2.7667187866034246,-0.13301500514963913,1.9449480658331053,-0.1790042952402832
0.706179583096315,-0.6653453455919293,-0.13110678829276054,-2.7620403905749225,-0.13050858009231786,1.9444574069927614,-0.17683370946233512
0.71172845014226,-0.6540108431543277,-0.126658007465532,-2.7551050007032267,-0.12728440166517782,1.9430988610477977,-0.1744603987765627
0.7166293682093171,-0.6437867469462955,-0.12268999153627848,-2.748759501914823,-0.12444278660181975,1.9417994371587435,-0.1723704587172761
0.7209651453562669,-0.6345687110665411,-0.11914728660993704,-2.7429653306985387,-0.12193506700363216,1.940566451880012,-0.17052573496289458
0.7248068562327881,-0.6262608475897576,-0.11598155134296854,-2.737683698506598,-0.1197191201590441,1.9394044101245176,-0.1688940219978024
0.7282156579273514,-0.6187754738343823,-0.11315049892399731,-2.7328764441730136,-0.11775848416136245,1.938315540005827,-0.1674479998627914
0.7312443137013201,-0.6120327041603765,-0.11061702515269466,-2.72850662886031,-0.11602157909405725,1.9373002729051396,-0.166164379108781
0.7359212984231008,-0.6018389106231707,-0.10679401551651155,-2.721995307439741,-0.11347256404028981,1.9356722007855125,-0.16457089711019546
0.7400589211394768,-0.5926517217670737,-0.1033763999022667,-2.716054697763151,-0.11123110158622504,1.9341445547008538,-0.16316545709022887
0.7437251343772653,-0.5843742983849837,-0.10031896642144802,-2.7106434894225737,-0.10925713265557968,1.9327183744801255,-0.16192302322651822
0.7469783592236121,-0.5769183353295858,-0.09758200085854601,-2.7057213763506054,-0.1075161640211823,1.93139273811697,-0.1608224527072509
0.7498689653684285,-0.5702035574530432,-0.0951305235896335,-2.701249586587532,-0.1059784774858883,1.9301652297487857,-0.15984578996892843
0.7542928093063761,-0.5602556349525453,-0.09149664456380219,-2.694759536958037,-0.10352988345317356,1.9285082053939577,-0.15853415964652418
0.7582085036122155,-0.5512906422098052,-0.08824576498827874,-2.688840641790184,-0.10137907664412575,1.9269575735197106,-0.1573777591603882
0.7616797761923999,-0.5432137469236398,-0.08533565856414531,-2.6834510044006468,-0.09948686444744125,1.9255132842170306,-0.1563557573173004
0.7647614470445484,-0.5359385750560471,-0.08272913305382151,-2.6785499085666054,-0.09781957009138136,1.924173498889773,-0.15545061176132183
0.767500811475757,-0.5293866733970732,-0.08039335126063539,-2.6740983044698576,-0.09634823559139591,1.9229350384946091,-0.15464745934488047
0.7716528891579596,-0.5200130647763901,-0.07686304946262947,-2.667936377860885,-0.09404017243831064,1.9217041263722072,-0.15337546272653177
0.7753316190536426,-0.5115624877107898,-0.07370380131052,-2.6623151178521485,-0.09201509591943428,1.9205423459439652,-0.1522520376828042
0.7785957489774716,-0.5039464434742235,-0.07087496087096946,-2.6571952035898514,-0.09023535845707005,1.919452405509084,-0.15125763369492476
0.7814959118892156,-0.4970842333473212,-0.06834065986964394,-2.652538335712853,-0.08866868324412383,1.9184351140671756,-0.15037571801112404
0.785696640779381,-0.48774915810660674,-0.06467530844729477,-2.64641906211065,-0.08627313776150751,1.9177383249044042,-0.14897368146700737
0.7894188021474029,-0.47932756201657506,-0.061396085226222794,-2.640828486060069,-0.0841744373393606,1.9170564148816474,-0.14773489315915564
0.7927217161728186,-0.47173311275268454,-0.05846057657978758,-2.6357299998437944,-0.08233262119971142,1.916397565660345,-0.14663799161340038
0.7956565297533256,-0.46488679403784217,-0.055831362165874684,-2.6310874436438665,-0.08071349211216858,1.915767535817241,-0.14566488632676441
0.7997579313620596,-0.4554231443899693,-0.05202439018016049,-2.6247846072505148,-0.0782694917869241,1.9151770382112747,-0.14379203536852617
0.8033911913472124,-0.44688322674498376,-0.04862068073605199,-2.6190224321775113,-0.07613108250413951,1.9145867627724826,-0.14212943942577697
0.8066145763037089,-0.4391801959138476,-0.04557558946715037,-2.6137643567942344,-0.07425668165973195,1.914007088109572,-0.14065102006559974
0.8094782665890315,-0.43223446920264175,-0.042849773725865334,-2.608974017764227,-0.0726107719514957,1.9134456211647353,-0.13933445516932425
0.8133901402622232,-0.4225302777209278,-0.03891806264622851,-2.602331845676659,-0.07015349846691124,1.9126778759502296,-0.13676909811249716
0.8168545095522626,-0.4137734363776717,-0.035406283545312695,-2.596258841103221,-0.0680058402007598,1.9119219593476042,-0.13448219900940797
0.8199274086630318,-0.4058747602569924,-0.03226738079700241,-2.590716634869196,-0.0661252345051839,1.911188281648706,-0.13244104099361884
0.8239152063926845,-0.3951281274068136,-0.027952745291714147,-2.583166682701526,-0.06344215393462671,1.9099970503939987,-0.12886308377951142
0.8274420495281605,-0.38543035593836744,-0.024106206447264113,-2.576257089202361,-0.06110158097941056,1.9088427634507799,-0.1256673247795405
0.8305667677181368,-0.3766827983265643,-0.02067406655140825,-2.5699462103438555,-0.059055695945849355,1.9077364997180675,-0.12281003079924978
0.833339680644844,-0.36879506563365927,-0.017609296463089907,-2.564192135168095,-0.05726385137118249,1.906685691606824,-0.12025314042369366
0.8369426771332064,-0.35777536099744367,-0.013418692065683097,-2.556100498671554,-0.054584289897825614,1.9047986008316915,-0.11591708434540769
0.8401305638646479,-0.34783749894917193,-0.009689353314765751,-2.548705250281938,-0.05224133074220985,1.90301330630374,-0.11203694692928276
0.8429563835114776,-0.3388781399897012,-0.006367210656119425,-2.541958737474145,-0.05018848989976161,1.9013355646870433,-0.10856208964485756
0.8457647560855096,-0.327373647858887,-0.0021160299058390368,-2.5333708724045865,-0.045522838191706105,1.8996068118206566,-0.09893188408882034
0.8482527154159074,-0.3170199497690275,0.0016348383929821538,-2.5255413822818276,-0.04136564888895774,1.8979823600076058,-0.09030985742915582
0.8504610100334355,-0.30770314731954806,0.004950142287596238,-2.5184150086126977,-0.03765769116835996,1.8964656010113239,-0.0825857164926593
0.852424339270406,-0.29932011007350295,0.007885254609003505,-2.5119376775554403,-0.0343473269588573,1.895056774874892,-0.07566225438676541
0.8541724175576783,-0.29177764662171035,0.0104876856175019,-2.5060573312617205,-0.03138942831950327,1.8937538587104639,-0.06945357699630866
0.8549566406097264,-0.28236186073611186,0.01370008085698072,-2.49893982567459,-0.023760244126389277,1.8935752118559945,-0.051522170874184675
0.8556682236622578,-0.27401470072300593,0.01650781296588466,-2.492608747432517,-0.01688834265856915,1.893551716930173,-0.03545064175008816
0.8563142026362532,-0.26660605614829647,0.018970778951005254,-2.4869750059689846,-0.010700989663095743,1.8936468198032392,-0.02103803761144335
0.8569007085143588,-0.2600228547556371,0.02113821488428205,-2.4819592077144765,-0.005131740497875123,1.8938300611386107,-0.008106928349048075
0.8574331667022472,-0.25416675044946324,0.02305091340763643,-2.4774909214420284,-0.00012007315704630917,1.8940764878376122,0.003499743139967579
0.8579164345890773,-0.24895209784354735,0.024742931763722168,-2.4735078486777904,0.004388999057833467,1.8943659682807694,0.013921308554251853
0.8583548981272702,-0.24430419656500668,0.02624291290043235,-2.4699549803083967,0.008445324881062533,1.8946824974657772,0.023281613935722312
0.8587525411486372,-0.2401577798123024,0.027575112730932935,-2.4667837862203634,0.012094012508108752,1.8950135405164155,0.03169092587828452
0.8591129964905835,-0.23645571870960075,0.028760203858222404,-2.4639514628259644,0.015375818742476885,1.895349439047644,0.03924756335946995
0.8594395849479589,-0.23314791426552153,0.029815908726019733,-2.4614202495688042,0.018327523455854457,1.8956828900256273,0.04603930241569826
0.8597353460387823,-0.23019035068857102,0.030757502064654288,-2.459156817151148,0.020982284860449292,1.8960084979357452,0.05214459149918822
0.8579123239237082,-0.22706388458407356,0.0317803483422635,-2.457542886890036,0.03159577562973023,1.900619139672337,0.0787151395342571
0.8563261377619509,-0.224638701867442,0.03273757320728582,-2.4565485755512126,0.04107471796927788,1.905395794717116,0.10260069529632139
0.8549442217903167,-0.2227625044591071,0.033643619835153245,-2.456019743882449,0.04952578426387366,1.910200950369753,0.1240919521081336
0.8537384241828594,-0.22131487822805723,0.034505784820099514,-2.4558349484047577,0.057051687713098154,1.9149326019369735,0.14344237096931928
0.8526845047178336,-0.2202010969730506,0.03532720224227098,-2.4558995289201757,0.0637489244364053,1.9195174882115402,0.16087430878834014
0.8517616578015454,-0.2193469179250033,0.03610876776603007,-2.4561404123026933,0.06970657616543648,1.9239051602300887,0.1765839177822086
0.8509520659398359,-0.2186943082606551,0.03685034288800518,-2.456501709295347,0.07500584030709043,1.9280629630787876,0.1907450752910667
0.8502404901926744,-0.21819799235772738,0.037551478267840395,-2.4569410755749663,0.07972003897855603,1.931971895944957,0.20351255377260802
0.8496139020794291,-0.217822694569316,0.038211821655069436,-2.457426757792299,0.08391492785862623,1.9356232606577377,0.21502459771106294
0.8490611585338836,-0.2175409560220597,0.038831323620068005,-2.4579352270337083,0.08764917918115134,1.939015988820587,0.22540503816293694
0.8485727190129558,-0.21733141651759383,0.03941031753513756,-2.4584493016161226,0.09097495302312808,1.9421545366590642,0.23476504634001602
0.8481404021062853,-0.21717746836630059,0.03994952469779647,-2.458956669384967,0.09393849992107525,1.945047245367384,0.2432046042537998
0.8477571779665182,-0.21706620484434838,0.04045001790166107,-2.4594487315137554,0.0965807583509224,1.9477050774639544,0.2508137521186099
0.8474169924340945,-0.21698760044753815,0.04091316477739701,-2.4599197023230976,0.09893792488357288,1.9501406533499488,0.2576736580362664
0.8471146186921155,-0.21693387262825192,0.04134056415061226,-2.4603659113835494,0.10104198458001175,1.9523675252878017,0.263857544643166
0.8468455325049212,-0.21689898514353065,0.041733983290953576,-2.460785264503753,0.10292119570676041,1.9543996376358406,0.26943149918112325
0.8433659095642027,-0.22144551113838232,0.043122167758761556,-2.4675021398722756,0.11403069534700219,1.9691754483490487,0.30759920863777046
0.8403085910109034,-0.2260593455557846,0.04479729000296455,-2.4742263069622212,0.12341263510962856,1.983544114411638,0.3422883120377586
0.8376062154307664,-0.23057765723258863,0.04669243117868041,-2.480765601222292,0.13128787454580315,1.9972802622191863,0.3738587630109414
0.8352031245350038,-0.2348951574413144,0.04874248406622179,-2.486995654636643,0.13786478604212993,2.0102413688257843,0.40261441563988315
0.833054026908934,-0.23894898547837745,0.050888246059600836,-2.49284252468762,0.1433336585282089,2.0223478797256913,0.4288160147867176
0.83112240177609,-0.24270663199701567,0.05307841159048634,-2.498268644183503,0.1478642840649219,2.0335666840692963,0.4526910263422864
0.8293788971775117,-0.24615663748319624,0.055270208946125304,-2.503261897548149,0.15160557434190405,2.043897883310358,0.4744409146537414
0.8277998698442801,-0.2493016318305033,0.05742920576036231,-2.5078273759272784,0.15468640459269453,2.053364491267587,0.4942464380684602
0.8263661349135792,-0.2521532519817764,0.05952864248505933,-2.5119813028624565,0.15721714278702512,2.0620046006251918,0.5122714560724789
0.8250619421898324,-0.2547285140989191,0.061548533107561226,-2.515746654674217,0.15929150713540793,2.069865549243615,0.5286656505177886
0.8238741659932439,-0.25704728263888543,0.06347468696915912,-2.5191500690601836,0.16098852342913056,2.07699966512528,0.5435664751516374
0.8227916811543404,-0.2591305489588957,0.06529774605449785,-2.5222197127344868,0.1623744414888487,2.083461231737633,0.5571005701508884
0.8218048928581205,-0.26099929624560697,0.06701229162229319,-2.524983850693463,0.1635045291368974,2.089304380212193,0.5693848145246947
0.8209053887383854,-0.2626737817203479,0.0686160471879006,-2.527469920725577,0.16442470137239923,2.0945816743828396,0.5805271390386951
0.8200856851227323,-0.2641731106094044,0.07010918762912008,-2.52970396612781,0.16517296795597497,2.0993432057984647,0.5906271842356807
0.8193390439097451,-0.26551501022816626,0.07149375360478873,-2.5317103181912843,0.1657806986945847,2.103636058171368,0.5997768601311837
0.8186593412271337,-0.26671573823197087,0.07277316440408457,-2.533511449523552,0.16627371535784913,2.1075040347720395,0.608060844152789
0.8180409732589823,-0.2677900782371613,0.07395181925320117,-2.53512794143995,0.16667322445735858,2.110987569107319,0.6155570399816923
0.8174787882268605,-0.2687513900681975,0.0750347759235449,-2.5365785250811497,0.1669966075522581,2.1141237600086926,0.622337010563345
0.8169680364214668,-0.26961169206439656,0.07602749547473753,-2.537880167946671,0.16725808633471442,2.1169464881500026,0.6284663924208673
0.8135930610350687,-0.2734106488960893,0.08100743453212136,-2.543812585709555,0.16823869152760154,2.131531557713709,0.6619958343101855
0.810438684390381,-0.2767322036413488,0.08590864967671963,-2.5490838509618543,0.1684056733795638,2.144691443359557,0.6928010409469294
0.8074869826283954,-0.27961359253577583,0.09066839377563782,-2.553736464315873,0.16795050930074434,2.156504822656767,0.7210669309076965
0.8047255401510289,-0.28209860315691965,0.09523997604178507,-2.557822806279851,0.16703293295096172,2.1670681653459756,0.7469664456025362
0.8021452518238257,-0.2842326945713013,0.09959058329869618,-2.5613990249204557,0.16578401533604534,2.1764862217000776,0.7706634749200076
0.7997387754908164,-0.286059985632456,0.10369901474794288,-2.564521076773042,0.16430963418281996,2.184865401460336,0.7923143800876122
0.7974995126287662,-0.2876215391139531,0.10755351821780072,-2.5672423032161427,0.16269399667535983,2.1923093668074976,0.8120686355229871
0.795420991422317,-0.28895451383727444,0.11114983075156923,-2.569612072214616,0.16100300292511185,2.1989162727825535,0.8300689652157401
0.7934965392953068,-0.29009187629211597,0.11448946983318482,-2.5716751382654053,0.15928732626265332,2.2047771994010654,0.8464512301612626
0.7917191517784483,-0.2910624560294014,0.11757828552967628,-2.57347147036432,0.15758514928597142,2.2099754203931883,0.8613442320741223
0.7900814857530152,-0.2918911982310529,0.12042526223612766,-2.5750363716375713,0.15592453746050924,2.2145862394203024,0.8748695320589295
0.7885759244156408,-0.2925995166993036,0.12304154696903571,-2.576400769012061,0.15432545973149234,2.218677194791313,0.8871413366952304
0.7871946773714498,-0.2932056854837082,0.12543967592225996,-2.577591591016534,0.15280148205462765,2.2223084891142575,0.8982664734839876
0.7859298917821465,-0.2937252313250523,0.12763296987932915,-2.5786321800953784,0.1513611682227098,2.225533542880698,0.9083444586444438
0.7847737597579737,-0.29417130513305445,0.1296350703929342,-2.5795427056114506,0.15000922542663547,2.228399602894856,0.9174676494063382
0.783718613725238,-0.294555021187299,0.1314595912631207,-2.580340557313579,0.14874743158632048,2.2309483598702564,0.9257214675500534
0.7827570059166242,-0.2948857593941615,0.13311986302988935,-2.58104070819932,0.14757537903731055,2.2332165463301092,0.933184679040766
0.7789587020608675,-0.2944109265915315,0.1383088260702339,-2.581824716535472,0.1435447949975858,2.240745145922778,0.9585608261067062
0.7754402414311306,-0.2938560795378463,0.14313361353956727,-2.582376382530786,0.13955273276870164,2.247301463654691,0.9817323723685643
0.7721906387583238,-0.2932485690719232,0.1475979490734197,-2.5827393838979957,0.13566424349008482,2.2530062142937157,1.002857285034172
0.7691977564866428,-0.2926108517175471,0.15171183165556174,-2.58295166105939,0.13192571796330158,2.257968547314908,1.0220885680569576
0.766448463710155,-0.2919609121790139,0.15548967191071542,-2.5830455400474164,0.1283685588143703,2.262285789411002,1.0395732327323608
0.7639289020691951,-0.29131280716901053,0.15894879835700515,-2.5830481260124145,0.12501234739137634,2.266043813529275,1.0554514460134181
0.761624785420023,-0.2906772398438166,0.1621082880988662,-2.582981833625502,0.1218675102589894,2.269317781662279,1.069855900407324
0.7595216888375129,-0.2900621128102763,0.1649880723434567,-2.582864967663749,0.11893752041170128,2.272173083948983,1.0829114095225074
0.7576053029546063,-0.2894730325243983,0.16760826845887988,-2.582712299970259,0.1162206840403916,2.274666354008392,1.0947347105666276
0.755861643287082,-0.28891375335773006,0.16998869462635666,-2.5825356114897255,0.11371156949267135,2.2768464827333577,1.105434443955028
0.7542772126983094,-0.28838655884040837,0.17214852883571713,-2.58234418308838,0.11140213459848296,2.2787555830625617,1.1151112765142641
0.7528391200190796,-0.287892582798306,0.17410607999809702,-2.582145228574846,0.10928260444883228,2.280429879310117,1.123858135542564
0.7515351602538194,-0.2874320757709107,0.1758786446945451,-2.581944269372022,0.1073421458512232,2.2819005088226856,1.1317605241537683
0.748073162750327,-0.28435925026369124,0.1792053213611539,-2.579427374583692,0.10273364717474057,2.28474465570361,1.1485232664005771
0.7449410083627159,-0.2815391133077331,0.18222023331226014,-2.577080960147929,0.09845281302067253,2.287168270789137,1.1637300778112427
0.7421102684526976,-0.2789561127480894,0.18494833165252525,-2.5749018186362473,0.09449406752787926,2.2892355736301586,1.1775118989497968
0.7395542022247354,-0.27659460365123656,0.18741379846514022,-2.572884898632786,0.09084689980161234,2.2910012155309185,1.1899915828267376
0.7372478501939855,-0.2744391100482513,0.18963967299643322,-2.571023764248005,0.0874974279136507,2.2925115282659227,1.201283719307551
0.735168069002718,-0.2724745313649554,0.19164762535513108,-2.5693109961605307,0.08442961596511804,2.2938056793853234,1.2114946551798447
0.7332935186665968,-0.27068629866944527,0.19345783850486217,-2.567738530920318,0.08162620521797626,2.294916713289466,1.2207226646405707
0.731604613627235,-0.2690604873349137,0.1950889677953579,-2.5662979405660686,0.07906941382690083,2.2958724715386394,1.2290582303831712
0.7300834479650519,-0.2675838930378666,0.19655815441629923,-2.5649806575533263,0.07674145214749563,2.296696394790317,1.2365844017590029
0.7273667775852453,-0.2628515543604164,0.19760722403635492,-2.560439963664844,0.07350571279495834,2.2972998461778626,1.245265542776147
0.7249454934766559,-0.2585848442014586,0.19853998099283945,-2.5563226259646,0.0705619628904713,2.2977910615054657,1.2531154579196133
0.7227861514552996,-0.25473855246880156,0.1993696024155199,-2.55259194647095,0.06788762677282174,2.2981907060462645,1.260209596004924
0.7208592347710888,-0.25127175988860134,0.20010782217920772,-2.549213881446781,0.06546098435269505,2.2985157054973167,1.2666174792699216
0.7179589955182887,-0.24470826329106166,0.20005383663774778,-2.5427503324265968,0.06280676516674129,2.2986378693395437,1.2730317715692425
0.7153931828868879,-0.23880750857559147,0.19999288582469574,-2.5369004867802563,0.06041012524556452,2.2986984065632337,1.2788362180026291
0.712038079796682,-0.22996443146794057,0.19893543300838376,-2.5280707869957255,0.05819005005492246,2.2984518195771138,1.2837714062004484
0.7090903893368742,-0.22202567689463187,0.19797651246160775,-2.5200736862634594,0.05621220522287575,2.2981607525897574,1.2882481705422069
0.7064954034766385,-0.21489671829207305,0.19710719278947436,-2.5128355794472133,0.054448977025987506,2.297843309882493,1.2923045724133706
0.7031642831191985,-0.20477372252219145,0.19527078169755316,-2.502440697696542,0.052780781848752456,2.2968666232668933,1.2952131829619848
0.7002481712894655,-0.1956900504650248,0.19362186737266746,-2.493018854152246,0.051329160936210996,2.295901401524657,1.2978607043254904
0.6976888339403324,-0.1875361252089397,0.19214080220804095,-2.4844855387440403,0.050063143804374495,2.2949638418714846,1.300266467698466
0.6944651407235083,-0.176364275659983,0.18965347433175508,-2.472678520744417,0.04909783208469294,2.2931684712310423,1.301067495016708
0.6916452821760642,-0.16633942605677296,0.18743604330279337,-2.4619665867827583,0.04830335452170077,2.2914458176225256,1.301815784363082
0.6891713079293027,-0.15734036814166075,0.18545761837970165,-2.4522566419642087,0.04764792221213726,2.289810201360897,1.3025106815514782
0.6869949787646819,-0.1492594513866742,0.1836911170664345,-2.4434617058288115,0.04710583437064123,2.288270035772842,1.3031529815337466
0.6841584364844454,-0.13837477276588112,0.18094934604258203,-2.431708486319236,0.04712344338432855,2.286600728813271,1.3021686884030088
0.6816649361590609,-0.12860081716748567,0.1785183133150389,-2.421041670350563,0.0472154713826003,2.2849926000630965,1.3013078318552729
0.6794667635646091,-0.11982141588155662,0.1763602254018417,-2.4113695774261967,0.047358611565389855,2.2834607193572016,1.300553431401291
0.6766005933292841,-0.10833823489265763,0.17348807819621898,-2.3988008212816747,0.04739392006647204,2.281914103951682,1.2989175209209114
0.6740793073885135,-0.09802218889309922,0.1709480093455522,-2.387383661638978,0.04750890997437182,2.2804016312827398,1.2974722319053764
0.6718549789125173,-0.08875192687159887,0.1686985325157736,-2.3770228737014105,0.047677959073840405,2.2789438867549765,1.2961937029313368
0.6690025520371761,-0.07674048998295072,0.16604717202596886,-2.3635801351622225,0.04646512083686624,2.277180900345383,1.2952642799788165
0.6665042684314151,-0.06594605336533428,0.1636959517925061,-2.3513638945801514,0.04545487292709459,2.275465715856873,1.2944535928329095
0.663485833791274,-0.052713693177442345,0.16098795202031785,-2.3363842293474173,0.04297518569798585,2.273780036492362,1.2942015140523866
0.6600409631931901,-0.037237175931664646,0.1579583517627838,-2.3186912550064394,0.03921929949356915,2.2717832288832103,1.295218362124642
0.6570788609302558,-0.023322798058166956,0.15525337384113222,-2.302563740696236,0.035963590947587394,2.2697765232758087,1.2961657701070457
0.6545208201996373,-0.010808700378604716,0.15283673645789103,-2.2878821786391037,0.033134176292752074,2.267802041665056,1.2970415853332729
0.6515937739317179,0.004071379901506234,0.15001596688103683,-2.270205632999273,0.029059668755625045,2.2651562091120883,1.2998795477273342
0.6490932945105561,0.017462777536709703,0.14748020248547297,-2.2540971687474336,0.02550792789691263,2.262579677473055,1.3024516023626072
0.6469475421194776,0.029517387085295374,0.1452008860807838,-2.239435601397593,0.022405376884705,2.2601033307196547,1.3047778110251569
0.6450984022544214,0.0403706621369702,0.14315224336827911,-2.226105540392628,0.019689549767485427,2.25774750754829,1.3068784849803479
0.6428887290606853,0.05371038964956246,0.14053369775429722,-2.209553863984877,0.01619965963575011,2.25461795024595,1.3112223510205656
0.6410066495741537,0.06573024977751764,0.1381712175280482,-2.1944820066403654,0.013156457498795276,2.2516413282078767,1.3151350621318676
0.6393961966807844,0.07656196104541385,0.13604092560987624,-2.180772922162153,0.010497267613683314,2.2488328513660756,1.3186569748156884
0.6380121970435221,0.08632355269560321,0.13412086208614107,-2.168315894455938,0.00816885784497611,2.2462003206458556,1.3218256317935413
0.6368179987988597,0.09512095821194388,0.13239090718529106,-2.1570068332068124,0.006125991561759397,2.243746031398318,1.3246755811764708
0.6353053031989953,0.10661723461176129,0.12994394023093328,-2.1420843133849647,0.00346820335572884,2.240221078673327,1.330321580690296
0.6340198277194559,0.11698813313306586,0.12773273017503092,-2.1285085831660164,0.0011563030596847814,2.23692584940745,1.3353953032941264
0.6329222683798297,0.12634340558705573,0.1257360329298935,-2.116170485060578,-0.0008591943479591248,2.2338604415806516,1.339954272382553
0.631980983007129,0.1347819241185738,0.12393412393339046,-2.104967401095379,-0.0026201430165369065,2.2310205822669524,1.344050588542415
0.6311703613346696,0.14239284934354096,0.12230880010293738,-2.0948033333610283,-0.00416197738213014,2.2283989012793555,1.3477312795700456
0.6300249221801675,0.15265096733867767,0.11990024298989307,-2.0810665913730366,-0.006135882658686708,2.2249511649778384,1.3537129267849057
0.6290492969441241,0.1619135636244682,0.11772658058405615,-2.0685750588532144,-0.0078463965091903,2.2217481538488,1.3590888552102234
0.6282144068423856,0.17027591883489554,0.11576593783317934,-2.0572267042371712,-0.009332290241024062,2.2187839366065867,1.36392044372198
0.6274968130182585,0.17782424212463158,0.11399819289047773,-2.0469258655587965,-0.010626160014532177,2.2160497414272373,1.3682629922407812
0.6268775164456585,0.18463657273505518,0.11240491716527339,-2.037583247776869,-0.01175545103181009,2.213534879616627,1.3721662459278288
0.625934246273107,0.19407648068508207,0.10998966230677965,-2.024636727898977,-0.013344670049419836,2.2102816943846015,1.3780535978281105
0.6251276739910777,0.20260793730128576,0.10781293401668281,-2.0128641179263354,-0.014719596196272337,2.207265719538544,1.3833472549288413
0.6244348380738017,0.21031635370083337,0.10585179847875048,-2.0021691046588734,-0.015912136527462553,2.204479329897407,1.3881071200880142
0.6238371747869121,0.2172793167235611,0.10408534798506316,-1.9924614339501971,-0.016949049222140813,2.2019127463025447,1.3923871418454208
0.6230639016297769,0.2269025139894219,0.10144099674828692,-1.9789799898742553,-0.01892904835193209,2.198329113235016,1.3986480617449835
0.6224091301709,0.23561165090574862,0.09905753409114243,-1.9667059490810501,-0.020648403061651027,2.195002148329057,1.4042718912073948
0.6218517694153515,0.2434905690008672,0.0969099887365147,-1.9555428880297911,-0.022144877072950066,2.191924556754393,1.4093238845141716
0.6213749741497498,0.2506157837843454,0.09497555661283283,-1.945399965414588,-0.02345031630533763,2.189086498133537,1.4138626551351805
0.6209652127062019,0.2570571016044598,0.09323347739468725,-1.9361920131823518,-0.024591616071393315,2.186476417367857,1.417940802647266
0.6204533036757469,0.2662642120586811,0.09055147823142157,-1.9229502943618357,-0.026897047746925327,2.1826473516416707,1.4238289187536575
0.6200248194365191,0.27460706270918916,0.08813518459121894,-1.910887828366233,-0.028908812717179922,2.1790980324872873,1.4291103491579837
0.6196639792720414,0.2821630194957678,0.08595895330813633,-1.8999115725853173,-0.030668002163262514,2.1758189897514413,1.433848616961094
0.619358345780739,0.2890030407094682,0.0839994078385226,-1.8899336756669938,-0.032209468225690374,2.1727984372368994,1.4381005235458812
0.6190980614481106,0.2951921533996188,0.08223530032088525,-1.880871604820652,-0.03356281728669643,2.1700230688334954,1.4419168348327833
0.6200511178515379,0.30381368165996553,0.07862704702634896,-1.868327661019814,-0.03838408758250701,2.1670431902734544,1.452852634472126
0.620952871108843,0.31166210543938017,0.07535414583515945,-1.8568461154517615,-0.04264925958106733,2.164181587955734,1.4626620382415711
0.6217978281855835,0.31880002898342236,0.07238899990048492,-1.8463534227506906,-0.04642474376323314,2.1614586446092523,1.4714610242527217
0.622583626044319,0.32528607070303156,0.06970537572001831,-1.8367780807546397,-0.04976919749736994,2.158887101632991,1.47935416550001
0.6233100948057934,0.3311749458675196,0.06727859285994237,-1.8280512277316983,-0.05273423971771768,2.1564737466406374,1.486435497562945
0.6239785622666658,0.33651757689170353,0.06508562107746305,-1.820107073659358,-0.055365183962650284,2.1542207967337186,1.49278941846802
0.6245913423255389,0.3413612260354852,0.06310510932664219,-1.8128831925339703,-0.05770174864073028,2.1521270218322486,1.4984915761290645
0.6251513623703582,0.3457496457357992,0.0613173662333163,-1.806320700027533,-0.05977872108174996,2.1501886490282445,1.5036097161781403
0.6256618949081643,0.34972324216191775,0.059704307250321546,-1.8003643379949212,-0.061626563702488535,2.148400084474642,1.508204474917366
0.6294953171600544,0.3564310277199478,0.05464900360677986,-1.7901969419706911,-0.07023709609150836,2.1454383214838493,1.526433894215367
0.6329825168249394,0.3626377729365306,0.05005966631196207,-1.7807391320106896,-0.07788617427592338,2.142377851898197,1.542782170181829
0.6361461200057327,0.3683645798239194,0.04590060894963108,-1.771972762154463,-0.08467614626662603,2.1393010264683645,1.5574376837741104
0.6390099790299537,0.3736351435215451,0.04213677617166188,-1.7638729090308443,-0.09070163399900985,2.13626919178615,1.5705729551121954
0.6415981107072914,0.3784747962212943,0.03873444319801816,-1.7564098016676952,-0.09604878816502803,2.1333268307056827,1.5823448316206778
0.6439339736282403,0.3829097320914052,0.035661659911900345,-1.7495504234622825,-0.1007951908555729,2.1305050471482447,1.5928951422015998
0.6460399996602643,0.38696638981578196,0.03288850433152784,-1.7432598156807626,-0.10501015922825513,2.1278244526040107,1.6023516259015127
0.6479373116327181,0.39067097022710967,0.030387198370836463,-1.7375021181458403,-0.1087552788578956,2.1252975270809236,1.610829000395841
0.6496455743266626,0.3940490681192992,0.028132127217937657,-1.732241384040066,-0.11208505147364149,2.1229305302558177,1.618430079068237
0.6511829386118618,0.39712539932074437,0.026099793594646453,-1.727442204161048,-0.11504758209126795,2.120725034756982,1.6252468774020934
0.6525660488309698,0.39992360625873724,0.02426872996351931,-1.7230701728944913,-0.11768525876382215,2.1186791463618095,1.631361672156012
0.6538100915521889,0.4024661273930357,0.02261938534360482,-1.7190922244726201,-0.1200353974492772,2.116788467530095,1.6368479925654358
0.6611625767521705,0.40917135634853136,0.0153697178792392,-1.708082487902409,-0.13263433153375268,2.1092105013142666,1.6634291109737716
0.667739659138387,0.41558843663645695,0.008863199960303703,-1.6975333529578496,-0.1436230475924218,2.1015271370739095,1.6870948893796434
0.6736124788738922,0.42168028324666307,0.003031042019303494,-1.6875112378358017,-0.1531950316792792,2.0939188643885087,1.7081560124881483
0.6788500653529845,0.4274242582226702,-0.0021926206978393134,-1.6780570234473278,-0.16152923614219114,2.0865156228251815,1.726897880928053
0.6835176025742925,0.43280915730943376,-0.006869355201420144,-1.6691914822007412,-0.168787144022359,2.079407523867857,1.7435791187596303
0.6876754835126575,0.4378326713912871,-0.011055782922494185,-1.6609198442047584,-0.17511201963993184,2.072653784485955,1.7584318601038742
0.6913789055805974,0.4424992747571459,-0.01480340199878846,-1.6532355693112788,-0.18062946767592797,2.0662900044790806,1.7716630935128133
0.6946778222364138,0.44681848896916104,-0.018158697449686092,-1.6461234189818177,-0.18544870764048174,2.060333995942013,1.7834565682751204
0.6976171177322342,0.4508034715793981,-0.021163415180070665,-1.6395619278565656,-0.18966417998787144,2.0547903924664452,1.7939749377797236
0.7002369121751385,0.4544698817682569,-0.023854918652225814,-1.6335253704016544,-0.19335724661173037,2.049654254928305,1.8033619372137142
0.7025729338857322,0.4578349791568275,-0.02626657709461573,-1.6279853086701261,-0.19659784701557856,2.044913866277537,1.8117444764654962
0.7046569175072455,0.46091691685139247,-0.02842815436728655,-1.6229117961898492,-0.1994460355740101,2.040552878970903,1.8192345842754185
0.7065170014238269,0.46373419472177013,-0.030366180860984693,-1.618274301968255,-0.20195336563882557,2.036551950464365,1.8259311748446159
0.7081781084632225,0.46630524368400217,-0.032104299257645,-1.6140424083983826,-0.20416411066273737,2.0328899767849973,1.8319216296774237
0.7096623009022026,0.4686481161702557,-0.0336635802193619,-1.6101863277984627,-0.20611632655094986,2.0295450124392387,1.837283200001216
0.7190012736635842,0.47869592545983,-0.042357514944356835,-1.593101666783881,-0.21808760531416738,2.011514769128088,1.8685496883770907
0.7271286505139827,0.4884739231116513,-0.05002505158023309,-1.5765569513304187,-0.22795100025583953,1.9939938279902112,1.8959578540126136
0.7341923912605249,0.4978822676152385,-0.05679434641702229,-1.5607015671981923,-0.23605702443234372,1.9772129057758783,1.9200047029617069
0.7403279708089014,0.5068518036309622,-0.06277851376856713,-1.5456351659497056,-0.24270928225626637,1.961317425664678,1.9411289347237581
0.7456570271907029,0.515338029355758,-0.06807621254510708,-1.5314183869548421,-0.24816535833384118,1.946389470128979,1.9597132147384992
0.7502872849425262,0.5233159364581392,-0.07277297311128232,-1.518081661392295,-0.25264071414777134,1.932464980447088,1.976088930072782
0.7543132136677314,0.5307756741229127,-0.07694276745523677,-1.5056323556224804,-0.25631381771437667,1.919546954033308,1.9905419118203342
0.7578170728162649,0.5377189604892479,-0.0806495651120999,-1.4940605167641683,-0.2593314977936886,1.9076154185958984,2.0033182587572838
0.7608701234460089,0.544156151560591,-0.08394875694970064,-1.48334346129401,-0.2618139964565989,1.896634882391661,2.0146298105602756
0.7635338734754267,0.5501038751740623,-0.08688840502408791,-1.4734494159540217,-0.26385948174487955,1.8865598440989557,2.024659067716421
0.7658612786401859,0.5555831419366299,-0.0895103151885973,-1.4643403876761822,-0.2655479453690395,1.8773388291068753,2.033563497048967
0.7678978570261938,0.5606178531202985,-0.09185094659043079,-1.455974409260889,-0.26694449710361645,1.8689173160414498,2.0414792374279034
0.769682697504469,0.5652336352194739,-0.09394217851446401,-1.4483072814556195,-0.26810210912946064,1.861239832450472,2.0485242566219863
0.7712493562091002,0.5694569408399722,-0.09581195584810843,-1.4412939100424755,-0.2690638795904931,1.8542514312561533,2.05480102427295
0.7726266434032453,0.5733143650166332,-0.09748483278749488,-1.4348893182483615,-0.2698648868730906,1.8478987074784468,2.0603987678887274
0.7738393076651983,0.5768321345464577,-0.09898243185936718,-1.429049399755554,-0.270533701488532,1.8421304749946301,2.0653953745982427
0.774908626611549,0.5800357353293664,-0.10032383266190333,-1.4237314653016127,-0.2710936148640419,1.8368981930736366,2.0698589946289343
0.7789013753443292,0.5927571132887982,-0.10617144538795752,-1.4019430692183428,-0.2728516141652133,1.8147652512897894,2.0889846525691858
0.7821616628372458,0.6047596696987875,-0.11133605404414929,-1.3814214387125747,-0.2738457207927171,1.7942570425722282,2.105735757935011
0.7848133219547663,0.6160219248667042,-0.11590557430659718,-1.3621861534716608,-0.27427037701944135,1.7753316741769065,2.1204457280753575
0.7869614585251088,0.6265404680362765,-0.11995496564000147,-1.34423130071542,-0.2742774042678727,1.7579243236283675,2.1333950544946743
0.7886946663986663,0.6363253870541096,-0.12354846849834757,-1.32753196585603,-0.2739844632229372,1.7419562307072458,2.1448203034735545
0.7900871921469076,0.6453966244355762,-0.12674140134059692,-1.3120493701568299,-0.27348209805706675,1.727341027076013,2.154921675927878
0.7912009547155501,0.653781103287869,-0.12958160516538478,-1.2977349185514075,-0.27283948045704504,1.713989141161654,2.1638692624062057
0.792087373605556,0.6615104809659111,-0.1321106111780157,-1.2845333751905275,-0.2721090292832177,1.701810821335779,2.1718081744633397
0.7927889891416486,0.6686194077310019,-0.13436459222488364,-1.2723853436144514,-0.2713300913881102,1.6907181722132776,2.1788627365514017
0.7933408764332794,0.6751441878948145,-0.13637514493905475,-1.26122919366882,-0.2705318554559114,1.6806264888579723,2.185139906247069
0.793771864906274,0.6811217597331449,-0.13816993837930808,-1.251002548421945,-0.26973564807441996,1.671455093309135,2.190732067367992
0.7941055805578612,0.6865889268481838,-0.13977325633512294,-1.2416434209221372,-0.26895673686358246,1.6631278197355215,2.1957193164688813
0.7943613302127964,0.6915817873775689,-0.1412064540113852,-1.2330910719430295,-0.2682057427201717,1.6555732527910716,2.2001713411479025
0.7945548472618612,0.6961353186179504,-0.14248834502101299,-1.22528664512398,-0.26748974340970133,1.648724793896534,2.2041489695745757
0.7946989174534731,0.7002830835570734,-0.14363553107598057,-1.2181736243743442,-0.2668131341286571,1.6425206088691584,2.2077054548270882
0.7940720632711193,0.7126893851903155,-0.14735247686095118,-1.1960630909500285,-0.26363112916124254,1.623139843000145,2.2189473029922366
0.7932517979823541,0.7242457894285775,-0.1506348058294807,-1.175453320081833,-0.26052418188799564,1.6053964509240493,2.2289038174104197
0.7922990576669247,0.7349817156277993,-0.15353637364185563,-1.156290546876317,-0.25753538963407346,1.5891720155536924,2.2377394603706704
0.7912622528160059,0.7449318263694622,-0.15610394161757551,-1.1385134973548803,-0.2546927418084483,1.5743521429229086,2.2455938296361184
0.7901794213659721,0.7541340838874516,-0.15837818821163913,-1.1220560923278955,-0.25201298124679716,1.560827817579699,2.2525861702096996
0.7890800739998323,0.7626283084582839,-0.16039455316465676,-1.1068494929886972,-0.24950456502301924,1.5484961286331302,2.258818950785862
0.7879867579440734,0.7704551150976627,-0.16218395032143976,-1.0928236459900569,-0.24716992438713348,1.5372605791347986,2.2643807085428898
0.7869163705581523,0.7776551333204414,-0.16377337485785534,-1.0799084492978375,-0.24500718248167405,1.5270311251494593,2.269348323495036
0.7858812549617726,0.7842684377641648,-0.16518642380452228,-1.0680346308679975,-0.24301145427705095,1.517724044410157,2.2737888484316873
0.7848901085241173,0.7903341356557241,-0.1664437441504871,-1.0571344092318367,-0.24117582552898498,1.5092617020449381,2.2777609921509363
0.7839487323888447,0.7958900711336961,-0.16756341966677626,-1.047141987383251,-0.2394920856690172,1.501572258363105,2.2813163313489806
0.7830606470444978,0.800972617072031,-0.16856130539286518,-1.0379939179676285,-0.23795127240933575,1.4945893481679682,2.284500309129519
0.7822275957018507,0.8056165329730278,-0.16945131714519485,-1.0296293678036306,-0.236544072542309,1.4882517504493777,2.2873530646793427
0.778822288287543,0.813557053722617,-0.1713789922459998,-1.0140416240055492,-0.23197215861868511,1.4768934053141278,2.2943504777218973
0.7756417415622872,0.8208702909891229,-0.17307002629809812,-0.9996845446639723,-0.22779773368926387,1.4665775724631696,2.3006405811083717
0.7726834923470102,0.8275968620092945,-0.17455536076024894,-0.9864788514137938,-0.22399352220765953,1.457210491822965,2.306297183913562
0.7699418659337178,0.8337760555810491,-0.17586170163074757,-0.9743478215407916,-0.22053227287838512,1.4487068000703671,2.311385597547782
0.7674089003097463,0.8394455986751025,-0.17701210764775116,-0.9632177050840189,-0.2173873645366293,1.440988809364744,2.3159638575031947
0.7650750716171548,0.8446415208759717,-0.17802649885598434,-0.9530179816416767,-0.21453320992331115,1.4339858141424726,2.3200837073063476
0.7629298591251519,0.8493980844706364,-0.17892209559403027,-0.943681505489785,-0.21194551132248526,1.4276334436387865,2.323791402283991
0.760962181386379,0.8537477582285323,-0.17971379681136826,-0.9351445729654871,-0.20960140845893374,1.421873068234421,2.327128375640763
0.7591607294936389,0.8577212201545027,-0.1804145056125962,-0.9273469354901288,-0.20747954882703798,1.416651261647896,2.33013179818326
0.7575142184756245,0.8613473795346739,-0.18103540901638743,-0.920231774106283,-0.20556010292715618,1.4119193173028601,2.332835054822349
0.753001681845875,0.8622612686697019,-0.18157895866203716,-0.916001345685025,-0.20075120430267104,1.4100754531875694,2.3373721888647263
0.7489325739703815,0.8630452463243629,-0.18205427940929814,-0.9122659823991728,-0.1964244799454667,1.4085052144156576,2.341476801587999
0.7452649022283495,0.8637186132177337,-0.18247116831560264,-0.9089647482077982,-0.19253200128904663,1.4071655343736549,2.3451884348069907
0.7419602006848255,0.8642978089967124,-0.18283779726186056,-0.9060443748728382,-0.18903043571930417,1.4060203019878872,2.348543278100937
0.7389833635853643,0.864796805450627,-0.1831610161448254,-0.9034583517244793,-0.18588066201074852,1.4050392513177132,2.351574423328303
0.736302445343023,0.8652274577326869,-0.1834465953659305,-0.901166094218202,-0.18304740007876052,1.4041970181495085,2.3543120980241987
0.733888443539411,0.8655998140140018,-0.18369942005366022,-0.899132195329989,-0.18049886077273303,1.4034723419743755,2.3567838825527407
0.7288755747159873,0.863485258505255,-0.18401743999955006,-0.899883642601636,-0.17539203537472003,1.405174943302233,2.3612140916924673
0.7243744878398303,0.8615347154808068,-0.1843055383062959,-0.9006614285865167,-0.1708004385427186,1.4068203362288187,2.3652034741730543
0.7203327996648082,0.8597413063750661,-0.1845669433485197,-0.901443221240816,-0.16667214966019178,1.408392625209003,2.368795666795368
0.716703376465925,0.8580969235227017,-0.18480435327649952,-0.9022127173228686,-0.1629603908608846,1.4098816153649998,2.3720300367909024
0.7134438672433978,0.8565927357484114,-0.18502007271781673,-0.9029583251409259,-0.15962305554213557,1.4112814717052329,2.37494208847828
0.7105162558211754,0.8552195694867748,-0.1852161079717812,-0.9036721054722148,-0.1566222669643913,1.4125896520624244,2.3775638334501505
0.7078864398850354,0.8539681909059988,-0.18539423329154808,-0.9043489259338778,-0.1539239695571609,1.413806063055894,2.379924127269608
0.7055238410180681,0.85282951023191,-0.18555603718194236,-0.9049857898587145,-0.1514975535813838,1.4149323965502338,2.3820489753272005
0.7007390979144626,0.8494057598773862,-0.1859341722350655,-0.9082701914169165,-0.14672723538640373,1.4181463655097675,2.386204432650469
0.6964459242461822,0.8463071368444306,-0.18628517254288077,-0.91127528805668,-0.14243692573908734,1.4211236530343747,2.3899305674283293
0.6925932293747952,0.8435052645770116,-0.18661006027680319,-0.9140184907691049,-0.13857846211313837,1.423871163368019,2.393273181513063
0.689135247559392,0.8409735815527849,-0.18690997837374823,-0.9165177921619934,-0.13510842134391207,1.4263984747848317,2.3962728970835188
0.686031005994646,0.8386874194457437,-0.18718616514354525,-0.9187911783716084,-0.13198768887516135,1.4287168851216219,2.398965798402844
0.6832438345254391,0.8366240060823582,-0.18743992523837538,-0.9208562246048588,-0.12918105531559507,1.4308386958949142,2.4013839848465324
0.680740918213075,0.8347624184846305,-0.18767260117144435,-0.9227298257292929,-0.12665684256385784,1.4327766807077649,2.4035560484620007
0.6784928919183938,0.8330835040357103,-0.187885547608674,-0.9244280256375628,-0.12438656006184244,1.4345436956583755,2.4055074874219002
0.6740428977138926,0.8289296843212337,-0.1884621550695216,-0.9292839879227117,-0.12000183551993768,1.4386084724333743,2.409588135217353
0.6700512570276108,0.8251999592483991,-0.18899623914432975,-0.9336556829532862,-0.11605811111861755,1.4423254321592505,2.4132384489051386
0.6664700660114485,0.8218507304713071,-0.18948928651379165,-0.9375907420597538,-0.11251122760269092,1.445717728487291,2.416506260392238
0.6632564758680902,0.8188428544573991,-0.1899431269575229,-0.9411323378210759,-0.10932133864383402,1.448808542220988,2.419433562703951
0.6603721722543383,0.8161412161787666,-0.19035981611901656,-0.9443195281173166,-0.1064525302092785,1.451620596467187,2.422057329957038
0.6577828999458185,0.8137143310254028,-0.19074154239595112,-0.9471875980287188,-0.10387245986768442,1.4541758222963235,2.4244102021300447
0.6554580321868069,0.8115339780393761,-0.1910905542836081,-0.9497683897779673,-0.10155201982378076,1.4564951375075774,2.426521060059153
0.6533701827242193,0.8095748651672521,-0.1914091047380365,-0.9520906150074178,-0.09946502534261749,1.4585983099415143,2.4284155109651806
0.6492102109492954,0.805481677933448,-0.19222746983726952,-0.9571081119141581,-0.0954102667695058,1.4624677831770305,2.4324784104615294
0.6454780094205051,0.8018151275615325,-0.19297837721598912,-0.9616069000879613,-0.09176328466382558,1.465995804386003,2.4361125980422287
0.6421289813751403,0.798529476678707,-0.19366588164224646,-0.9656419415280288,-0.08848328406624781,1.4692075737345383,2.4393658302974375
0.6391232201616716,0.7955840899752629,-0.19429413064499917,-0.9692621435025737,-0.08553343755127225,1.4721275491695616,2.4422799961146033
0.6364250284567119,0.7929428375937018,-0.19486726480294247,-0.9725110647616545,-0.08288054157581402,1.474779162849763,2.444891953327397
0.6340024788675256,0.7905735712200013,-0.19538934379406128,-0.9754275325602583,-0.08049468823688052,1.4771846388935743,2.447234223451903
0.6318270155582985,0.7884476638860978,-0.19586429309541614,-0.9780461831173244,-0.07834895700000778,1.4793648872707241,2.4493355724305252
0.6277991848723078,0.7838156488050902,-0.1968294605061184,-0.9841330141407009,-0.07468047751618848,1.4837675215433563,2.4526629465952086
0.6241814531533311,0.7796962963670184,-0.19771325369643042,-0.9895351713422811,-0.07137781478160236,1.4877392651849914,2.4556305531767073
0.6209317818305667,0.7760282153655013,-0.19852077428082032,-0.9943371144158766,-0.0684049523139131,1.4913218796141334,2.4582803955792216
0.6180124283694527,0.7727583123541218,-0.1992572376654188,-0.9986113278821428,-0.06572926290669227,1.4945530512373348,2.4606488832746827
0.6153895291771837,0.7698404733291436,-0.1999278287263612,-1.0024203491990542,-0.06332124046489297,1.497466831770275,2.462767726117311
0.6130327129103916,0.7672344971903634,-0.20053760172316779,-1.0058183820973003,-0.06115423617390706,1.500094009751813,2.4646646554614247
0.6109147460310007,0.7649052232615366,-0.2010914128667795,-1.0088525959634045,-0.059204205618991014,1.502462431685821,2.466364011237127
0.6071535515661045,0.7596904222220259,-0.20213715748848166,-1.0161212226498475,-0.05616801507229713,1.5076382621771545,2.4684027031401747
0.6037688503719304,0.7550825648551318,-0.20309250529150383,-1.0225204256610405,-0.05342973131127831,1.5122611723983599,2.4702088762229324
0.600723282277382,0.7510026586973197,-0.20396348529544975,-1.0281682008654467,-0.05096092465589057,1.5163947729294613,2.471812243672318
0.5979830563329955,0.7473837526204253,-0.20475619122499966,-1.0331635722236132,-0.048735665693018855,1.5200942134263757,2.473238022379233
0.5955176616602348,0.7441687223050535,-0.20547661847848442,-1.0375902756333333,-0.04673036698471406,1.5234076024824676,2.4745077613838626
0.593299582165837,0.7413085474191162,-0.20613055673359945,-1.0415195874473648,-0.04492361436864469,1.5263771150464833,2.4756399879224937
0.5895568566454381,0.7356601304214648,-0.2072452825024952,-1.0495965771813285,-0.042394680537125924,1.5321120099809562,2.4762134076379994
0.5861802592775238,0.7306928740670848,-0.20826040549634153,-1.0566667719300606,-0.04010602618062312,1.5372008189301365,2.4766999444719717
0.5831351643208257,0.7263133660981765,-0.2091832509344921,-1.0628747530398317,-0.03803622024909915,1.5417245728353624,2.4771149149180864
0.5803898863625753,0.7224433858966184,-0.21002102609051523,-1.068340327428283,-0.03616541395428784,1.545752221728437,2.4774705410773477
0.5779155352554707,0.7190169181694707,-0.21078068009186227,-1.0731636343909376,-0.03447531281645299,1.5493428902407202,2.4777766505437637
0.5740336628999756,0.712890634075336,-0.21195539937517507,-1.0820604848207438,-0.032420745719704464,1.5557379379119352,2.4766705925288486
0.5705214454799541,0.7075258154060157,-0.21302168816879338,-1.089809836407404,-0.030549130434500464,1.5613844844539306,2.4756438854117335
0.567346043401485,0.702813657525582,-0.2139882692490527,-1.0965837412410961,-0.028846587852718944,1.566381790690313,2.4746954726253234
0.5644769120223562,0.6986638911031058,-0.2148635144065988,-1.1025234168065075,-0.027299732559537986,1.5708133306875556,2.4738228119795007
0.561885832774426,0.6950009727733968,-0.21565534465666342,-1.1077458632094903,-0.02589581553649304,1.5747499058181065,2.473022415739271
0.5578341359119877,0.6889353781851495,-0.21687938816672125,-1.1165582456897083,-0.023914023138730554,1.5812352091828161,2.471114635548749
0.5541654139627665,0.6836297159231532,-0.217988188712054,-1.1242247923758506,-0.022102770170592517,1.5869562804558013,2.4693660693119726
0.5508461726186968,0.6789746856553167,-0.2189915198228685,-1.1309183205455977,-0.020450327964670497,1.5920150720785413,2.4677676297065805
0.5478451559744416,0.6748796192674329,-0.21989862272978655,-1.1367806889431777,-0.01894509391425611,1.5964973236130882,2.4663095897513547
0.5433796357330726,0.6686042730069292,-0.22124776985498026,-1.1458969533919705,-0.016695912992170756,1.603348042053761,2.4640205304908678
0.5393351753825844,0.6631263822970279,-0.22246933235559196,-1.1538107502351624,-0.01463805366017791,1.6093856686781332,2.4619240731724226
0.5356751379704462,0.6583294569228474,-0.223574202965516,-1.1607061587936613,-0.01275880223479775,1.614719634670435,2.460008832361128
0.5323652980889706,0.6541171128751545,-0.22457267499149097,-1.166733901293433,-0.01104547171297364,1.6194418298967501,2.458262776023818
0.529373914364062,0.6504089451543772,-0.22547436963320833,-1.172018487734303,-0.009485649190970637,1.6236300434203443,2.456673717760988
0.5249007827668897,0.6445695081731359,-0.22685039176758207,-1.1805135644665687,-0.007024239412204756,1.6302538330451688,2.4544872106837348
0.5208526759612465,0.639466021314846,-0.22809532413499303,-1.1879024856401972,-0.004776559922084142,1.6361033005791854,2.4524851934206864
0.5171918000400666,0.6349925762203483,-0.22922059656144309,-1.1943512811412562,-0.002727382597502728,1.6412800668157035,2.4506566096983606
0.5138830870429403,0.6310611133375981,-0.2302369404253919,-1.1999966948030403,-0.0008618279568297809,1.6458700442459255,2.448989842093207
0.5108941779715198,0.6275978785967733,-0.23115433774402053,-1.2049522489785072,0.0008344403344351654,1.6499463836398893,2.4474731632168054
0.5063920365572151,0.6221384719558871,-0.2325701549015467,-1.2129272344783182,0.0036025142559604414,1.6563506247257387,2.445571517870796
0.5023214128272007,0.6173618633895598,-0.2338506886515088,-1.219877316743228,0.0061241505242875405,1.662017594955264,2.4438273561854786
0.4986430716437301,0.6131710978759406,-0.23500784719133916,-1.225953420238982,0.008418256384044911,1.667041684549076,2.4422320353422626
0.4953208371972924,0.6094852233621677,-0.23605277563974308,-1.2312805049552376,0.010502935661478582,1.6715031920426098,2.4407761697006265
0.4923214924017594,0.6062362051365492,-0.23699581655653312,-1.2359627820755503,0.012395360279465535,1.6754708598067363,2.439450085917616
0.48961463462532934,0.6033665309230968,-0.23784650657395354,-1.2400877190245214,0.014111696246619785,1.6790038577268385,2.4382441372986166
0.48544709108276185,0.5985469293463489,-0.23924328616119558,-1.2472149253785105,0.016783634875174633,1.6849090952701835,2.4365423816068157
0.4816815390524499,0.5943204847528198,-0.2405051355288716,-1.2534470645153766,0.01921407131065774,1.6901474691799006,2.4349842654692835
0.47828082660171817,0.5906049590070678,-0.2416443180858447,-1.2589118353575934,0.021422324919269584,1.6948016936455284,2.4335611412077522
0.47521085994983,0.5873312592384352,-0.24267219635022444,-1.2637157992761328,0.023426690581811644,1.6989426859631318,2.432263948910532
0.4724404485775252,0.5844410033990844,-0.24359923413678167,-1.267948443751505,0.02524437000847197,1.702631572665276,2.431083555330417
0.4682860186862932,0.5797236521961193,-0.2450980884259712,-1.27503469807087,0.02788946871357275,1.7085984593722545,2.4293281986729607
0.4645320681892419,0.5755885982346041,-0.24645116805539488,-1.281232238301009,0.030296211898059984,1.7138937961740601,2.427722601456739
0.46114161322665637,0.5719549335888505,-0.24767194113922858,-1.286667480796321,0.032483544159940876,1.718600389430699,2.4262573153334293
0.4580807149189917,0.5687546757381834,-0.2487728311272037,-1.291446027247791,0.03446942645061713,1.7227893419732794,2.424922609241413
0.4553183228057839,0.5659303853821194,-0.24976523817347496,-1.295656634552028,0.036270765048933125,1.7265220198534805,2.423708781651054
0.4511633400055296,0.561664205405218,-0.2513310803660086,-1.3020940556151686,0.03883989687833711,1.7319294519617618,2.421816170457804
0.44740858399548933,0.5579288032454414,-0.2527432387701187,-1.307719253717886,0.041177562093204174,1.7367258497450306,2.420089102476736
0.4440170939470056,0.5546499799026067,-0.25401622301703886,-1.3126481504357517,0.043302169538080325,1.7409868134018736,2.418516089075262
0.4409549712994762,0.5517653850231651,-0.2551633396956675,-1.3169776490001555,0.04523116250714325,1.7447772715969516,2.4170856728683647
0.43819121143736933,0.5492223564647625,-0.25619674204278003,-1.3207892136102883,0.04698095491181766,1.7481532550969587,2.4157866805250676
0.43405868196693326,0.545460198160426,-0.25781553496026755,-1.3264821631849706,0.049405368177200856,1.7528846243183922,2.413725473499119
0.4303235804256508,0.5421719205337445,-0.259274105677504,-1.3314487822331755,0.05161175316786264,1.7570768916790749,2.4118490512663606
0.42694927509599917,0.5392905517656517,-0.26058787598996797,-1.335793651879916,0.05361738473024741,1.76079738821938,2.41014347383913
0.4239021714610737,0.5367598571670504,-0.26177091746255415,-1.3396041745374914,0.055438640995565204,1.764103885279711,2.408595200543268
0.4195509186819345,0.5328841690276552,-0.2635227033062127,-1.3455573584630365,0.05790478457362793,1.7691020392915149,2.406177489198938
0.41561582209682235,0.5295055559299928,-0.26510035619063804,-1.3507396800913125,0.060153041428770024,1.7735258555339728,2.403977883400395
0.4120589868876649,0.5265523461540658,-0.2665207537304169,-1.355263973786842,0.062199896304573205,1.7774479304454707,2.4019795884968054
0.40884556098327685,0.5239645701337263,-0.26779927889678024,-1.3592242562509114,0.06406115140991778,1.7809304044797063,2.400166395741676
0.405943586579467,0.5216918119244363,-0.2689499080053527,-1.3626992767753268,0.06575182213990285,1.7840267172168096,2.3985228697473127
0.4017113211512574,0.5180907171935522,-0.27065775971659406,-1.3683200360299879,0.06812254902012248,1.788883525236084,2.3958622981534012
0.3978831898849199,0.5149522119436891,-0.27219471544943835,-1.3732154468643263,0.07028551391974674,1.7931841434644804,2.3934455394296057
0.3944225079086687,0.5122095875461475,-0.27357757754315065,-1.3774911032564983,0.07225608145412826,1.7969984284455653,2.391252872331945
0.3912955160451555,0.5098069953659973,-0.27482160576689246,-1.3812351307946498,0.07404906440447516,1.8003862822382037,2.3892655466130504
0.3867873797209521,0.506329140798905,-0.27657938112763414,-1.3867117508947626,0.07657956144468228,1.8051336013074268,2.3861194054123556
0.3827078831119607,0.5033093154101845,-0.2781602748527246,-1.3914659481087048,0.07889072893420469,1.8093287228287975,2.3832633790644038
0.37901847245720877,0.5006797948311904,-0.2795818332864015,-1.3956052191278183,0.08099826330643334,1.8130424064043258,2.380673605493399
0.37568359629636777,0.49838409570930803,-0.28085996938095614,-1.3992189788126925,0.08291742766048958,1.8163351231570433,2.378327500493902
0.37097068036019254,0.4950383629107877,-0.2826301876247411,-1.4045626654333778,0.08558693921400302,1.8210514016739516,2.3746930034050497
0.366704189737982,0.4921429368255407,-0.28422107005350566,-1.4091894592892633,0.08802766253606961,1.8252128790615543,2.3713956172080226
0.36284430299593756,0.4896298391496835,-0.2856506044088408,-1.41320775373061,0.09025539764366422,1.8288916193671962,2.36840717331865
0.35935423021698126,0.4874425479423207,-0.2869350723769911,-1.4167075015293682,0.09228565847159649,1.83214907977383,2.365701127739539
0.35456969241419106,0.4841507912127806,-0.28873947974932934,-1.4220920612308394,0.09496849134259999,1.8370900297390287,2.3617271588409925
0.35023663207947187,0.4813079066170068,-0.29035975568509886,-1.4267503889383137,0.09742544094689125,1.841450474520853,2.3581230135557147
0.34631512852293644,0.478845294843866,-0.29181460209299404,-1.4307928341117206,0.09967123688622252,1.8453056498797678,2.354857467351097
0.342768223424894,0.4767060236288066,-0.2931209056515341,-1.4343109075938034,0.1017205695036738,1.848719755626416,2.351901192484409
0.337921199774253,0.4736743238029179,-0.2949495051294814,-1.4393831748439598,0.10439003756689556,1.8535123581642186,2.3476627217309076
0.33353060916094596,0.4710656229269396,-0.2965901895172993,-1.4437614236183833,0.10683687875461664,1.8577392129014478,2.3438207886479203
0.3295562599325317,0.4688139755739896,-0.2980622822824916,-1.4475524097390469,0.10907513443912857,1.8614739948423755,2.3403414405198197
0.32596091323511556,0.4668647960786324,-0.29938318728443425,-1.4508445378877768,0.11111894219145538,1.8647795452702225,2.3371929088774444
0.32103850981126564,0.4642811703371785,-0.3012231538477237,-1.4552717013174257,0.11376110893821538,1.8690444649448692,2.3327413925615788
0.3165794770787936,0.46207316089193984,-0.3028728591693809,-1.4590745809324226,0.11618281240900812,1.8727984322465787,2.3287095329678382
0.31254300121152623,0.46018021288343447,-0.30435208371261957,-1.4623516324371462,0.11839795669611804,1.8761091030930803,2.3250607450589333
0.3088912821090613,0.4585524169709325,-0.30567860223531856,-1.4651841453941807,0.12042054705201465,1.879034051759059,2.321760947051593
0.3039399288270047,0.4563477164998851,-0.3075355812167974,-1.4690909577650435,0.12298331085077872,1.8829223546099128,2.3171515461413605
0.29945431164929154,0.4544784521356317,-0.309199375749691,-1.4724301542917786,0.12533311840371927,1.8863398262559883,2.3129794141413154
0.2953934468916051,0.4528886385809263,-0.3106902839099697,-1.4752933956371548,0.12748318982316278,1.8893495300677203,2.3092058596937495
0.29001616739899383,0.45078851188439417,-0.3126732593968985,-1.479137690149767,0.13029648992769174,1.893272180284203,2.304144997650593
0.2851422625609476,0.4490296486004547,-0.3144483273760098,-1.4823964325951497,0.13287844069609148,1.896708771698082,2.2995639341395484
0.28072790431016154,0.4475523241464031,-0.3160375471945643,-1.4851677968221753,0.13524283550222532,1.8997261368599032,2.2954203925316587
0.2767324060312092,0.44630785501575354,-0.31746067901699004,-1.487532168211672,0.13740380634526905,1.9023808202842951,2.291675067285747
0.27134969012396404,0.44461218424904514,-0.3193575266745375,-1.4908056331462634,0.14037266308216223,1.9059202708473144,2.286611237751255
0.26647195144872377,0.44321019751767554,-0.3210539963647909,-1.4935626502865642,0.14309280455552956,1.9090159778722757,2.282030171598261
0.262054976878281,0.4420484051808532,-0.3225716244431028,-1.495891910395893,0.1455800200281182,1.9117296540469622,2.277888837718371
0.2580577837898025,0.4410834151158101,-0.3239296510040773,-1.4978658435243621,0.1478502106587358,1.9141134467503638,2.274147324912309
0.2526607482850845,0.43955686713958414,-0.3257530894614334,-1.5009911700278193,0.15104407828382377,1.9177375836869823,2.26906266649858
0.24777031449535197,0.43830390783329837,-0.32738212946585676,-1.5036206114591124,0.15396808544414653,1.920910437603579,2.2644633845848863
0.2433420746602806,0.4372736785874327,-0.32883797629129957,-1.5058396331142927,0.1566398184335635,1.9236942455671588,2.2603061237420055
0.23933487679807944,0.4364250298581255,-0.33013951994780705,-1.5077180101643763,0.15907687061135548,1.9261416881139979,2.2565506832821325
0.23389705992509915,0.43498328707031336,-0.3318899004491085,-1.5108522923467,0.16256385597944845,1.9300149447777784,2.2514199600571074
0.22896969281634083,0.43380543623752743,-0.33345161563791315,-1.5134925159255015,0.16575443430652995,1.9334112414516444,2.246778751141532
0.22450804111996742,0.43284179843896975,-0.3348455952681559,-1.515723442912553,0.1686682614709526,1.936395499817651,2.2425834264852686
0.22047064466003427,0.4320522501198172,-0.3360904259969795,-1.517614317925462,0.1713249184395537,1.939022804185517,2.238793499515188
0.21497265481668376,0.4308776872752764,-0.33779259051705796,-1.5204415537944913,0.17506097011990315,1.94273606848603,2.2337525304998853
0.20999159594330521,0.42993760584320756,-0.33930976533463936,-1.5228103402396995,0.17847481811266877,1.9459897226199012,2.229194080653396
0.20548198993052924,0.4291858134020791,-0.34066273755536325,-1.5248008346389235,0.18158878841943107,1.9488466503571367,2.22507492238979
0.20140172846508408,0.42858520856246823,-0.3418699217226023,-1.5264783713910155,0.1844248681103919,1.9513601757787529,2.221354966427386
0.19771196113410391,0.42810597662338956,-0.34294761482480407,-1.52789632952309,0.18700438257592306,1.9535756621230773,2.2179972283125724
0.1925202931624884,0.4273324295370195,-0.3445058964303624,-1.5301497548541794,0.19071187450977464,1.9568109374739255,2.21346323323503
0.1878196833747277,0.42673562768791407,-0.34589434312891754,-1.5320293430146934,0.19409160858624963,1.959647857035633,2.2093667326261555
0.1835663331393648,0.42627862906992053,-0.34713218564191517,-1.5336013405898357,0.19716801934057282,1.9621405626714081,2.2056678196581836
0.17971982129267916,0.4259319576822772,-0.34823641787200044,-1.5349196855189244,0.19996471306003624,1.9643350308923384,2.2023296411810196
0.17444400491075282,0.42518627405384124,-0.3498386955880405,-1.5373184886645943,0.20388866405674494,1.9678959993109502,2.1979281702893454
0.16966680317177535,0.42461828887238623,-0.3512651517668826,-1.5393241747272741,0.20746572180374825,1.971024695520124,2.193950630861423
0.16534383283306353,0.4241902033575046,-0.352535887139671,-1.541005886680242,0.21072173350494483,1.9737789243983113,2.190358589984238
0.16143411222065054,0.4238719289212913,-0.35366863593005166,-1.54241996567623,0.21368167600920238,1.9762079033386506,2.187116484345973
0.15789991808818177,0.42363953272615007,-0.3546790367400918,-1.5436124188182492,0.2163694141098115,1.9783536680577958,2.184191572452957
0.152910050144511,0.4230835572492375,-0.35620482815423266,-1.5458079958020778,0.22022561646098537,1.9818139116937867,2.180279391174611
0.1483936637028208,0.42267466219704763,-0.3575630463350544,-1.5476488348039752,0.2237364240345857,1.9848620677242057,2.176745454234697
0.14430823875435878,0.42238038379071025,-0.35877292173151404,-1.5491966840790559,0.22692853776753844,1.9875519843316425,2.1735551701327864
0.1406145931118893,0.4221749844318669,-0.3598513956545622,-1.5505019459516225,0.22982751493878784,1.989929693600358,2.1706765977881566
0.13537695229159932,0.42180823371857734,-0.3614002772351799,-1.5525431376272836,0.2340674816694107,1.9932748582728816,2.1668419828960124
0.13063640175995853,0.421574434035676,-0.3627778562126521,-1.5542383609749262,0.23792410302870118,1.996216231291381,2.1633794266418387
0.12634828666340567,0.42144160106872675,-0.36400398043238347,-1.5556497578667983,0.24142770121727247,1.9988074442184007,2.1602548245536317
0.12247145991362451,0.42138461167124364,-0.3650961082973918,-1.5568278424102897,0.24460714851850202,2.001094218479902,2.157436655002739
0.11896811325250536,0.42138378981308416,-0.36606959349234297,-1.5578137481618608,0.2474897015512881,2.0031156501987666,2.1548959376070265
0.1138706887098125,0.4211249846393274,-0.3674932102192993,-1.5597733743568818,0.2519226074267275,2.0064204371818697,2.151370914061933
0.1092591062556993,0.42097974387315473,-0.36875849450462445,-1.561408493617555,0.25594934639966743,2.009331793947262,2.148189156424058
0.10508933467333592,0.4209196841552422,-0.36988397280553625,-1.5627765070025506,0.25960315511436655,2.011901114733654,2.1453189967158166
0.10132087734584057,0.42092259793276465,-0.37088590314032555,-1.5639241773390624,0.26291542097092224,2.0141723380488448,2.142731196308372
0.09791658497076683,0.42097117283568114,-0.3717785539098517,-1.5648896718445897,0.2659155728688216,2.016183140613315,2.1403989017099763
0.09290973945292934,0.4205814711120736,-0.3730995672179726,-1.5672309226144407,0.2706761845571131,2.020001888411466,2.137037680438352
0.08838144363275166,0.4203152277294591,-0.3742719767357593,-1.5692152110773732,0.27499902641322704,2.0233788044749774,2.1340022619086705
0.08428809895746218,0.4201436481627524,-0.37531346034979335,-1.5709021424128051,0.27892025098510514,2.0263695735989136,2.1312629191684884
0.08058964463566716,0.4200440526786268,-0.3762394831949613,-1.5723406502456636,0.2824739220170682,2.0290220957703093,2.12879212600818
0.07724936369783113,0.41999861916253867,-0.3770635776983495,-1.573571009699844,0.28569191792131254,2.0313776949517854,2.1265645416637113
0.07423367702908892,0.4199933832201305,-0.37779759181516087,-1.5746264536982946,0.2886039051765423,2.033472122309876,2.1245569438313607
0.06952156071683453,0.41958342475098953,-0.3789344223790726,-1.5770808662123046,0.293494747154291,2.0374182263778073,2.121479163272508
0.06526224679422056,0.41928775148297676,-0.37994212175897996,-1.5791841263121433,0.2979314629547867,2.040918213021416,2.1186995679112135
0.06141402740086685,0.41908066033521874,-0.3808362890416566,-1.5809919259182073,0.3019524871662745,2.0440265835314597,2.1161909421743372
0.057938667339664005,0.4189418274260922,-0.381630524696692,-1.582550334701612,0.3055938138063911,2.0467904820863274,2.1139280954191637
0.0548011945248343,0.41885520943800436,-0.38233669309373725,-1.5838975751078392,0.3088889577157966,2.0492508016334003,2.1118878433045434
0.05196968385878835,0.41880816904526325,-0.38296515286613547,-1.5850654524199947,0.3118689762703611,2.0514431065208814,2.110048943256548
0.047393924871410156,0.4184347878134315,-0.38395500527971266,-1.5875635216101855,0.3167958603643842,2.0554213532908565,2.106802769148411
0.043257519251673225,0.41816753163806913,-0.3848301949650156,-1.5897121217958763,0.3212649201265288,2.0589512834998422,2.1038710385289336
0.03952007813428491,0.4179823783235974,-0.38560495156105007,-1.591565601680152,0.32531496808089505,2.0620874221849594,2.1012249644918075
0.0361445559739275,0.41786034971387687,-0.38629161924904154,-1.5931690534581822,0.3289823402457375,2.064876973606673,2.0988379467087435
0.033097053998714314,0.4177864791463591,-0.38690091489242073,-1.594560004613491,0.33230085960258615,2.067360915542868,2.0966855318363766
0.02829219311193945,0.4174560773068347,-0.38782010357510577,-1.597208370819631,0.33751903825822205,2.071557208439259,2.0928379899552416
0.023945681710439367,0.4172344728296727,-0.3886288259642509,-1.5994809631789841,0.342256170655525,2.075274401503202,2.089362372419232
0.02001599845048552,0.4170959781620821,-0.38934141982026627,-1.6014369912207091,0.3465521717323192,2.078571818515443,2.086224761041821
0.016464927003941653,0.4170204024351696,-0.38997023253208485,-1.6031254724507267,0.35044462412525385,2.081500652462486,2.083393793072889
0.013257393557651827,0.4169919135554716,-0.39052590549859195,-1.6045871107608687,0.35396867401489324,2.0841052043101036,2.080840618293562
0.008239086516061339,0.41685599777294174,-0.3913364718730472,-1.6070843347145876,0.35935948880373886,2.0881681883996523,2.076333710645126
0.0036966694722290715,0.4168135617088878,-0.3920450869794214,-1.6092131694453364,0.36425518546351005,2.0917570819299605,2.0722639735683654
-0.0004123876725879985,0.41683961995058977,-0.3926656944622095,-1.6110335889913157,0.3686963469079972,2.0949322936256167,2.0685912149531096
-0.004127355987212904,0.41691478336229604,-0.3932101984245138,-1.6125950038077668,0.3727213307791071,2.0977456919409225,2.0652783483667765
-0.007484376349814239,0.41702407563774013,-0.3936887695373187,-1.6139382351086395,0.37636611348833016,2.1002419413772695,2.062291316722121
-0.012703847503190247,0.41713258626139543,-0.39436343487544623,-1.616178959093854,0.38188113118746886,2.104074044801435,2.057084274755775
-0.017430870010783174,0.4173127997861211,-0.39494761323403943,-1.6180711045262952,0.38689043401860024,2.1074473778347866,2.0523846911759644
-0.02170892630948939,0.4175413732147298,-0.3954545356122331,-1.6196737799842669,0.39143516181249444,2.110422291318634,2.048145420171964
-0.02557828468152132,0.4178005050748193,-0.3958953756732591,-1.621035403812771,0.3955543094716552,2.113050324108698,2.0443230706747224
-0.029076095583284445,0.4180767345558321,-0.3962795758456955,-1.622195731827293,0.3992845269000473,2.1153756179028353,2.0408778816611703
-0.034305100404913164,0.41836736872567065,-0.39697796001310837,-1.6243449010732043,0.40504851776440326,2.1192371940956023,2.0362225141095713
-0.039038359040489815,0.4187103861707368,-0.39758322870010054,-1.6261569643482496,0.4102780644466533,2.1226421930913104,2.032023350751819
-0.04332011248573926,0.41908458205245036,-0.3981089415176388,-1.627689425363395,0.41501786835795484,2.12564981434853,2.028237675153089
-0.04719123396261128,0.4194740406480999,-0.3985665515045223,-1.6289893509672184,0.4193100104417068,2.1283107266210095,2.0248262001016886
-0.05068935466738233,0.4198669671257884,-0.39896574005479907,-1.630095353774332,0.4231938179990642,2.130668425605134,2.021752957824764
-0.0557428533962269,0.42017797859323786,-0.39979412975278517,-1.6324804498518004,0.4292644195367745,2.134965385019476,2.018388300062438
-0.060312081811780376,0.420537204141723,-0.40051721932667217,-1.6345103991032168,0.4347642945858251,2.1387749712428588,2.015355240731208
-0.06444127341692019,0.42092429076701426,-0.40114963709583606,-1.6362433926580557,0.4397428677139007,2.142157050757944,2.0126226668214695
-0.06817108185989296,0.4213239982202632,-0.4017038254688304,-1.6377273453713692,0.4442462558838039,2.145163347830847,2.0101618965607417
-0.07153876733583743,0.42172506823106654,-0.40219037866382173,-1.639001813968987,0.44831724640685994,2.147838677910553,2.0079466397707124
-0.074578399620139,0.4221193341500563,-0.40261832999853114,-1.6400995410560375,0.45199535309055755,2.150221975828577,2.005952905067096
-0.0789784093391315,0.4222411491256297,-0.4035938109218142,-1.6429665083998726,0.4580607824451065,2.155196808554703,2.004494229359681
-0.08294804720567552,0.4224204018579135,-0.4044535076692878,-1.6454477555717864,0.46354481275328124,2.15963900645601,2.003182044113828
-0.08652835364258012,0.42263784632487245,-0.4052123323783929,-1.6476009076654106,0.4685001768866388,2.1636085125088784,2.0020025470699956
-0.08975668766520704,0.4228788021345749,-0.40588311665969595,-1.6494741343997605,0.4729755152233966,2.1671580063686826,2.00094290277226
-0.0926670036204585,0.42313217522429547,-0.4064769168842647,-1.65110782001961,0.477015524855249,2.170333871839327,1.999991289752521
-0.09529012045318949,0.4233896816656091,-0.4070032753524279,-1.6525359213002224,0.4806611509415767,2.1731770216967776,1.9991368990393563
-0.09765397968330737,0.42364523262038184,-0.40747044273551175,-1.6537870747750296,0.4839498037596273,2.1757236029282527,1.9983699013456198
-0.10117387222230104,0.4235067592195976,-0.4086273495095525,-1.6571677987109958,0.48974082311195594,2.1813093431387993,1.9990203544805212
-0.1043386478099671,0.4234419846532281,-0.40965703701541606,-1.6601284570654662,0.49496169508334603,2.186321959337623,1.9996150120290845
-0.10718428925365446,0.4234321846221796,-0.4105743711708904,-1.66272644425576,0.49966711223424964,2.1908211553948753,2.000158610971921
-0.10974312617590881,0.4234626606665338,-0.4113923443880749,-1.6650105374163788,0.5039068929534913,2.1948603050079116,2.000655334014367
-0.11204420090851056,0.4235219291502417,-0.4121223283558113,-1.6670222947190647,0.5077263189408339,2.198487129738806,2.001108943142303
-0.11411360054438958,0.42360106891016897,-0.41277429210939803,-1.6687972138190041,0.5111664758100241,2.201744306204519,2.0015228687394377
-0.11597475716321501,0.4236931969082053,-0.41335698958879924,-1.6703656932340896,0.5142645877544221,2.2046700088799085,2.0019002687636998
-0.11764871856243336,0.42379304714818655,-0.41387812069053515,-1.6717538315306428,0.5170543400846898,2.207298394668295,2.0022440680757327
-0.1205662736490975,0.42334676814117117,-0.4149646153024206,-1.6756300706991731,0.5227611820481706,2.213317078093229,2.0036104306754687
-0.12318396836246721,0.42299893001975336,-0.4159340037398669,-1.6790456330016255,0.5279008682758752,2.218726991612821,2.004851148962553
-0.12553323528789778,0.42272961823470456,-0.4167996074576633,-1.6820600797440877,0.5325288192146339,2.2235897571166947,2.0059775891368763
-0.1276421162938026,0.422522781263558,-0.41757311654654183,-1.6847245539832525,0.5366953146895141,2.227960837723179,2.0069999747500633
-0.1295356404199072,0.42236549995488804,-0.41826480530610677,-1.6870830639065535,0.5404458942487378,2.2318901167305665,2.0079275629700724
-0.13123615911628703,0.4222473923949048,-0.41888371830497756,-1.6891735605397762,0.5438217476926018,2.2354224344615328,2.0087687757471056
-0.13276364323020154,0.4221601296359594,-0.4194378305966989,-1.6910288434967409,0.546860089192422,2.2385980822079117,2.0095312996100456
-0.13413594592866795,0.4220970420217522,-0.4199341855464337,-1.6926773229385121,0.5495945108419003,2.241453253923964,2.0102221636920277
-0.13676122249953448,0.421273403199919,-0.4208599079107695,-1.697306892653424,0.5557034560739105,2.2482917199146635,2.011579412423201
-0.13911463525026257,0.42058811547118286,-0.4216833431603695,-1.7013967840860242,0.5612086213870983,2.25444132219972,2.012809048204693
-0.14122506641591628,0.42001692354277703,-0.4224165696442956,-1.7050150411397558,0.5661683691468958,2.2599712009645185,2.013923243290826
-0.1431182109427605,0.41953991757202314,-0.42307011538251943,-1.7082203630814075,0.5706357698326547,2.2649437139012663,2.0149328169583636
-0.1448169449645076,0.4191407502520639,-0.4236531725651884,-1.711063486175434,0.5746589901606474,2.2694150442332766,2.0158474603679677
-0.14634165021573925,0.41880599393777745,-0.42417378181937976,-1.713588351353311,0.5782816774186308,2.2734357723010317,2.0166759057000516
-0.14771049942710832,0.418524613248182,-0.42463898995111765,-1.715833091448798,0.5815433321386454,2.277051407178997,2.017426055522555
-0.1489397073693215,0.41828753274905783,-0.4250549847239445,-1.7178308663884538,0.5844796638274952,2.280302877040902,2.0181050837735293
-0.15146810743081213,0.41724834748701634,-0.4257721637779557,-1.7229520593739596,0.5911449223154447,2.2876373846725007,2.0192453967597803
-0.1537352560419671,0.4163720201405842,-0.42640538765438485,-1.7274787470443607,0.5971571599054911,2.294232819497726,2.020275869961791
-0.15576879618882017,0.4156313068229358,-0.42696538360011016,-1.7314854593121,0.6025783893329482,2.300163373344792,2.0212077247039173
-0.15759334139454617,0.41500370293783284,-0.42746137375628995,-1.7350365634460858,0.6074652185873465,2.3054959672437927,2.022050748729898
-0.1592308220888595,0.4144706050934134,-0.4279013009762154,-1.7381877535484351,0.6118692015566857,2.3102908990159876,2.0228135665086815
-0.1607007912672476,0.41401662087355284,-0.42829202083861684,-1.7409873120942554,0.6158371975336391,2.3146024538222405,2.023503841403573
-0.1620206939506322,0.4136290008972143,-0.42863946416306603,-1.7434771785748662,0.619411729030874,2.3184794731551355,2.024128428512143
-0.16320610466681554,0.41329717184390363,-0.4289487741600314,-1.7456938551039258,0.622631330356005,2.321965880404203,2.024693491813116
-0.16571836419502456,0.4121075622022287,-0.4294102777815172,-1.7512150760045093,0.6299959653256866,2.3297343846561867,2.0255037978379713
-0.1679730099465546,0.4110997105154433,-0.4298096884673425,-1.7560941032260788,0.6366467215063462,2.3367184743679883,2.026231808872174
-0.16999692810490225,0.41024376120204814,-0.43015626158299786,-1.7604116191339534,0.6426498999593826,2.3429971575978237,2.0268871202270886
-0.17181412705267923,0.4095149919108172,-0.43045775960512545,-1.7642372878990416,0.6480663210572108,2.348641660476982,2.027477821562892
-0.17344605406680463,0.4088929123996412,-0.4307207010368706,-1.7676313695757815,0.6529516152156377,2.35371612488288,2.0280108230433784
-0.1749118769756666,0.4083605215154238,-0.43095056929100994,-1.7706460882731092,0.6573565406115383,2.3582782660647776,2.028492097861046
-0.17622873423616067,0.4079036951166117,-0.4311519869233935,-1.7733267917659827,0.6613273136499018,2.3623799851461182,2.028926863428061
-0.177411956788024,0.4075106822351408,-0.4313288603379969,-1.775712934530366,0.6649059414834365,2.366067934414894,2.0293197176580926
-0.1784752648195315,0.4071716905564346,-0.43148449961672164,-1.7778389115004627,0.6681305487816851,2.369384035391856,2.029674742400846
-0.1787002948107291,0.4060570152749608,-0.4333447203968688,-1.7836299725391418,0.6725311873714437,2.37833396248233,2.035476927922027
-0.17887321896327826,0.4051374877221967,-0.4350348716503551,-1.7887250376122208,0.676427462277696,2.3863524748617095,2.040772596639556
-0.17900474288735313,0.40437822007840685,-0.43656992532678945,-1.7932153048058357,0.6798799678033985,2.3935369868773533,2.045600673072022
-0.17910348623294023,0.4037505760587875,-0.4379635077275554,-1.7971789438052825,0.6829418504474727,2.399975046874946,2.0499978120965783
-0.1791763783087168,0.4032310687043256,-0.4392280570717113,-1.8006830788340735,0.6856596777161237,2.4057451720931717,2.053998476613221
-0.17922897972716015,0.40280044449307534,-0.4403749509353489,-1.8037854640875737,0.6880742314647875,2.4109176724714834,2.0576349947981005
-0.1792657437973004,0.402442925087118,-0.4414146106717311,-1.8065358968107958,0.6902212228245582,2.415555440353233,2.0609376116702065
-0.17929022887292723,0.40214558148959567,-0.4423565884991189,-1.8089774079018743,0.6921319298674193,2.4197146922346984,2.063934543347328
-0.17930527078734457,0.4018978187715753,-0.44320964164355914,-1.8111472647242925,0.6938337618050101,2.423445655233121,2.0666520381307043
-0.17931312280676856,0.4016909526898895,-0.44398179682011824,-1.8130778159339083,0.69535075507221,2.42679319545997,2.0691144458332893
-0.17603618328851198,0.4013510531629395,-0.4487680154203124,-1.817780928690042,0.693289721195943,2.434644261182041,2.0843778862438556
-0.17302251663658785,0.4011772912189378,-0.4531848458547424,-1.8218317375396624,0.6912068452658844,2.4414794630406775,2.0983302326647655
-0.17025901815967664,0.40112848047164484,-0.45725031164847296,-1.8253295114117551,0.6891500846572339,2.4474360328719205,2.111060239698502
-0.16773125077794995,0.40117204481765323,-0.4609835404083797,-1.8283572709035356,0.6871537364473875,2.4526330008286563,2.1226557677643774
-0.16542407937335157,0.4012823635257101,-0.4644043364624613,-1.830984572031332,0.6852413723455704,2.4571732319950947,2.133202520831343
-0.16332215526995533,0.401439412258652,-0.46753278229766304,-1.8332698050675043,0.6834282629736752,2.4611453898850537,2.1427830777793337
-0.16141027848448838,0.40162765280291723,-0.4703888897178976,-1.8352620911138038,0.6817233475303622,2.464625764652923,2.1514761931486173
-0.15967366116353562,0.4018351297805634,-0.4729923098867825,-1.837002846434769,0.680130811829988,2.467679934101455,2.159356331343737
-0.15809811205756377,0.40205273836915184,-0.47536210352280206,-1.8385270730859797,0.6786513372289347,2.4703642459558806,2.166493394616877
-0.156670158745643,0.4022736325226161,-0.47751656765297995,-1.839864424367281,0.6772830782355671,2.472727122994688,2.172952606213267
-0.15537712153192285,0.4024927481225992,-0.4794731126908541,-1.8410400851369457,0.676022419842184,2.4748102005586636,2.1787945137134326
-0.1542071504610622,0.4027064198078316,-0.4812481824896544,-1.8420754999190627,0.6748645582263578,2.4766493102929648,2.1840750824006023
-0.1466274456032157,0.403872726882,-0.49055099069888836,-1.8442866255470578,0.6638039986937151,2.4796294123737646,2.2116486762622793
-0.13978911635158042,0.4051518386548841,-0.49909883067371336,-1.84592103278609,0.6536589674843903,2.481589346439368,2.2366292529174356
-0.13363814248368505,0.4064890204405528,-0.5069173016618695,-1.8470996543874425,0.6444144227999,2.4827589380433133,2.259209092659953
-0.12811849849331003,0.4078430505264111,-0.5140419098747157,-1.847920606011005,0.6360322925845185,2.483324880781421,2.2795827972358502
-0.12317432898655284,0.4091834459932075,-0.5205144994631045,-1.8484631523188457,0.6284606098895087,2.4834372480605227,2.2979410870346095
-0.11875152971560328,0.41048819886031324,-0.5263803608780984,-1.848791035219796,0.6216401173260105,2.4832155308596096,2.3144666062695554
-0.11479881283662231,0.41174193788509494,-0.5316860131431056,-1.84895526525474,0.6155088651685041,2.4827540134694894,2.3293313185148428
-0.11126835371979879,0.41293444411584374,-0.5364775862796946,-1.8489964554317815,0.6100052846724776,2.4821264250366277,2.342695097109413
-0.10811611674416917,0.41405945899788404,-0.540799701826327,-1.8489467638222057,0.6050701414754189,2.481389881240681,2.354705173328298
-0.1053019471007249,0.41511373302816545,-0.5446947462726075,-1.8488315024637754,0.6006476905253858,2.48058817236733,2.365496173525064
-0.1027895007562029,0.4160962709952562,-0.5482024421808178,-1.8486704632292494,0.5966862775430478,2.479754473221677,2.3751905408680063
-0.10054606921833391,0.4170077369066082,-0.5513596370217153,-1.8484790052392666,0.593138568037461,2.4789135554583215,2.383899191961042
-0.09854234164519338,0.41784998788047995,-0.5542002458579882,-1.8482689427518748,0.5899615342722754,2.4780835799831715,2.3917223021555354
-0.08765555985333354,0.42144359760202915,-0.5680590238687109,-1.8462547139790986,0.5722993256002751,2.471385368725058,2.4297908331344735
-0.0782451343465413,0.42505823351316635,-0.5803841874353566,-1.8437359828277584,0.5568920212796954,2.4640024224534844,2.463545551993002
-0.07014576004823778,0.42861430217275964,-0.5912920799568074,-1.8408952395654188,0.543508632292951,2.456288038375718,2.493438795608804
-0.06319479614299077,0.43205550637281587,-0.6009146032015316,-1.8378741680917248,0.5319115694234842,2.4485028384590226,2.5199012786373043
-0.05723953481853504,0.4353437458524871,-0.609386791292409,-1.8347806353453426,0.5218733448143245,2.4408340133054556,2.5433301926716227
-0.05214114321203747,0.43845489919496083,-0.6168389961651302,-1.831695029175795,0.5131852792794943,2.433411745769484,2.564084233544315
