vajneluc/RoboDemos/Webots-Demos/panda_python/joints_moveit.csv
time_ns,q0,q1,q2,q3,q4,q5,q6,v0,v1,v2,v3,v4,v5,v6,a0,a1,a2,a3,a4,a5,a6,ee_pos_x,ee_pos_y,ee_pos_z,ee_rot_x,ee_rot_y,ee_rot_z,ee_rot_w
0,0,-0.785,0,-2.356,0,1.571,0.785,0,0,0,0,0,0,0,0,0,0,0,0,0,0,0.30702,-5.22133e-12,0.59027,0.923956,-0.382499,1.32493e-12,3.20041e-12
100000000,0.00236616,-0.785816,-0.00252873,-2.35996,-0.00218276,1.57438,0.775625,0.0473231,-0.016316,-0.0505747,-0.0791552,-0.0436551,0.0676835,-0.1875,0.473231,-0.16316,-0.505747,-0.791552,-0.436551,0.676835,-1.875,0.307073,-0.000512974,0.588948,0.925849,-0.377893,0.000185899,0.000136778
200000000,0.00946463,-0.788263,-0.0101149,-2.37183,-0.00873102,1.58454,0.7475,0.0946463,-0.032632,-0.101149,-0.15831,-0.0873102,0.135367,-0.375,0.473231,-0.16316,-0.505747,-0.791552,-0.436551,0.676835,-1.875,0.307222,-0.00201425,0.584965,0.93141,-0.363971,0.000724246,0.000551874
300000000,0.0212954,-0.792342,-0.0227586,-2.39162,-0.0196448,1.60146,0.700625,0.141969,-0.048948,-0.151724,-0.237466,-0.130965,0.203051,-0.5625,0.473231,-0.16316,-0.505747,-0.791552,-0.436551,0.676835,-1.875,0.307425,-0.00438927,0.578267,0.940268,-0.340428,0.00155749,0.00125536
400000000,0.0378585,-0.798053,-0.0404597,-2.41932,-0.0349241,1.62515,0.635,0.189293,-0.065264,-0.202299,-0.316621,-0.17462,0.270734,-0.75,0.473231,-0.16316,-0.505747,-0.791552,-0.436551,0.676835,-1.875,0.307611,-0.00744175,0.568767,0.951776,-0.306774,0.00259216,0.00225006
500000000,0.0591539,-0.805395,-0.0632184,-2.45494,-0.0545689,1.6556,0.550625,0.236616,-0.08158,-0.252873,-0.395776,-0.218276,0.338418,-0.9375,0.473231,-0.16316,-0.505747,-0.791552,-0.436551,0.676835,-1.875,0.307674,-0.0108865,0.556355,0.964958,-0.262356,0.00370537,0.00351105
600000000,0.0851816,-0.814369,-0.0910344,-2.49848,-0.0785792,1.69283,0.4475,0.283939,-0.097896,-0.303448,-0.474931,-0.261931,0.406101,-1.125,0.473231,-0.16316,-0.505747,-0.791552,-0.436551,0.676835,-1.875,0.307462,-0.0143412,0.540908,0.978442,-0.206406,0.00475938,0.0049586
700000000,0.115233,-0.82473,-0.12315,-2.54874,-0.106301,1.73581,0.328434,0.294626,-0.101581,-0.314869,-0.492807,-0.271789,0.421386,-1.16734,-0.473231,0.16316,0.505747,0.791552,0.436551,-0.676835,1.875,0.306787,-0.0172631,0.522742,0.990155,-0.139718,0.00561304,0.00639732
799999999,0.142329,-0.834072,-0.152108,-2.59407,-0.131297,1.77456,0.221075,0.247303,-0.0852647,-0.264295,-0.413652,-0.228134,0.353703,-0.979843,-0.473231,0.16316,0.505747,0.791552,0.436551,-0.676835,1.875,0.305741,-0.0188911,0.506106,0.996917,-0.0778787,0.00611979,0.00738566
899999998,0.164693,-0.841783,-0.176009,-2.63147,-0.151928,1.80655,0.132466,0.19998,-0.0689487,-0.21372,-0.334496,-0.184479,0.286019,-0.792343,-0.473231,0.16316,0.505747,0.791552,0.436551,-0.676835,1.875,0.304536,-0.0195016,0.492229,0.999616,-0.0257863,0.00640833,0.00792242
999999998,0.182325,-0.847862,-0.194852,-2.66097,-0.168193,1.83177,0.0626065,0.152656,-0.0526327,-0.163145,-0.255341,-0.140824,0.218336,-0.604843,-0.473231,0.16316,0.505747,0.791552,0.436551,-0.676835,1.875,0.30335,-0.0195103,0.481216,0.999819,0.0158545,0.00658882,0.00814031
1099999999,0.195224,-0.852309,-0.208638,-2.68254,-0.180093,1.85022,0.0114971,0.105333,-0.0363167,-0.112571,-0.176186,-0.0971688,0.150652,-0.417343,-0.473231,0.16316,0.505747,0.791552,0.436551,-0.676835,1.875,0.302344,-0.0192512,0.473129,0.998858,0.0465901,0.00671179,0.00817459
1200000000,0.203392,-0.855125,-0.217367,-2.6962,-0.187627,1.8619,-0.0208622,0.0580101,-0.0200007,-0.061996,-0.0970308,-0.0535137,0.0829685,-0.229843,-0.473231,0.16316,0.505747,0.791552,0.436551,-0.676835,1.875,0.301643,-0.0189709,0.467998,0.997753,0.0661521,0.00679147,0.0081387
1300000000,0.206826,-0.856309,-0.221037,-2.70195,-0.190795,1.86681,-0.0344715,0.010687,-0.00368465,-0.0114213,-0.0178756,-0.00985864,0.015285,-0.0423431,-0.473231,0.16316,0.505747,0.791552,0.436551,-0.676835,1.875,0.301334,-0.0188261,0.465838,0.997172,0.0744005,0.00682629,0.00810988
1322583011,0.206947,-0.856351,-0.221166,-2.70215,-0.190907,1.86698,-0.0349496,0,0,0,0,0,0,0,0,0,0,0,0,0,0,0.301322,-0.0188207,0.465762,0.99715,0.0746904,0.00682753,0.00810872
1322583011,0.206947,-0.856351,-0.221166,-2.70215,-0.190907,1.86698,-0.0349496,0,0,0,0,0,0,0,0,0,0,0,0,0,0,0.301322,-0.0188207,0.465762,0.99715,0.0746904,0.00682753,0.00810872
1422583011,0.207001,-0.857982,-0.2252,-2.70595,-0.195436,1.87056,-0.0443246,0.00107853,-0.0326159,-0.0806785,-0.0759039,-0.0905902,0.0715925,-0.1875,0.0107853,-0.326159,-0.806785,-0.759039,-0.905902,0.715925,-1.875,0.30103,-0.0200593,0.464516,0.996806,0.0790527,0.00738422,0.00860001
1522583011,0.207163,-0.862874,-0.237302,-2.71733,-0.209025,1.8813,-0.0724496,0.00215705,-0.0652318,-0.161357,-0.151808,-0.18118,0.143185,-0.375,0.0107853,-0.326159,-0.806785,-0.759039,-0.905902,0.715925,-1.875,0.300118,-0.0236867,0.460758,0.995647,0.0922219,0.00902114,0.0100633
1622583011,0.207425,-0.870795,-0.256894,-2.73576,-0.231023,1.89869,-0.117982,0.00265832,-0.0803907,-0.198854,-0.187086,-0.223284,0.176459,-0.462145,-0.0107853,0.326159,0.806785,0.759039,0.905902,-0.715925,1.875,0.298541,-0.0292744,0.454617,0.993359,0.113796,0.0115752,0.0123929
1722583011,0.207637,-0.877203,-0.272745,-2.75068,-0.248822,1.91275,-0.154821,0.0015798,-0.0477749,-0.118176,-0.111182,-0.132694,0.104867,-0.274645,-0.0107853,0.326159,0.806785,0.759039,0.905902,-0.715925,1.875,0.29718,-0.0335334,0.449601,0.991125,0.131472,0.0135662,0.0142364
1822583011,0.207741,-0.880349,-0.280529,-2.758,-0.257562,1.91966,-0.172911,0.00050127,-0.015159,-0.0374972,-0.0352781,-0.0421039,0.0332743,-0.087145,-0.0107853,0.326159,0.806785,0.759039,0.905902,-0.715925,1.875,0.296484,-0.0355378,0.447124,0.989898,0.140221,0.0145226,0.0151265
1869060348,0.207752,-0.880702,-0.2814,-2.75882,-0.258541,1.92043,-0.174936,0,0,0,0,0,0,0,0,0,0,0,0,0,0,0.296406,-0.0357586,0.446846,0.989755,0.141203,0.0146289,0.0152255
1869060348,0.207752,-0.880702,-0.2814,-2.75882,-0.258541,1.92043,-0.174936,0,0,0,0,0,0,0,0,0,0,0,0,0,0,0.296406,-0.0357586,0.446846,0.989755,0.141203,0.0146289,0.0152255
1969060348,0.207494,-0.882116,-0.285804,-2.76239,-0.263285,1.92435,-0.184311,-0.00516321,-0.0282942,-0.0880734,-0.0714507,-0.0948848,0.0783786,-0.1875,-0.0516321,-0.282942,-0.880734,-0.714507,-0.948848,0.783786,-1.875,0.296118,-0.0369924,0.445606,0.989116,0.145499,0.0152707,0.0156718
2069060348,0.20672,-0.886361,-0.299015,-2.77311,-0.277518,1.93611,-0.212436,-0.0103264,-0.0565884,-0.176147,-0.142901,-0.18977,0.156757,-0.375,-0.0516321,-0.282942,-0.880734,-0.714507,-0.948848,0.783786,-1.875,0.29522,-0.0405972,0.441869,0.98707,0.158458,0.0171753,0.0170036
2169060348,0.205513,-0.892976,-0.319606,-2.78982,-0.299701,1.95444,-0.256272,-0.0113326,-0.0621022,-0.19331,-0.156826,-0.20826,0.172031,-0.411539,0.0516321,0.282942,0.880734,0.714507,0.948848,-0.783786,1.875,0.293716,-0.0459239,0.436001,0.983484,0.178866,0.0200914,0.019055
2269060348,0.204637,-0.897771,-0.334533,-2.80193,-0.315783,1.96772,-0.288051,-0.0061694,-0.0338081,-0.105237,-0.0853748,-0.113376,0.0936527,-0.224039,0.0516321,0.282942,0.880734,0.714507,0.948848,-0.783786,1.875,0.292552,-0.0495598,0.431717,0.980573,0.193813,0.0221747,0.0205206
2369060348,0.204279,-0.899737,-0.340653,-2.80689,-0.322376,1.97317,-0.30108,-0.00100619,-0.00551387,-0.0171634,-0.0139241,-0.0184908,0.0152741,-0.0365394,0.0516321,0.282942,0.880734,0.714507,0.948848,-0.783786,1.875,0.292058,-0.0509952,0.429955,0.979303,0.199976,0.0230233,0.0211157
2388548003,0.204269,-0.899791,-0.340821,-2.80703,-0.322557,1.97331,-0.301436,0,0,0,0,0,0,0,0,0,0,0,0,0,0,0.292045,-0.0510339,0.429907,0.979267,0.200144,0.0230464,0.0211319
2388548003,0.204269,-0.899791,-0.340821,-2.80703,-0.322557,1.97331,-0.301436,0,0,0,0,0,0,0,0,0,0,0,0,0,0,0.292045,-0.0510339,0.429907,0.979267,0.200144,0.0230464,0.0211319
2488548003,0.203746,-0.900911,-0.345599,-2.8103,-0.327408,1.97748,-0.310811,-0.0104532,-0.0223927,-0.0955746,-0.0655527,-0.0970212,0.0832152,-0.1875,-0.104532,-0.223927,-0.955746,-0.655527,-0.970212,0.832152,-1.875,0.291763,-0.0522548,0.428682,0.978378,0.204329,0.0237553,0.0215107
2588548003,0.202178,-0.904269,-0.359936,-2.82014,-0.341961,1.98996,-0.338936,-0.0209063,-0.0447854,-0.191149,-0.131105,-0.194042,0.16643,-0.375,-0.104532,-0.223927,-0.955746,-0.655527,-0.970212,0.832152,-1.875,0.290878,-0.0558173,0.424998,0.975579,0.216941,0.0258748,0.022646
2688548003,0.199849,-0.909258,-0.381228,-2.83474,-0.363575,2.0085,-0.380707,-0.0204517,-0.0438115,-0.186993,-0.128254,-0.189823,0.162811,-0.366846,0.104532,0.223927,0.955746,0.655527,0.970212,-0.832152,1.875,0.289461,-0.0608286,0.419495,0.971057,0.235828,0.0290115,0.0243278
2788548003,0.198327,-0.91252,-0.395148,-2.84429,-0.377706,2.02062,-0.408017,-0.00999856,-0.0214188,-0.091418,-0.0627018,-0.0928018,0.0795962,-0.179346,0.104532,0.223927,0.955746,0.655527,0.970212,-0.832152,1.875,0.288473,-0.0639223,0.415881,0.967859,0.24827,0.0310616,0.0254238
2884199014,0.197849,-0.913544,-0.39952,-2.84729,-0.382144,2.02442,-0.416594,0,0,0,0,0,0,0,0,0,0,0,0,0,0,0.288153,-0.0648639,0.414743,0.966814,0.252192,0.0317062,0.0257673
2884199014,0.197849,-0.913544,-0.39952,-2.84729,-0.382144,2.02442,-0.416594,0,0,0,0,0,0,0,0,0,0,0,0,0,0,0.288153,-0.0648639,0.414743,0.966814,0.252192,0.0317062,0.0257673
2984199014,0.197137,-0.914305,-0.404656,-2.85021,-0.387,2.02872,-0.425969,-0.014243,-0.0152231,-0.102722,-0.0584323,-0.097113,0.0859023,-0.1875,-0.14243,-0.152231,-1.02722,-0.584323,-0.97113,0.859023,-1.875,0.287876,-0.0660659,0.413544,0.965717,0.256236,0.0324612,0.0260645
3084199014,0.195,-0.916589,-0.420065,-2.85897,-0.401567,2.0416,-0.454094,-0.0284859,-0.0304461,-0.205444,-0.116865,-0.194226,0.171805,-0.375,-0.14243,-0.152231,-1.02722,-0.584323,-0.97113,0.859023,-1.875,0.287005,-0.0695737,0.409936,0.962301,0.268408,0.0347317,0.0269633
3184199014,0.192002,-0.919793,-0.441688,-2.87127,-0.422009,2.05969,-0.493563,-0.0248259,-0.0265343,-0.179048,-0.101849,-0.169271,0.14973,-0.326818,0.14243,0.152231,1.02722,0.584323,0.97113,-0.859023,1.875,0.285684,-0.0742454,0.404854,0.957185,0.285588,0.0379385,0.0282432
3284199014,0.190232,-0.921685,-0.454456,-2.87854,-0.434081,2.07036,-0.51687,-0.010583,-0.0113112,-0.0763258,-0.043417,-0.072158,0.0638281,-0.139318,0.14243,0.152231,1.02722,0.584323,0.97113,-0.859023,1.875,0.284853,-0.0768653,0.401844,0.953983,0.295782,0.0398477,0.0290093
3358502123,0.189838,-0.922106,-0.457292,-2.88015,-0.436762,2.07274,-0.522046,0,0,0,0,0,0,0,0,0,0,0,0,0,0,0.284663,-0.0774331,0.401175,0.953254,0.298051,0.0402736,0.0291805
3358502123,0.189838,-0.922106,-0.457292,-2.88015,-0.436762,2.07274,-0.522046,0,0,0,0,0,0,0,0,0,0,0,0,0,0,0.284663,-0.0774331,0.401175,0.953254,0.298051,0.0402736,0.0291805
3458502123,0.189028,-0.922474,-0.46275,-2.88267,-0.441533,2.07706,-0.531421,-0.0162042,-0.00735894,-0.109164,-0.0505126,-0.0954263,0.0865337,-0.1875,-0.162042,-0.0735894,-1.09164,-0.505126,-0.954263,0.865337,-1.875,0.284392,-0.0786136,0.400006,0.95199,0.301938,0.0410543,0.0293906
3558502123,0.186598,-0.923577,-0.479125,-2.89025,-0.455847,2.09004,-0.559546,-0.0324084,-0.0147179,-0.218328,-0.101025,-0.190853,0.173067,-0.375,-0.162042,-0.0735894,-1.09164,-0.505126,-0.954263,0.865337,-1.875,0.283534,-0.0820631,0.396491,0.948079,0.313622,0.0434118,0.0300379
3658502123,0.183401,-0.925029,-0.500659,-2.90022,-0.474671,2.10711,-0.596533,-0.0250784,-0.0113891,-0.168948,-0.0781758,-0.147687,0.133924,-0.290185,0.162042,0.0735894,1.09164,0.505126,0.954263,-0.865337,1.875,0.282313,-0.0863878,0.391855,0.942663,0.329033,0.0465518,0.0309292
3758502123,0.181703,-0.9258,-0.512096,-2.90551,-0.484669,2.11618,-0.616177,-0.00887424,-0.00403013,-0.0597839,-0.0276633,-0.0522603,0.0473903,-0.102685,0.162042,0.0735894,1.09164,0.505126,0.954263,-0.865337,1.875,0.281624,-0.0885861,0.389389,0.939658,0.337236,0.0482401,0.0314217
3813267245,0.18146,-0.92591,-0.513733,-2.90627,-0.4861,2.11748,-0.618988,0,0,0,0,0,0,0,0,0,0,0,0,0,0,0.281524,-0.0888952,0.389035,0.939221,0.338411,0.0484831,0.0314933
3813267245,0.18146,-0.92591,-0.513733,-2.90627,-0.4861,2.11748,-0.618988,0,0,0,0,0,0,0,0,0,0,0,0,0,0,0.281524,-0.0888952,0.389035,0.939221,0.338411,0.0484831,0.0314933
3913267245,0.180647,-0.925882,-0.519468,-2.90838,-0.490716,2.12175,-0.628363,-0.0162667,0.00055894,-0.114706,-0.042264,-0.092319,0.0853974,-0.1875,-0.162667,0.0055894,-1.14706,-0.42264,-0.92319,0.853974,-1.875,0.281256,-0.0900542,0.387898,0.937824,0.342138,0.049272,0.0316174
4013267245,0.178207,-0.925799,-0.536674,-2.91472,-0.504564,2.13456,-0.656488,-0.0325334,0.00111788,-0.229413,-0.0845281,-0.184638,0.170795,-0.375,-0.162667,0.0055894,-1.14706,-0.42264,-0.92319,0.853974,-1.875,0.28041,-0.0934487,0.384481,0.933525,0.353324,0.0516603,0.0320172
4113267245,0.175228,-0.925696,-0.557679,-2.92246,-0.521469,2.15019,-0.690823,-0.0221939,0.000762605,-0.156503,-0.0576641,-0.125958,0.116514,-0.255821,0.162667,-0.0055894,1.14706,0.42264,0.92319,-0.853974,1.875,0.279293,-0.097424,0.380298,0.928051,0.366983,0.0546221,0.0325623
4213267245,0.173822,-0.925648,-0.567594,-2.92611,-0.529449,2.15757,-0.70703,-0.00592722,0.000203665,-0.0417963,-0.0154,-0.0336389,0.0311168,-0.0683207,0.162667,-0.0055894,1.14706,0.42264,0.92319,-0.853974,1.875,0.278734,-0.0992355,0.378321,0.925382,0.37343,0.0560389,0.0328422
4249704947,0.173714,-0.925644,-0.568356,-2.92639,-0.530062,2.15814,-0.708275,0,0,0,0,0,0,0,0,0,0,0,0,0,0,0.278691,-0.0993729,0.378169,0.925174,0.373925,0.0561482,0.0328643
4249704947,0.173714,-0.925644,-0.568356,-2.92639,-0.530062,2.15814,-0.708275,0,0,0,0,0,0,0,0,0,0,0,0,0,0,0.278691,-0.0993729,0.378169,0.925174,0.373925,0.0561482,0.0328643
4349704947,0.172985,-0.925245,-0.574321,-2.9281,-0.534471,2.16228,-0.71765,-0.0145939,0.00797375,-0.1193,-0.0340977,-0.0881816,0.0828636,-0.1875,-0.145939,0.0797375,-1.193,-0.340977,-0.881816,0.828636,-1.875,0.278427,-0.100512,0.377064,0.923672,0.377498,0.0569317,0.032908
4449704947,0.170796,-0.924049,-0.592216,-2.93321,-0.547698,2.17471,-0.745775,-0.0291878,0.0159475,-0.238599,-0.0681953,-0.176363,0.165727,-0.375,-0.145939,0.0797375,-1.193,-0.340977,-0.881816,0.828636,-1.875,0.277591,-0.103859,0.373741,0.919067,0.388206,0.0593059,0.0330764
4549704947,0.168344,-0.92271,-0.612255,-2.93894,-0.56251,2.18863,-0.777271,-0.0173472,0.00947811,-0.141807,-0.0405307,-0.104818,0.098497,-0.222875,0.145939,-0.0797375,1.193,0.340977,0.881816,-0.828636,1.875,0.276579,-0.10748,0.370009,0.913733,0.40017,0.0620076,0.0333328
4649704947,0.167339,-0.922161,-0.620471,-2.94129,-0.568583,2.19434,-0.790183,-0.00275335,0.00150436,-0.0225076,-0.00643301,-0.0166367,0.0156334,-0.0353746,0.145939,-0.0797375,1.193,0.340977,0.881816,-0.828636,1.875,0.276142,-0.108925,0.368477,0.911492,0.405065,0.0631286,0.033459
4668571379,0.167313,-0.922147,-0.620683,-2.94135,-0.56874,2.19449,-0.790517,0,0,0,0,0,0,0,0,0,0,0,0,0,0,0.276131,-0.108962,0.368437,0.911434,0.405192,0.0631577,0.0334625
4668571379,0.167313,-0.922147,-0.620683,-2.94135,-0.56874,2.19449,-0.790517,0,0,0,0,0,0,0,0,0,0,0,0,0,0,0.276131,-0.108962,0.368437,0.911434,0.405192,0.0631577,0.0334625
4768571379,0.166738,-0.921422,-0.626833,-2.94266,-0.57291,2.19845,-0.799892,-0.011507,0.0144973,-0.122998,-0.0263155,-0.0833895,0.0793082,-0.1875,-0.11507,0.144973,-1.22998,-0.263155,-0.833895,0.793082,-1.875,0.27587,-0.110085,0.367361,0.909848,0.408623,0.0639259,0.0334337
4868571379,0.165012,-0.919247,-0.645283,-2.94661,-0.585418,2.21035,-0.828017,-0.0230139,0.0289946,-0.245996,-0.0526309,-0.166779,0.158616,-0.375,-0.11507,0.144973,-1.22998,-0.263155,-0.833895,0.793082,-1.875,0.275043,-0.113393,0.364124,0.905001,0.41889,0.0662527,0.0333933
4968571378,0.163266,-0.917047,-0.663947,-2.9506,-0.598072,2.22238,-0.85647,-0.0117091,0.0147519,-0.125158,-0.0267776,-0.084854,0.0807011,-0.190793,0.11507,-0.144973,1.22998,0.263155,0.833895,-0.793082,1.875,0.274139,-0.116648,0.360837,0.899962,0.429232,0.0686405,0.0334237
5068571378,0.16267,-0.916297,-0.670313,-2.95197,-0.602388,2.22649,-0.866174,-0.000202092,0.00025461,-0.00216016,-0.000462167,-0.00146453,0.00139286,-0.00329298,0.11507,-0.144973,1.22998,0.263155,0.833895,-0.793082,1.875,0.273816,-0.117737,0.359714,0.898212,0.432748,0.0694627,0.0334506
5070327634,0.16267,-0.916297,-0.670315,-2.95197,-0.602389,2.22649,-0.866177,0,0,0,0,0,0,0,0,0,0,0,0,0,0,0.273816,-0.117737,0.359713,0.898211,0.43275,0.069463,0.0334506
5070327634,0.16267,-0.916297,-0.670313,-2.95197,-0.602388,2.22649,-0.866174,0,0,0,0,0,0,0,0,0,0,0,0,0,0,0.273816,-0.117737,0.359714,0.898212,0.432748,0.0694627,0.0334506
5170327634,0.1623,-0.915301,-0.676609,-2.95292,-0.606302,2.23024,-0.875549,-0.00739688,0.0199276,-0.125911,-0.0191059,-0.0782729,0.0750713,-0.1875,-0.0739688,0.199276,-1.25911,-0.191059,-0.782729,0.750713,-1.875,0.273558,-0.118846,0.358664,0.896558,0.436053,0.0702088,0.0333581
5270327634,0.161195,-0.912323,-0.695424,-2.95578,-0.617998,2.24146,-0.903568,-0.0136811,0.0368576,-0.232882,-0.0353379,-0.144772,0.138851,-0.346797,0.0739688,-0.199276,1.25911,0.191059,0.782729,-0.750713,1.875,0.272741,-0.122111,0.355514,0.891535,0.445889,0.0724568,0.0331342
5370327634,0.160197,-0.909633,-0.712417,-2.95835,-0.628562,2.25159,-0.928872,-0.00628426,0.0169301,-0.106972,-0.016232,-0.0664993,0.0637793,-0.159297,0.0739688,-0.199276,1.25911,0.191059,0.782729,-0.750713,1.875,0.271946,-0.124998,0.352655,0.886898,0.454721,0.07451,0.0330002
5455285854,0.15993,-0.908914,-0.716961,-2.95904,-0.631387,2.2543,-0.935639,0,0,0,0,0,0,0,0,0,0,0,0,0,0,0.271725,-0.125759,0.351888,0.885642,0.457074,0.0750626,0.0329755
5455285854,0.15993,-0.908915,-0.716959,-2.95904,-0.631385,2.2543,-0.935636,0,0,0,0,0,0,0,0,0,0,0,0,0,0,0.271725,-0.125759,0.351889,0.885643,0.457073,0.0750623,0.0329755
5555285854,0.159797,-0.907703,-0.723367,-2.95967,-0.63504,2.25782,-0.945011,-0.00264977,0.024222,-0.128168,-0.012561,-0.0731017,0.0704391,-0.1875,-0.0264977,0.24222,-1.28168,-0.12561,-0.731017,0.704391,-1.875,0.271468,-0.126857,0.350861,0.883932,0.460266,0.075782,0.0328278
5655285854,0.159406,-0.904131,-0.742272,-2.96152,-0.645823,2.26821,-0.972668,-0.00446227,0.0407903,-0.215838,-0.021153,-0.123105,0.118621,-0.315754,0.0264977,-0.24222,1.28168,0.12561,0.731017,-0.704391,1.875,0.270668,-0.130058,0.347814,0.878815,0.469638,0.0779179,0.0324485
5755285854,0.159093,-0.901263,-0.757448,-2.96301,-0.654479,2.27655,-0.994868,-0.0018125,0.0165684,-0.0876697,-0.00859199,-0.0500032,0.0481819,-0.128254,0.0264977,-0.24222,1.28168,0.12561,0.731017,-0.704391,1.875,0.269978,-0.132586,0.345353,0.874635,0.477109,0.0796451,0.032205
5823688028,0.159031,-0.900696,-0.760446,-2.96331,-0.656189,2.2782,-0.999254,0,0,0,0,0,0,0,0,0,0,0,0,0,0,0.269837,-0.133081,0.344865,0.873802,0.47858,0.0799877,0.0321633
5823688028,0.159031,-0.900696,-0.760446,-2.96331,-0.656189,2.2782,-0.999254,0,0,0,0,0,0,0,0,0,0,0,0,0,0,0.269837,-0.133081,0.344865,0.873802,0.47858,0.0799877,0.0321633
5923688028,0.159151,-0.899324,-0.766941,-2.96364,-0.659593,2.28148,-1.00863,0.00239986,0.0274497,-0.129897,-0.00670316,-0.0680814,0.0656403,-0.1875,0.0239986,0.274497,-1.29897,-0.0670316,-0.680814,0.656403,-1.875,0.269582,-0.134171,0.343856,0.872042,0.481676,0.0806787,0.0319684
6023688028,0.159497,-0.895364,-0.78568,-2.96461,-0.669414,2.29095,-1.03568,0.00364994,0.0417482,-0.19756,-0.0101948,-0.103545,0.0998321,-0.285168,-0.0239986,-0.274497,1.29897,0.0670316,0.680814,-0.656403,1.875,0.268804,-0.137285,0.340926,0.866906,0.490559,0.082679,0.031463
6123688028,0.159742,-0.892561,-0.798941,-2.96529,-0.676365,2.29765,-1.05482,0.00125008,0.0142985,-0.067663,-0.00349165,-0.0354633,0.0341918,-0.0976681,-0.0239986,-0.274497,1.29897,0.0670316,0.680814,-0.656403,1.875,0.268215,-0.139463,0.338838,0.863219,0.496799,0.0840996,0.0311566
6175777657,0.159774,-0.892189,-0.800703,-2.96538,-0.677288,2.29854,-1.05736,0,0,0,0,0,0,0,0,0,0,0,0,0,0,0.268134,-0.139751,0.33856,0.862726,0.497625,0.0842886,0.031119
6175777657,0.159774,-0.892189,-0.800703,-2.96538,-0.677288,2.29854,-1.05736,0,0,0,0,0,0,0,0,0,0,0,0,0,0,0.268134,-0.139751,0.33856,0.862726,0.497625,0.0842886,0.031119
6275777657,0.160256,-0.890658,-0.807269,-2.96535,-0.680335,2.30148,-1.06674,0.00962635,0.0306092,-0.131303,0.000635274,-0.0609369,0.0587256,-0.1875,0.0962635,0.306092,-1.31303,0.00635274,-0.609369,0.587256,-1.875,0.267903,-0.14084,0.337583,0.860931,0.500631,0.0849361,0.0308394
6375777657,0.1617,-0.886067,-0.826964,-2.96526,-0.689476,2.31029,-1.09486,0.0192527,0.0612183,-0.262607,0.00127055,-0.121874,0.117451,-0.375,0.0962635,0.306092,-1.31303,0.00635274,-0.609369,0.587256,-1.875,0.267162,-0.144086,0.334628,0.855493,0.509588,0.0868783,0.0300635
6475777657,0.163665,-0.879817,-0.853773,-2.96513,-0.701918,2.32228,-1.13315,0.0158464,0.0503873,-0.216145,0.00104576,-0.100311,0.0966712,-0.308653,-0.0962635,-0.306092,1.31303,-0.00635274,0.609369,-0.587256,1.875,0.266041,-0.148453,0.330551,0.84796,0.521632,0.0895171,0.0291589
6575777657,0.164768,-0.876309,-0.868823,-2.96505,-0.708902,2.32901,-1.15464,0.00622006,0.0197781,-0.0848417,0.000410482,-0.0393744,0.0379455,-0.121153,-0.0962635,-0.306092,1.31303,-0.00635274,0.609369,-0.587256,1.875,0.265355,-0.150877,0.328236,0.843667,0.528318,0.0909937,0.028727
6640392627,0.164969,-0.87567,-0.871564,-2.96504,-0.710174,2.33024,-1.15855,0,0,0,0,0,0,0,0,0,0,0,0,0,0,0.265225,-0.151317,0.327812,0.842881,0.52953,0.0912622,0.0286542
6640392627,0.164964,-0.875688,-0.871488,-2.96504,-0.710139,2.3302,-1.15844,0,0,0,0,0,0,0,0,0,0,0,0,0,0,0.265229,-0.151305,0.327824,0.842902,0.529497,0.0912548,0.0286562
6740392627,0.16591,-0.87406,-0.878128,-2.96461,-0.712792,2.3327,-1.16782,0.0189148,0.0325504,-0.132799,0.00870584,-0.0530525,0.0499017,-0.1875,0.189148,0.325504,-1.32799,0.0870584,-0.530525,0.499017,-1.875,0.264996,-0.152382,0.326867,0.84103,0.532381,0.0918495,0.028323
6840392627,0.168747,-0.869178,-0.898048,-2.9633,-0.72075,2.34018,-1.19594,0.0378296,0.0651008,-0.265598,0.0174117,-0.106105,0.0998033,-0.375,0.189148,0.325504,-1.32799,0.0870584,-0.530525,0.499017,-1.875,0.26425,-0.1556,0.323968,0.835367,0.540968,0.0936225,0.0273853
6940392627,0.171975,-0.863622,-0.920712,-2.96181,-0.729804,2.3487,-1.22794,0.0230491,0.0396651,-0.161826,0.0106087,-0.0646485,0.0608089,-0.228483,-0.189148,-0.325504,1.32799,-0.0870584,0.530525,-0.499017,1.875,0.263315,-0.159239,0.320618,0.828841,0.550619,0.0956168,0.0264301
7040392627,0.173334,-0.861283,-0.930255,-2.96119,-0.733616,2.35228,-1.24142,0.0041343,0.00711471,-0.0290266,0.00190288,-0.011596,0.0109073,-0.0409828,-0.189148,-0.325504,1.32799,-0.0870584,0.530525,-0.499017,1.875,0.262894,-0.160763,0.319192,0.826067,0.554646,0.0964482,0.0260631
7062250143,0.173379,-0.861206,-0.930572,-2.96117,-0.733743,2.3524,-1.24186,0,0,0,0,0,0,0,0,0,0,0,0,0,0,0.26288,-0.160813,0.319145,0.825975,0.554779,0.0964757,0.0260512
7062250143,0.173379,-0.861206,-0.930572,-2.96117,-0.733743,2.3524,-1.24186,0,0,0,0,0,0,0,0,0,0,0,0,0,0,0.26288,-0.160813,0.319145,0.825975,0.554779,0.0964757,0.0260512
7162250143,0.174724,-0.859565,-0.937257,-2.96042,-0.736088,2.35451,-1.25124,0.0268935,0.0328165,-0.133696,0.0149549,-0.046901,0.0421577,-0.1875,0.268935,0.328165,-1.33696,0.149549,-0.46901,0.421577,-1.875,0.262645,-0.161885,0.3182,0.824037,0.557576,0.0970211,0.02568
7262250143,0.178734,-0.854671,-0.957194,-2.95819,-0.743082,2.3608,-1.2792,0.0487446,0.05948,-0.242325,0.0271059,-0.0850084,0.0764111,-0.339845,-0.268935,-0.328165,1.33696,-0.149549,0.46901,-0.421577,1.875,0.261898,-0.165073,0.31535,0.818217,0.565851,0.0986286,0.02463
7362250143,0.182264,-0.850364,-0.974741,-2.95623,-0.749237,2.36633,-1.30381,0.0218511,0.0266636,-0.108629,0.012151,-0.0381074,0.0342534,-0.152345,-0.268935,-0.328165,1.33696,-0.149549,0.46901,-0.421577,1.875,0.261183,-0.16787,0.312802,0.813044,0.573054,0.100018,0.0237759
7443500825,0.183152,-0.849281,-0.979155,-2.95573,-0.750786,2.36772,-1.31,0,0,0,0,0,0,0,0,0,0,0,0,0,0,0.260995,-0.168572,0.312155,0.811736,0.574853,0.100364,0.0235713
7443500825,0.183152,-0.849281,-0.979155,-2.95573,-0.750786,2.36772,-1.31,0,0,0,0,0,0,0,0,0,0,0,0,0,0,0.260995,-0.168572,0.312155,0.811736,0.574853,0.100364,0.0235713
7543500825,0.184875,-0.847674,-0.985853,-2.9547,-0.752843,2.36945,-1.31937,0.0344549,0.0321361,-0.133965,0.0206267,-0.0411405,0.0344767,-0.1875,0.344549,0.321361,-1.33965,0.206267,-0.411405,0.344767,-1.875,0.260769,-0.169641,0.311227,0.809741,0.57759,0.100862,0.0231554
7643500825,0.190043,-0.842854,-1.00595,-2.95161,-0.759014,2.37462,-1.3475,0.0689099,0.0642723,-0.26793,0.0412534,-0.082281,0.0689533,-0.375,0.344549,0.321361,-1.33965,0.206267,-0.411405,0.344767,-1.875,0.260046,-0.172845,0.308407,0.803718,0.585733,0.102333,0.0219604
7743500825,0.195584,-0.837685,-1.02749,-2.94829,-0.76563,2.38016,-1.37765,0.0382933,0.0357162,-0.148889,0.0229246,-0.0457237,0.0383175,-0.208388,-0.344549,-0.321361,1.33965,-0.206267,0.411405,-0.344767,1.875,0.259193,-0.176275,0.305324,0.797197,0.594355,0.103866,0.0207647
7843500825,0.197691,-0.83572,-1.03568,-2.94703,-0.768146,2.38227,-1.38912,0.00383841,0.00358009,-0.0149242,0.0022979,-0.00458321,0.00384083,-0.0208882,-0.344549,-0.321361,1.33965,-0.206267,0.411405,-0.344767,1.875,0.258846,-0.177577,0.304136,0.794701,0.597604,0.104436,0.0203328
7854641206,0.197712,-0.8357,-1.03577,-2.94702,-0.768171,2.38229,-1.38923,0,0,0,0,0,0,0,0,0,0,0,0,0,0,0.258843,-0.17759,0.304123,0.794675,0.597637,0.104442,0.0203285
7854641206,0.197712,-0.8357,-1.03577,-2.94702,-0.768171,2.38229,-1.38923,0,0,0,0,0,0,0,0,0,0,0,0,0,0,0.258843,-0.17759,0.304123,0.794675,0.597637,0.104442,0.0203285
7954641206,0.199793,-0.834174,-1.04249,-2.94573,-0.770011,2.38365,-1.39861,0.0416115,0.0305223,-0.134502,0.0257147,-0.0368042,0.0270626,-0.1875,0.416115,0.305223,-1.34502,0.257147,-0.368042,0.270626,-1.875,0.258612,-0.17866,0.303197,0.792608,0.600312,0.104888,0.0198895
8054641206,0.205788,-0.829777,-1.06187,-2.94203,-0.775314,2.38754,-1.42562,0.062954,0.0461773,-0.203488,0.0389039,-0.0556811,0.0409431,-0.283669,-0.416115,-0.305223,1.34502,-0.257147,0.368042,-0.270626,1.875,0.257905,-0.181743,0.300491,0.786618,0.607961,0.106146,0.018666
8154641206,0.210002,-0.826685,-1.07549,-2.93942,-0.779042,2.39029,-1.44461,0.0213426,0.015655,-0.0689861,0.0131891,-0.0188769,0.0138805,-0.0961691,-0.416115,-0.305223,1.34502,-0.257147,0.368042,-0.270626,1.875,0.257368,-0.183909,0.298556,0.782377,0.613285,0.107005,0.0178419
8205931386,0.21055,-0.826284,-1.07726,-2.93908,-0.779526,2.39064,-1.44708,0,0,0,0,0,0,0,0,0,0,0,0,0,0,0.257296,-0.184191,0.298303,0.781824,0.613973,0.107115,0.0177371
8205931386,0.21055,-0.826284,-1.07726,-2.93908,-0.779526,2.39064,-1.44708,0,0,0,0,0,0,0,0,0,0,0,0,0,0,0.257296,-0.184191,0.298303,0.781824,0.613973,0.107115,0.0177371
8305931386,0.212924,-0.82485,-1.08399,-2.93759,-0.781188,2.39167,-1.45646,0.0474913,0.0286849,-0.134464,0.0299628,-0.0332388,0.0206193,-0.1875,0.474913,0.286849,-1.34464,0.299628,-0.332388,0.206193,-1.875,0.257071,-0.185264,0.297385,0.779698,0.616614,0.107519,0.0172707
8405931386,0.219931,-0.820618,-1.10382,-2.93316,-0.786091,2.39471,-1.48412,0.0800649,0.0483594,-0.226691,0.0505139,-0.0560369,0.0347618,-0.316104,-0.474913,-0.286849,1.34464,-0.299628,0.332388,-0.206193,1.875,0.256364,-0.18843,0.294635,0.773388,0.624344,0.108679,0.015931
8505931386,0.225563,-0.817216,-1.11977,-2.92961,-0.790033,2.39716,-1.50635,0.0325736,0.0196745,-0.092227,0.0205511,-0.022798,0.0141425,-0.128604,-0.474913,-0.286849,1.34464,-0.299628,0.332388,-0.206193,1.875,0.255745,-0.190974,0.292381,0.768279,0.630491,0.109576,0.0148922
8574519988,0.22668,-0.816541,-1.12293,-2.92891,-0.790815,2.39764,-1.51076,0,0,0,0,0,0,0,0,0,0,0,0,0,0,0.255617,-0.191479,0.291929,0.767261,0.631703,0.109751,0.0146901
8574519988,0.22668,-0.816541,-1.12293,-2.92891,-0.790815,2.39764,-1.51076,0,0,0,0,0,0,0,0,0,0,0,0,0,0,0.255617,-0.191479,0.291929,0.767261,0.631703,0.109751,0.0146901
8674519988,0.229248,-0.815996,-1.1255,-2.92901,-0.793122,2.39525,-1.52014,0.0513587,0.0108958,-0.0514472,-0.0020998,-0.0461387,-0.047967,-0.1875,0.513587,0.108958,-0.514472,-0.020998,-0.461387,-0.47967,-1.875,0.255507,-0.191114,0.291078,0.763651,0.6363,0.108466,0.0139071
8774519988,0.235523,-0.814665,-1.13179,-2.92927,-0.798759,2.38939,-1.54305,0.0485432,0.0102985,-0.0486269,-0.00198469,-0.0436094,-0.0453374,-0.177221,-0.513587,-0.108958,0.514472,0.020998,0.461387,0.47967,1.875,0.255226,-0.190223,0.289003,0.754704,0.64744,0.105356,0.0119543
8869037955,0.237817,-0.814178,-1.13409,-2.92936,-0.80082,2.38724,-1.55142,0,0,0,0,0,0,0,0,0,0,0,0,0,0,0.255119,-0.189898,0.288246,0.751389,0.651478,0.10423,0.0112266
8869037955,0.237817,-0.814178,-1.13409,-2.92936,-0.80082,2.38724,-1.55142,0,0,0,0,0,0,0,0,0,0,0,0,0,0,0.255119,-0.189898,0.288246,0.751389,0.651478,0.10423,0.0112266
8969037955,0.23914,-0.815746,-1.12471,-2.93406,-0.803358,2.37833,-1.55533,0.0264661,-0.0313493,0.1875,-0.093917,-0.0507591,-0.178328,-0.0780651,0.264661,-0.313493,1.875,-0.93917,-0.507591,-1.78328,-0.780651,0.255358,-0.185984,0.287995,0.746055,0.658327,0.0995436,0.00988736
9069037955,0.240903,-0.817833,-1.11223,-2.94031,-0.806738,2.36645,-1.56052,0.00458881,-0.00543549,0.0325096,-0.0162838,-0.00880084,-0.0309194,-0.0135353,-0.264661,0.313493,-1.875,0.93917,0.507591,1.78328,0.780651,0.255576,-0.180824,0.287629,0.738873,0.667318,0.0932092,0.00814966
9086376406,0.240943,-0.817881,-1.11195,-2.94045,-0.806814,2.36618,-1.56064,0,0,0,0,0,0,0,0,0,0,0,0,0,0,0.255579,-0.180708,0.28762,0.73871,0.667519,0.093065,0.00811104
9086376406,0.240943,-0.817881,-1.11195,-2.94045,-0.806814,2.36618,-1.56064,0,0,0,0,0,0,0,0,0,0,0,0,0,0,0.255579,-0.180708,0.28762,0.73871,0.667519,0.093065,0.00811104
9186376406,0.241185,-0.819861,-1.10257,-2.94483,-0.807505,2.36029,-1.55861,0.00484429,-0.0396092,0.1875,-0.0875429,-0.0138205,-0.117921,0.040613,0.0484429,-0.396092,1.875,-0.875429,-0.138205,-1.17921,0.40613,0.255818,-0.177315,0.287804,0.73603,0.670905,0.0899554,0.00745131
9286376406,0.241704,-0.824107,-1.08247,-2.95421,-0.808987,2.34765,-1.55426,0.00335004,-0.0273915,0.129664,-0.0605398,-0.00955748,-0.0815479,0.0280857,-0.0484429,0.396092,-1.875,0.875429,0.138205,1.17921,-0.40613,0.25617,-0.170114,0.288125,0.730273,0.678051,0.0831241,0.00615073
9355530787,0.24182,-0.825054,-1.07799,-2.95631,-0.809318,2.34483,-1.55329,0,0,0,0,0,0,0,0,0,0,0,0,0,0,0.256219,-0.168521,0.288183,0.728987,0.679624,0.08157,0.00588194
9355530787,0.24182,-0.825054,-1.07799,-2.95631,-0.809318,2.34483,-1.55329,0,0,0,0,0,0,0,0,0,0,0,0,0,0,0.256219,-0.168521,0.288183,0.728987,0.679624,0.08157,0.00588194
9455530787,0.242092,-0.827554,-1.06861,-2.96094,-0.80894,2.34045,-1.5484,0.00543573,-0.0500018,0.1875,-0.0925648,0.00754933,-0.0875049,0.0977201,0.0543573,-0.500018,1.875,-0.925648,0.0754933,-0.875049,0.977201,0.256424,-0.165096,0.288478,0.72741,0.681582,0.0793087,0.00550241
9555530787,0.242768,-0.833776,-1.04528,-2.97245,-0.808001,2.32956,-1.53624,0.00537527,-0.0494457,0.185415,-0.0915354,0.00746537,-0.0865317,0.0966332,-0.0543573,0.500018,-1.875,0.925648,-0.0754933,0.875049,-0.977201,0.256734,-0.156658,0.289115,0.723517,0.686368,0.0734868,0.00470247
9654418607,0.243034,-0.836221,-1.03611,-2.97698,-0.807631,2.32528,-1.53146,0,0,0,0,0,0,0,0,0,0,0,0,0,0,0.256779,-0.153378,0.289327,0.722,0.688213,0.0711248,0.00444549
9654418607,0.243034,-0.836221,-1.03611,-2.97698,-0.807631,2.32528,-1.53146,0,0,0,0,0,0,0,0,0,0,0,0,0,0,0.256779,-0.153378,0.289327,0.722,0.688213,0.0711248,0.00444549
9754418607,0.243838,-0.838762,-1.02674,-2.98165,-0.806157,2.32211,-1.52381,0.0160806,-0.0508105,0.1875,-0.0932894,0.0294951,-0.0634524,0.153025,0.160806,-0.508105,1.875,-0.932894,0.294951,-0.634524,1.53025,0.256973,-0.149884,0.289639,0.721444,0.688973,0.0693998,0.00419724
9854418607,0.24609,-0.845879,-1.00047,-2.99471,-0.802025,2.31322,-1.50237,0.0220326,-0.0696173,0.256901,-0.127819,0.0404124,-0.0869384,0.209666,-0.160806,0.508105,-1.875,0.932894,-0.294951,0.634524,-1.53025,0.257263,-0.140199,0.290385,0.719948,0.691028,0.0643551,0.00366468
9954418607,0.24749,-0.850301,-0.984158,-3.00283,-0.799459,2.3077,-1.48906,0.005952,-0.0188068,0.0694005,-0.0345298,0.0109172,-0.023486,0.0566402,-0.160806,0.508105,-1.875,0.932894,-0.294951,0.634524,-1.53025,0.25726,-0.134266,0.290753,0.719064,0.692247,0.0610675,0.00345862
9991432227,0.2476,-0.850649,-0.982873,-3.00347,-0.799256,2.30727,-1.48801,0,0,0,0,0,0,0,0,0,0,0,0,0,0,0.257254,-0.133801,0.290779,0.718996,0.692341,0.0608038,0.00344656
9991432227,0.2476,-0.850649,-0.982873,-3.00347,-0.799256,2.30727,-1.48801,0,0,0,0,0,0,0,0,0,0,0,0,0,0,0.257254,-0.133801,0.290779,0.718996,0.692341,0.0608038,0.00344656
10091432227,0.249673,-0.852934,-0.973519,-3.00778,-0.796806,2.30483,-1.47864,0.0414599,-0.0457154,0.187094,-0.086185,0.0490015,-0.0487613,0.1875,0.414599,-0.457154,1.87094,-0.86185,0.490015,-0.487613,1.875,0.257475,-0.130222,0.291076,0.718946,0.692523,0.0593091,0.00330605
10191432227,0.255709,-0.85959,-0.946279,-3.02033,-0.789672,2.29773,-1.45134,0.0655124,-0.0722366,0.295634,-0.136184,0.0774291,-0.0770496,0.296276,-0.414599,0.457154,-1.87094,0.86185,-0.490015,0.487613,-1.875,0.257831,-0.119906,0.291806,0.718865,0.692982,0.0547664,0.00306174
10291432227,0.260187,-0.864528,-0.926071,-3.02964,-0.784379,2.29246,-1.43109,0.0240525,-0.0265212,0.10854,-0.0499991,0.0284276,-0.0282883,0.108776,-0.414599,0.457154,-1.87094,0.86185,-0.490015,0.487613,-1.875,0.257827,-0.112365,0.292215,0.718868,0.69325,0.0512187,0.00304599
10349445976,0.260885,-0.865297,-0.922922,-3.03109,-0.783555,2.29164,-1.42793,0,0,0,0,0,0,0,0,0,0,0,0,0,0,0.257807,-0.111199,0.292268,0.718873,0.693287,0.0506527,0.00305669
10349445976,0.260885,-0.865297,-0.922922,-3.03109,-0.783555,2.29164,-1.42793,0,0,0,0,0,0,0,0,0,0,0,0,0,0,0.257807,-0.111199,0.292268,0.718873,0.693287,0.0506527,0.00305669
10449445976,0.264977,-0.867211,-0.913547,-3.03454,-0.780407,2.28855,-1.41931,0.0818431,-0.0382722,0.1875,-0.0691039,0.062955,-0.0617914,0.172447,0.818431,-0.382722,1.875,-0.691039,0.62955,-0.617914,1.72447,0.258032,-0.107529,0.292539,0.718252,0.694063,0.0488088,0.00290822
10549445976,0.276314,-0.872513,-0.887574,-3.04411,-0.771686,2.27999,-1.39542,0.108235,-0.050614,0.247964,-0.0913881,0.0832563,-0.0817175,0.228057,-0.818431,0.382722,-1.875,0.691039,-0.62955,0.617914,-1.72447,0.258371,-0.0974552,0.293178,0.71658,0.696139,0.0435523,0.00268177
10649445976,0.283046,-0.875661,-0.872153,-3.0498,-0.766508,2.27491,-1.38124,0.0263923,-0.0123418,0.0604639,-0.0222842,0.0203014,-0.0199261,0.0556098,-0.818431,0.382722,-1.875,0.691039,-0.62955,0.617914,-1.72447,0.25838,-0.0915462,0.293479,0.715621,0.697318,0.0403322,0.00267974
10681693406,0.283471,-0.87586,-0.871178,-3.05016,-0.766181,2.27459,-1.38034,0,0,0,0,0,0,0,0,0,0,0,0,0,0,0.258376,-0.0911746,0.293496,0.715561,0.697391,0.0401262,0.00268301
10681693406,0.283471,-0.87586,-0.871178,-3.05016,-0.766181,2.27459,-1.38034,0,0,0,0,0,0,0,0,0,0,0,0,0,0,0.258376,-0.0911746,0.293496,0.715561,0.697391,0.0401262,0.00268301
10781693406,0.289473,-0.877229,-0.861803,-3.05275,-0.762556,2.27068,-1.37301,0.120036,-0.0273841,0.1875,-0.0518762,0.0724966,-0.0782757,0.146618,1.20036,-0.273841,1.875,-0.518762,0.724966,-0.782757,1.46618,0.258571,-0.0874154,0.29373,0.714151,0.698965,0.0378042,0.00253319
10881693406,0.304422,-0.880639,-0.838452,-3.05921,-0.753528,2.26093,-1.35475,0.118928,-0.0271312,0.185768,-0.0513971,0.0718271,-0.0775528,0.145264,-1.20036,0.273841,-1.875,0.518762,-0.724966,0.782757,-1.46618,0.258804,-0.0781249,0.294236,0.710657,0.70281,0.0319207,0.00234561
10980769873,0.310314,-0.881983,-0.829249,-3.06176,-0.749969,2.25709,-1.34755,0,0,0,0,0,0,0,0,0,0,0,0,0,0,0.258799,-0.0744946,0.294405,0.709288,0.704294,0.0295645,0.00234568
10980769873,0.310314,-0.881983,-0.829249,-3.06176,-0.749969,2.25709,-1.34755,0,0,0,0,0,0,0,0,0,0,0,0,0,0,0.258799,-0.0744946,0.294405,0.709288,0.704294,0.0295645,0.00234568
11080769873,0.317761,-0.882667,-0.819874,-3.06372,-0.745644,2.25297,-1.34026,0.148956,-0.0136712,0.1875,-0.0392385,0.0865023,-0.0822253,0.145883,1.48956,-0.136712,1.875,-0.392385,0.865023,-0.822253,1.45883,0.258951,-0.0706322,0.2946,0.707652,0.706041,0.0270253,0.00216004
11180769873,0.335662,-0.88431,-0.797342,-3.06843,-0.735249,2.24309,-1.32273,0.135208,-0.0124093,0.170194,-0.0356169,0.0785183,-0.0746361,0.132418,-1.48956,0.136712,-1.875,0.392385,-0.865023,0.822253,-1.45883,0.259065,-0.0614075,0.295004,0.703723,0.710166,0.0208466,0.00190525
11271540051,0.341798,-0.884873,-0.789618,-3.07005,-0.731686,2.23971,-1.31672,0,0,0,0,0,0,0,0,0,0,0,0,0,0,0.259024,-0.0582663,0.295121,0.702377,0.711557,0.0187053,0.00188094
11271540051,0.341798,-0.884873,-0.789618,-3.07005,-0.731686,2.23971,-1.31672,0,0,0,0,0,0,0,0,0,0,0,0,0,0,0.259024,-0.0582663,0.295121,0.702377,0.711557,0.0187053,0.00188094
11371540051,0.350273,-0.88847,-0.792395,-3.07017,-0.735598,2.23525,-1.30734,0.169489,-0.0719377,-0.0555463,-0.00238983,-0.0782437,-0.0890858,0.1875,1.69489,-0.719377,-0.555463,-0.0238983,-0.782437,-0.890858,1.875,0.259062,-0.0565982,0.295172,0.702458,0.711493,0.0180816,0.00174362
11471540051,0.375696,-0.89926,-0.800727,-3.07053,-0.747334,2.22189,-1.27922,0.338977,-0.143875,-0.111093,-0.00477967,-0.156487,-0.178172,0.375,1.69489,-0.719377,-0.555463,-0.0238983,-0.782437,-0.890858,1.875,0.259117,-0.0516149,0.295305,0.702712,0.711289,0.0161994,0.0014118
11571540051,0.416574,-0.91661,-0.814124,-3.07111,-0.766205,2.2004,-1.234,0.407812,-0.173092,-0.133652,-0.00575026,-0.188265,-0.214352,0.45115,-1.69489,0.719377,0.555463,0.0238983,0.782437,0.890858,-1.875,0.259028,-0.0436692,0.295459,0.703152,0.710917,0.0131503,0.0011312
11671540051,0.448881,-0.930323,-0.824712,-3.07156,-0.78112,2.18342,-1.19826,0.238324,-0.101154,-0.0781054,-0.00336043,-0.110021,-0.125267,0.26365,-1.69489,0.719377,0.555463,0.0238983,0.782437,0.890858,-1.875,0.258806,-0.0374495,0.29553,0.703529,0.710585,0.0107344,0.0011304
11771540051,0.464238,-0.936841,-0.829745,-3.07178,-0.78821,2.17535,-1.18127,0.068835,-0.0292163,-0.0225592,-0.000970591,-0.0317774,-0.0361807,0.07615,-1.69489,0.719377,0.555463,0.0238983,0.782437,0.890858,-1.875,0.258656,-0.0345118,0.295547,0.703716,0.710415,0.00958794,0.00119834
11812153373,0.465636,-0.937434,-0.830203,-3.0718,-0.788855,2.17461,-1.17972,0,0,0,0,0,0,0,0,0,0,0,0,0,0,0.258641,-0.0342451,0.295548,0.703734,0.710399,0.00948373,0.0012067
11812153373,0.465636,-0.937434,-0.830203,-3.0718,-0.788855,2.17461,-1.17972,0,0,0,0,0,0,0,0,0,0,0,0,0,0,0.258641,-0.0342451,0.295548,0.703734,0.710399,0.00948373,0.0012067
11912153373,0.47331,-0.939651,-0.832048,-3.0718,-0.791176,2.17196,-1.17035,0.153467,-0.0443389,-0.0369012,-4.26473e-06,-0.0464207,-0.0530409,0.1875,1.53467,-0.443389,-0.369012,-4.26473e-05,-0.464207,-0.530409,1.875,0.258687,-0.0326456,0.295568,0.704267,0.709874,0.0091906,0.0011686
12012153373,0.49633,-0.946302,-0.837583,-3.0718,-0.798139,2.16401,-1.14222,0.306935,-0.0886778,-0.0738023,-8.52946e-06,-0.0928414,-0.106082,0.375,1.53467,-0.443389,-0.369012,-4.26473e-05,-0.464207,-0.530409,1.875,0.258771,-0.0278538,0.295621,0.705869,0.708293,0.00831047,0.00108693
12112153373,0.531472,-0.956455,-0.846033,-3.0718,-0.808769,2.15186,-1.09929,0.319699,-0.0923657,-0.0768716,-8.88418e-06,-0.0967025,-0.110493,0.390595,-1.53467,0.443389,0.369012,4.26473e-05,0.464207,0.530409,-1.875,0.258736,-0.0205604,0.295678,0.708316,0.705861,0.00696844,0.0010566
12212153373,0.555768,-0.963475,-0.851875,-3.0718,-0.816118,2.14346,-1.0696,0.166232,-0.0480268,-0.0399704,-4.61945e-06,-0.0502818,-0.0574526,0.203095,-1.53467,0.443389,0.369012,4.26473e-05,0.464207,0.530409,-1.875,0.258598,-0.0155351,0.295701,0.710009,0.704166,0.00604498,0.00110205
12312153373,0.564718,-0.966061,-0.854027,-3.0718,-0.818825,2.14037,-1.05867,0.0127647,-0.00368789,-0.00306926,-3.54719e-07,-0.00386105,-0.00441168,0.0155953,-1.53467,0.443389,0.369012,4.26473e-05,0.464207,0.530409,-1.875,0.258524,-0.0136879,0.295706,0.710632,0.703539,0.00570629,0.00113242
12320470879,0.564771,-0.966076,-0.85404,-3.0718,-0.818841,2.14035,-1.0586,0,0,0,0,0,0,0,0,0,0,0,0,0,0,0.258524,-0.0136769,0.295706,0.710636,0.703536,0.00570429,0.00113262
12320470879,0.564771,-0.966076,-0.85404,-3.0718,-0.818841,2.14035,-1.0586,0,0,0,0,0,0,0,0,0,0,0,0,0,0,0.258524,-0.0136769,0.295706,0.710636,0.703536,0.00570429,0.00113262
12420470879,0.573812,-0.96115,-0.84663,-3.0718,-0.812252,2.14226,-1.04923,0.180828,0.0985093,0.1482,9.19852e-05,0.131775,0.0381804,0.1875,1.80828,0.985093,1.482,0.000919852,1.31775,0.381804,1.875,0.258692,-0.0101933,0.295746,0.710503,0.70368,0.00434223,0.00111517
12520470879,0.60024,-0.946754,-0.824971,-3.07178,-0.792994,2.14784,-1.02182,0.290642,0.158332,0.238199,0.000147846,0.2118,0.0613666,0.301365,-1.80828,-0.985093,-1.482,-0.000919852,-1.31775,-0.381804,-1.875,0.25892,4.13187e-05,0.295789,0.710093,0.704106,0.00036124,0.00118907
12620470879,0.620262,-0.935846,-0.808562,-3.07177,-0.778403,2.15207,-1.00106,0.109813,0.0598226,0.089999,5.58607e-05,0.0800244,0.0231862,0.113865,-1.80828,-0.985093,-1.482,-0.000919852,-1.31775,-0.381804,-1.875,0.258825,0.00783917,0.295749,0.709763,0.704434,-0.00265192,0.0013688
12681198822,0.623597,-0.93403,-0.805829,-3.07177,-0.775973,2.15277,-0.997605,0,0,0,0,0,0,0,0,0,0,0,0,0,0,0.258787,0.00914072,0.295736,0.709707,0.704489,-0.00315322,0.00140907
12681198822,0.623597,-0.93403,-0.805829,-3.07177,-0.775973,2.15277,-0.997605,0,0,0,0,0,0,0,0,0,0,0,0,0,0,0.258787,0.00914071,0.295736,0.709707,0.704489,-0.00315322,0.00140907
12781198822,0.632972,-0.929451,-0.800982,-3.07063,-0.771064,2.15323,-0.990668,0.1875,0.0915794,0.0969384,0.0227163,0.0981879,0.00910247,0.138752,1.875,0.915794,0.969384,0.227163,0.981879,0.0910247,1.38752,0.258911,0.0120494,0.29573,0.709015,0.705177,-0.0046931,0.00136678
12881198822,0.660393,-0.916057,-0.786805,-3.06731,-0.756704,2.15456,-0.970376,0.302364,0.147682,0.156324,0.0366325,0.158339,0.0146787,0.223752,-1.875,-0.915794,-0.969384,-0.227163,-0.981879,-0.0910247,-1.38752,0.259085,0.0206226,0.295688,0.70696,0.707192,-0.00918047,0.00138292
12981198822,0.681255,-0.905868,-0.776019,-3.06478,-0.74578,2.15557,-0.954938,0.114864,0.0561023,0.0593853,0.0139162,0.0601507,0.00557625,0.0850005,-1.875,-0.915794,-0.969384,-0.227163,-0.981879,-0.0910247,-1.38752,0.259025,0.0272055,0.295632,0.705365,0.708731,-0.0125745,0.00153328
13042459676,0.684773,-0.90415,-0.7742,-3.06436,-0.743937,2.15574,-0.952334,0,0,0,0,0,0,0,0,0,0,0,0,0,0,0.258998,0.0283205,0.29562,0.705094,0.708991,-0.0131449,0.00157027
13042459676,0.684773,-0.90415,-0.7742,-3.06436,-0.743937,2.15574,-0.952334,0,0,0,0,0,0,0,0,0,0,0,0,0,0,0.258998,0.0283205,0.29562,0.705094,0.708991,-0.0131449,0.00157027
13142459676,0.694148,-0.898911,-0.769959,-3.06266,-0.738953,2.15633,-0.946048,0.1875,0.104777,0.0848352,0.0339431,0.0996789,0.0117288,0.125719,1.875,1.04777,0.848352,0.339431,0.996789,0.117288,1.25719,0.259089,0.0311118,0.295579,0.70439,0.709659,-0.0147103,0.0015282
13242459676,0.721968,-0.883365,-0.757372,-3.05763,-0.724164,2.15807,-0.927395,0.327142,0.182811,0.148017,0.0592224,0.173915,0.0204638,0.219348,-1.875,-1.04777,-0.848352,-0.339431,-0.996789,-0.117288,-1.25719,0.259179,0.0394759,0.295435,0.702267,0.71165,-0.0193339,0.00154916
13342459676,0.745307,-0.870323,-0.746812,-3.0534,-0.711756,2.15953,-0.911747,0.139642,0.0780338,0.0631816,0.0252793,0.0742366,0.00873507,0.0936298,-1.875,-1.04777,-0.848352,-0.339431,-0.996789,-0.117288,-1.25719,0.259043,0.0465816,0.295286,0.700445,0.713328,-0.0231841,0.00173254
13416935378,0.750507,-0.867417,-0.744459,-3.05246,-0.708992,2.15985,-0.90826,0,0,0,0,0,0,0,0,0,0,0,0,0,0,0.258986,0.0481752,0.295249,0.700034,0.713702,-0.0240379,0.00179372
13416935378,0.750507,-0.867417,-0.744459,-3.05246,-0.708992,2.15985,-0.90826,0,0,0,0,0,0,0,0,0,0,0,0,0,0,0.258986,0.0481752,0.295249,0.700034,0.713702,-0.0240379,0.00179372
13516935378,0.759882,-0.861294,-0.740534,-3.05044,-0.703436,2.16146,-0.900678,0.1875,0.122461,0.0784974,0.0402844,0.111122,0.0321852,0.15163,1.875,1.22461,0.784974,0.402844,1.11122,0.321852,1.5163,0.259024,0.0510362,0.295144,0.700002,0.713689,-0.0253616,0.00169391
13616935378,0.787808,-0.843054,-0.728842,-3.04444,-0.686885,2.16626,-0.878094,0.336434,0.219733,0.140849,0.0722828,0.199387,0.0577503,0.272072,-1.875,-1.22461,-0.784974,-0.402844,-1.11122,-0.321852,-1.5163,0.258951,0.0596477,0.294797,0.699881,0.713657,-0.0292901,0.00154477
13716935378,0.812077,-0.827204,-0.718682,-3.03923,-0.672502,2.17042,-0.858469,0.148934,0.0972725,0.0623517,0.0319985,0.0882656,0.0255652,0.120442,-1.875,-1.22461,-0.784974,-0.402844,-1.11122,-0.321852,-1.5163,0.258654,0.0672331,0.294454,0.699747,0.713641,-0.0326813,0.00159246
13796366896,0.817992,-0.823341,-0.716206,-3.03796,-0.668997,2.17144,-0.853685,0,0,0,0,0,0,0,0,0,0,0,0,0,0,0.258548,0.0690954,0.294364,0.69971,0.713639,-0.033504,0.00162867
13796366896,0.817966,-0.823358,-0.716217,-3.03796,-0.669012,2.17143,-0.853706,0,0,0,0,0,0,0,0,0,0,0,0,0,0,0.258548,0.0690872,0.294365,0.69971,0.713639,-0.0335004,0.00162849
13896366896,0.827341,-0.816499,-0.712893,-3.03538,-0.663314,2.17348,-0.846696,0.1875,0.137176,0.0664812,0.051739,0.113964,0.0409473,0.140202,1.875,1.37176,0.664812,0.51739,1.13964,0.409473,1.40202,0.258595,0.0719206,0.294225,0.699718,0.713573,-0.0347343,0.00155178
13996366896,0.855462,-0.795925,-0.702922,-3.02762,-0.646221,2.17962,-0.825668,0.369974,0.270674,0.13118,0.102091,0.224873,0.0807968,0.276646,-1.875,-1.37176,-0.664812,-0.51739,-1.13964,-0.409473,-1.40202,0.25855,0.0805242,0.293768,0.699719,0.713383,-0.0384131,0.00147325
14096366896,0.883085,-0.775716,-0.693128,-3.02,-0.629432,2.18566,-0.805014,0.182474,0.133498,0.064699,0.050352,0.110909,0.0398496,0.136444,-1.875,-1.37176,-0.664812,-0.51739,-1.13964,-0.409473,-1.40202,0.258225,0.0891202,0.293258,0.699688,0.713212,-0.0419875,0.00161287
14193686137,0.891964,-0.76922,-0.68998,-3.01755,-0.624035,2.18759,-0.798375,0,0,0,0,0,0,0,0,0,0,0,0,0,0,0.25806,0.0919122,0.293081,0.699671,0.71316,-0.0431269,0.0017024
14193686137,0.891964,-0.76922,-0.68998,-3.01755,-0.624035,2.18759,-0.798375,0,0,0,0,0,0,0,0,0,0,0,0,0,0,0.25806,0.0919122,0.293081,0.699671,0.71316,-0.0431269,0.0017024
14293686137,0.901339,-0.761865,-0.687355,-3.01427,-0.61819,2.18928,-0.793054,0.1875,0.147113,0.0524961,0.0654371,0.116897,0.0337004,0.106415,1.875,1.47113,0.524961,0.654371,1.16897,0.337004,1.06415,0.258099,0.0946864,0.292917,0.699359,0.713382,-0.0445005,0.001622
14393686137,0.929372,-0.73987,-0.679506,-3.00449,-0.600713,2.19432,-0.777144,0.348698,0.273589,0.0976282,0.121695,0.217397,0.0626735,0.197903,-1.875,-1.47113,-0.524961,-0.654371,-1.16897,-0.337004,-1.06415,0.258037,0.103098,0.292381,0.698405,0.714051,-0.0485747,0.00154324
14493686137,0.954866,-0.719867,-0.672368,-2.99559,-0.584819,2.1989,-0.762674,0.161198,0.126476,0.0451321,0.0562578,0.100499,0.028973,0.0914877,-1.875,-1.47113,-0.524961,-0.654371,-1.16897,-0.337004,-1.06415,0.257738,0.110893,0.291834,0.697507,0.71467,-0.0522319,0.00167756
14579658462,0.961796,-0.71443,-0.670428,-2.99317,-0.580498,2.20015,-0.758742,0,0,0,0,0,0,0,0,0,0,0,0,0,0,0.257615,0.113035,0.291675,0.697258,0.71484,-0.0532172,0.00174726
14579658462,0.961789,-0.714435,-0.67043,-2.99318,-0.580503,2.20014,-0.758745,0,0,0,0,0,0,0,0,0,0,0,0,0,0,0.257615,0.113033,0.291676,0.697258,0.71484,-0.0532163,0.00174719
14679658462,0.971164,-0.706577,-0.668254,-2.98925,-0.574605,2.20132,-0.754964,0.1875,0.157167,0.0435209,0.0785491,0.117958,0.0234806,0.075622,1.875,1.57167,0.435209,0.785491,1.17958,0.234806,0.75622,0.257646,0.115805,0.291485,0.696587,0.715375,-0.0547933,0.00180339
14779658462,0.999244,-0.68304,-0.661736,-2.97749,-0.55694,2.20483,-0.743639,0.356504,0.298831,0.0827486,0.14935,0.224281,0.044645,0.143784,-1.875,-1.57167,-0.435209,-0.785491,-1.17958,-0.234806,-0.75622,0.257554,0.124238,0.290863,0.694546,0.716984,-0.059462,0.00213998
14879658462,1.02552,-0.661015,-0.655638,-2.96648,-0.540409,2.20813,-0.733042,0.169004,0.141663,0.0392278,0.0708007,0.106322,0.0211644,0.0681623,-1.875,-1.57167,-0.435209,-0.785491,-1.17958,-0.234806,-0.75622,0.257206,0.132298,0.290208,0.692594,0.7185,-0.063751,0.00267784
14969794008,1.03314,-0.654631,-0.65387,-2.96329,-0.535618,2.20908,-0.72997,0,0,0,0,0,0,0,0,0,0,0,0,0,0,0.257056,0.134664,0.290005,0.692021,0.718941,-0.064979,0.00287305
14969794008,1.03314,-0.654631,-0.65387,-2.96329,-0.535618,2.20908,-0.72997,0,0,0,0,0,0,0,0,0,0,0,0,0,0,0.257056,0.134664,0.290005,0.692021,0.718941,-0.064979,0.00287305
15069794008,1.04251,-0.646359,-0.652113,-2.95867,-0.52942,2.20921,-0.727869,0.1875,0.165441,0.0351252,0.0923279,0.123955,0.00257711,0.0420262,1.875,1.65441,0.351252,0.923279,1.23955,0.0257711,0.420262,0.257041,0.13744,0.289775,0.690967,0.719774,-0.0669388,0.00301217
15169794008,1.06968,-0.622382,-0.647023,-2.94529,-0.511456,2.20958,-0.721778,0.290517,0.256339,0.0544238,0.143055,0.192059,0.00399303,0.0651163,-1.875,-1.65441,-0.351252,-0.923279,-1.23955,-0.0257711,-0.420262,0.256814,0.145617,0.289054,0.687873,0.722187,-0.0725497,0.00357944
15269794008,1.08936,-0.605021,-0.643337,-2.9356,-0.498448,2.20985,-0.717368,0.103017,0.0908973,0.0192986,0.0507271,0.0681039,0.00141592,0.0230901,-1.875,-1.65441,-0.351252,-0.923279,-1.23955,-0.0257711,-0.420262,0.256471,0.151655,0.288481,0.685595,0.723936,-0.0765456,0.00413902
15324736341,1.09219,-0.602524,-0.642807,-2.93421,-0.496577,2.20989,-0.716733,0,0,0,0,0,0,0,0,0,0,0,0,0,0,0.256409,0.152532,0.288395,0.685265,0.724187,-0.0771155,0.00422957
15324736341,1.09219,-0.602524,-0.642807,-2.93421,-0.496577,2.20989,-0.716733,0,0,0,0,0,0,0,0,0,0,0,0,0,0,0.256409,0.152532,0.288395,0.685265,0.724187,-0.0771155,0.00422957
15424736341,1.10157,-0.593858,-0.641333,-2.92898,-0.490131,2.20884,-0.71619,0.1875,0.17332,0.0294638,0.10454,0.12891,-0.020964,0.0108729,1.875,1.7332,0.294638,1.0454,1.2891,-0.20964,0.108729,0.256337,0.155318,0.288113,0.683794,0.725315,-0.0795266,0.00448905
15524736341,1.12761,-0.569784,-0.637241,-2.91446,-0.472226,2.20593,-0.71468,0.25006,0.231148,0.0392945,0.139421,0.171921,-0.0279588,0.0145007,-1.875,-1.7332,-0.294638,-1.0454,-1.2891,0.20964,-0.108729,0.25595,0.163188,0.287278,0.679654,0.728438,-0.0861438,0.00535829
15624736341,1.14324,-0.555335,-0.634785,-2.90575,-0.461479,2.20418,-0.713773,0.06256,0.0578286,0.00983069,0.0348802,0.0430112,-0.00699472,0.00362779,-1.875,-1.7332,-0.294638,-1.0454,-1.2891,0.20964,-0.108729,0.255583,0.167998,0.286738,0.677132,0.730306,-0.0900571,0.00598249
15658101652,1.14428,-0.55437,-0.634621,-2.90516,-0.460762,2.20407,-0.713713,0,0,0,0,0,0,0,0,0,0,0,0,0,0,0.255555,0.168322,0.286701,0.676962,0.73043,-0.0903168,0.00602685
15658101652,1.14428,-0.554373,-0.634621,-2.90517,-0.460763,2.20407,-0.713713,0,0,0,0,0,0,0,0,0,0,0,0,0,0,0.255555,0.168321,0.286701,0.676963,0.73043,-0.0903161,0.00602673
15758101652,1.15366,-0.545284,-0.633327,-2.89951,-0.454046,2.20253,-0.714194,0.1875,0.181764,0.0258846,0.113074,0.134359,-0.0308165,-0.0096213,1.875,1.81764,0.258846,1.13074,1.34359,-0.308165,-0.096213,0.255408,0.171187,0.286356,0.675218,0.731714,-0.0929167,0.00637601
15858101652,1.17791,-0.521777,-0.629979,-2.88489,-0.436669,2.19854,-0.715438,0.204499,0.198244,0.0282314,0.123326,0.14654,-0.0336104,-0.0104936,-1.875,-1.81764,-0.258846,-1.13074,-1.34359,0.308165,0.096213,0.254848,0.178716,0.285411,0.670653,0.735022,-0.0995612,0.00740308
15958101652,1.18898,-0.511041,-0.62845,-2.87821,-0.428733,2.19672,-0.716006,0.0169994,0.0164793,0.00234678,0.0102517,0.0121814,-0.00279392,-0.000872298,-1.875,-1.81764,-0.258846,-1.13074,-1.34359,0.308165,0.096213,0.254505,0.182207,0.284953,0.668542,0.736526,-0.102556,0.00793024
15967167979,1.18906,-0.510966,-0.62844,-2.87816,-0.428678,2.19671,-0.71601,0,0,0,0,0,0,0,0,0,0,0,0,0,0,0.254502,0.182232,0.28495,0.668527,0.736537,-0.102577,0.00793404
15967167979,1.18906,-0.510966,-0.62844,-2.87816,-0.428678,2.19671,-0.71601,0,0,0,0,0,0,0,0,0,0,0,0,0,0,0.254502,0.182232,0.28495,0.668527,0.736537,-0.102577,0.00793404
16067167979,1.19837,-0.501591,-0.62734,-2.87236,-0.421643,2.19534,-0.717207,0.186189,0.1875,0.0220037,0.116093,0.140703,-0.0273571,-0.0239242,1.86189,1.875,0.220037,1.16093,1.40703,-0.273571,-0.239242,0.254259,0.185185,0.284522,0.666647,0.73788,-0.105104,0.00825033
16167167979,1.22287,-0.476914,-0.624444,-2.85708,-0.403125,2.19174,-0.720355,0.21269,0.214189,0.0251357,0.132618,0.160731,-0.0312511,-0.0273296,-1.86189,-1.875,-0.220037,-1.16093,-1.40703,0.273571,0.239242,0.253426,0.193068,0.283335,0.661645,0.741398,-0.111668,0.00920372
16267167979,1.23483,-0.464871,-0.62303,-2.84962,-0.394087,2.18998,-0.721892,0.0265018,0.0266885,0.00313199,0.0165246,0.0200275,-0.00389398,-0.00340534,-1.86189,-1.875,-0.220037,-1.16093,-1.40703,0.273571,0.239242,0.252916,0.19697,0.282723,0.659177,0.743106,-0.114824,0.00973117
16281401855,1.23502,-0.464681,-0.623008,-2.8495,-0.393944,2.18995,-0.721916,0,0,0,0,0,0,0,0,0,0,0,0,0,0,0.252907,0.197032,0.282714,0.659138,0.743133,-0.114874,0.00973981
16281401855,1.23501,-0.464692,-0.623009,-2.84951,-0.393953,2.18996,-0.721915,0,0,0,0,0,0,0,0,0,0,0,0,0,0,0.252908,0.197028,0.282714,0.65914,0.743131,-0.114871,0.00973931
16381401855,1.24388,-0.455317,-0.621963,-2.84386,-0.386946,2.18949,-0.723388,0.177462,0.1875,0.0209294,0.113113,0.140141,-0.00932899,-0.0294606,1.77462,1.875,0.209294,1.13113,1.40141,-0.0932899,-0.294606,0.25257,0.200036,0.28222,0.657291,0.744441,-0.116939,0.0100671
16481401855,1.26753,-0.430333,-0.619174,-2.82878,-0.368272,2.18825,-0.727313,0.209651,0.221511,0.0247258,0.133631,0.165561,-0.0110212,-0.0348044,-1.77462,-1.875,-0.209294,-1.13113,-1.40141,0.0932899,0.294606,0.251475,0.208145,0.280834,0.652319,0.747921,-0.12236,0.0110491
16581401855,1.27962,-0.417557,-0.617748,-2.82108,-0.358723,2.18761,-0.729321,0.0321897,0.0340106,0.00379638,0.0205176,0.0254201,-0.00169218,-0.00534384,-1.77462,-1.875,-0.209294,-1.13113,-1.40141,0.0932899,0.294606,0.250803,0.212341,0.280085,0.649752,0.749695,-0.125082,0.0116107
16599540819,1.27991,-0.417248,-0.617713,-2.82089,-0.358493,2.1876,-0.729369,0,0,0,0,0,0,0,0,0,0,0,0,0,0,0.250786,0.212443,0.280066,0.64969,0.749737,-0.125147,0.0116247
16599540819,1.27991,-0.417248,-0.617713,-2.82089,-0.358493,2.1876,-0.729369,0,0,0,0,0,0,0,0,0,0,0,0,0,0,0.250786,0.212443,0.280066,0.64969,0.749737,-0.125147,0.0116247
16699540819,1.28825,-0.407873,-0.616592,-2.81526,-0.351294,2.1876,-0.730713,0.166848,0.1875,0.0224368,0.112518,0.143979,0.000151654,-0.0268777,1.66848,1.875,0.224368,1.12518,1.43979,0.00151654,-0.268777,0.250361,0.215475,0.279521,0.648085,0.750825,-0.126908,0.0119531
16799540819,1.31114,-0.382156,-0.613514,-2.79983,-0.331546,2.18762,-0.7344,0.214119,0.240622,0.0287934,0.144396,0.184771,0.00019462,-0.0344926,-1.66848,-1.875,-0.224368,-1.12518,-1.43979,-0.00151654,0.268777,0.248992,0.223878,0.277943,0.643643,0.753807,-0.131644,0.0129532
16899540819,1.32421,-0.367469,-0.611757,-2.79102,-0.320267,2.18764,-0.736505,0.0472708,0.0531218,0.00635669,0.0318782,0.0407917,4.2966e-05,-0.00761488,-1.66848,-1.875,-0.224368,-1.12518,-1.43979,-0.00151654,0.268777,0.248073,0.22873,0.276987,0.641082,0.75551,-0.134288,0.0135878
16927872435,1.32488,-0.366716,-0.611667,-2.79057,-0.31969,2.18764,-0.736613,0,0,0,0,0,0,0,0,0,0,0,0,0,0,0.248023,0.228979,0.276937,0.64095,0.755598,-0.134422,0.0136215
16927872435,1.32461,-0.367016,-0.611703,-2.79075,-0.31992,2.18764,-0.73657,0,0,0,0,0,0,0,0,0,0,0,0,0,0,0.248043,0.22888,0.276957,0.641003,0.755563,-0.134369,0.013608
17027872435,1.33224,-0.357641,-0.610432,-2.78493,-0.312332,2.18726,-0.737449,0.152653,0.1875,0.0254019,0.116378,0.151752,-0.00745819,-0.0175916,1.52653,1.875,0.254019,1.16378,1.51752,-0.0745819,-0.175916,0.247562,0.231861,0.27638,0.639861,0.756208,-0.136134,0.0139455
17127872435,1.354,-0.330919,-0.606812,-2.76834,-0.290705,2.1862,-0.739957,0.221796,0.272427,0.0369076,0.169091,0.220487,-0.0108363,-0.0255596,-1.52653,-1.875,-0.254019,-1.16378,-1.51752,0.0745819,0.175916,0.245973,0.240444,0.274642,0.636568,0.758061,-0.141066,0.0149941
17227872435,1.36855,-0.313052,-0.604392,-2.75725,-0.276244,2.18549,-0.741633,0.0691435,0.0849274,0.0115057,0.0527129,0.0687355,-0.00337816,-0.00796802,-1.52653,-1.875,-0.254019,-1.16378,-1.51752,0.0745819,0.175916,0.244727,0.246248,0.273402,0.634333,0.759313,-0.144282,0.0157639
17273167032,1.37011,-0.311128,-0.604131,-2.75606,-0.274687,2.18541,-0.741813,0,0,0,0,0,0,0,0,0,0,0,0,0,0,0.244584,0.246876,0.273264,0.63409,0.759449,-0.144624,0.01585
17273167032,1.37011,-0.311128,-0.604131,-2.75606,-0.274687,2.18541,-0.741813,0,0,0,0,0,0,0,0,0,0,0,0,0,0,0.244584,0.246876,0.273264,0.63409,0.759449,-0.144624,0.01585
17373167032,1.37678,-0.301753,-0.602733,-2.74997,-0.265582,2.18453,-0.740471,0.133356,0.1875,0.0279616,0.12173,0.182109,-0.0176315,0.0268457,1.33356,1.875,0.279616,1.2173,1.82109,-0.176315,0.268457,0.244076,0.249774,0.272656,0.63448,0.758771,-0.146456,0.015892
17473167032,1.3964,-0.274162,-0.598618,-2.73206,-0.238784,2.18194,-0.736521,0.221718,0.311738,0.0464891,0.202388,0.302776,-0.0293141,0.0446337,-1.33356,-1.875,-0.279616,-1.2173,-1.82109,0.176315,-0.268457,0.242355,0.25839,0.270761,0.63558,0.756805,-0.151741,0.0161028
17573167032,1.41191,-0.252363,-0.595367,-2.71791,-0.217611,2.17989,-0.7334,0.0883623,0.124238,0.0185275,0.0806586,0.120667,-0.0116827,0.0177881,-1.33356,-1.875,-0.279616,-1.2173,-1.82109,0.176315,-0.268457,0.240753,0.265281,0.269149,0.636399,0.755283,-0.155809,0.0163568
17639427525,1.41484,-0.248247,-0.594754,-2.71523,-0.213614,2.1795,-0.73281,0,0,0,0,0,0,0,0,0,0,0,0,0,0,0.240427,0.26659,0.268834,0.636549,0.754998,-0.156566,0.016413
17639427525,1.41484,-0.248247,-0.594754,-2.71523,-0.213614,2.1795,-0.73281,0,0,0,0,0,0,0,0,0,0,0,0,0,0,0.240427,0.26659,0.268834,0.636549,0.754998,-0.156566,0.016413
17739427525,1.41897,-0.241188,-0.593503,-2.71065,-0.204239,2.17966,-0.727349,0.0827254,0.141169,0.0250079,0.091734,0.1875,0.00312959,0.109222,0.827254,1.41169,0.250079,0.91734,1.875,0.0312959,1.09222,0.240016,0.268813,0.268336,0.639452,0.75235,-0.15754,0.0158783
17839427525,1.4301,-0.2222,-0.590139,-2.69831,-0.179018,2.18008,-0.712658,0.100333,0.171216,0.0303307,0.111259,0.227408,0.00379571,0.132469,-0.827254,-1.41169,-0.250079,-0.91734,-1.875,-0.0312959,-1.09222,0.238812,0.274832,0.266939,0.64719,0.74518,-0.160131,0.0144955
17939427525,1.436,-0.212137,-0.588357,-2.69177,-0.165652,2.1803,-0.704872,0.0176076,0.030047,0.00532277,0.019525,0.0399082,0.000666114,0.0232472,-0.827254,-1.41169,-0.250079,-0.91734,-1.875,-0.0312959,-1.09222,0.238114,0.278042,0.266164,0.65125,0.741353,-0.161487,0.0137945
17960711905,1.43618,-0.211817,-0.5883,-2.69156,-0.165228,2.18031,-0.704625,0,0,0,0,0,0,0,0,0,0,0,0,0,0,0.238092,0.278144,0.266139,0.651379,0.741232,-0.16153,0.0137726
17960711905,1.43618,-0.211817,-0.5883,-2.69156,-0.165228,2.18031,-0.704625,0,0,0,0,0,0,0,0,0,0,0,0,0,0,0.238092,0.278144,0.266139,0.651379,0.741232,-0.16153,0.0137726
18060711905,1.43933,-0.205812,-0.587153,-2.68768,-0.155853,2.18114,-0.697635,0.0628376,0.120093,0.022941,0.0775428,0.1875,0.0166057,0.139782,0.628376,1.20093,0.22941,0.775428,1.875,0.166057,1.39782,0.237739,0.280092,0.265694,0.655162,0.737787,-0.162063,0.0129932
18160711905,1.44744,-0.190301,-0.58419,-2.67767,-0.131636,2.18328,-0.679582,0.0682984,0.130529,0.0249347,0.0842815,0.203794,0.0180488,0.15193,-0.628376,-1.20093,-0.22941,-0.775428,-1.875,-0.166057,-1.39782,0.236768,0.285146,0.264504,0.664845,0.728799,-0.16344,0.0110208
18260711905,1.45113,-0.183253,-0.582844,-2.67312,-0.120631,2.18426,-0.671378,0.00546077,0.0104364,0.00199364,0.00673869,0.0162943,0.00144309,0.0121475,-0.628376,-1.20093,-0.22941,-0.775428,-1.875,-0.166057,-1.39782,0.236298,0.287451,0.263943,0.669201,0.724672,-0.164064,0.0101435
18269402186,1.45115,-0.183208,-0.582835,-2.67309,-0.120561,2.18426,-0.671325,0,0,0,0,0,0,0,0,0,0,0,0,0,0,0.236295,0.287466,0.26394,0.669229,0.724646,-0.164068,0.0101379
18269402186,1.45115,-0.183208,-0.582835,-2.67309,-0.120561,2.18426,-0.671325,0,0,0,0,0,0,0,0,0,0,0,0,0,0,0.236295,0.287466,0.26394,0.669229,0.724646,-0.164068,0.0101379
18369402187,1.45346,-0.178214,-0.581804,-2.66997,-0.111186,2.18601,-0.662605,0.0461365,0.0998693,0.0206143,0.0623644,0.1875,0.0348889,0.174405,0.461365,0.998693,0.206143,0.623644,1.875,0.348889,1.74405,0.236021,0.289163,0.263555,0.673885,0.720318,-0.164126,0.00911857
18469402187,1.45985,-0.164387,-0.57895,-2.66133,-0.0852248,2.19084,-0.638457,0.0609236,0.131878,0.0272213,0.0823526,0.247595,0.046071,0.230303,-0.461365,-0.998693,-0.206143,-0.623644,-1.875,-0.348889,-1.74405,0.235228,0.293871,0.262456,0.686633,0.708164,-0.164314,0.00633223
18569402187,1.46363,-0.156192,-0.577259,-2.65622,-0.0698403,2.1937,-0.624147,0.0147871,0.0320088,0.00660703,0.0199882,0.060095,0.0111821,0.055898,-0.461365,-0.998693,-0.206143,-0.623644,-1.875,-0.348889,-1.74405,0.234736,0.296666,0.261781,0.694085,0.700843,-0.164444,0.00470592
18601452867,1.46387,-0.155679,-0.577153,-2.6559,-0.0688773,2.19388,-0.623251,0,0,0,0,0,0,0,0,0,0,0,0,0,0,0.234704,0.296842,0.261738,0.694549,0.700382,-0.164452,0.00460473
18601452867,1.46387,-0.155679,-0.577153,-2.6559,-0.0688773,2.19388,-0.623251,0,0,0,0,0,0,0,0,0,0,0,0,0,0,0.234704,0.296842,0.261738,0.694549,0.700382,-0.164452,0.00460473
18701452867,1.46457,-0.153473,-0.576575,-2.65491,-0.0620976,2.19679,-0.613876,0.013898,0.0441263,0.011546,0.0196992,0.135593,0.0582764,0.1875,0.13898,0.441263,0.11546,0.196992,1.35593,0.582764,1.875,0.234616,0.297709,0.261534,0.69929,0.695809,-0.163797,0.00354717
18801452867,1.46621,-0.148241,-0.575206,-2.65258,-0.0460203,2.2037,-0.591644,0.012213,0.0387764,0.0101461,0.0173108,0.119154,0.0512109,0.164767,-0.13898,-0.441263,-0.11546,-0.196992,-1.35593,-0.582764,-1.875,0.234416,0.29976,0.261048,0.71042,0.684811,-0.162283,0.00104453
18889328798,1.46675,-0.146537,-0.574761,-2.65182,-0.0407849,2.20595,-0.584405,0,0,0,0,0,0,0,0,0,0,0,0,0,0,0.234354,0.300425,0.260889,0.714009,0.681183,-0.161802,0.000231316
18889328798,1.46675,-0.146541,-0.574762,-2.65182,-0.0407952,2.20595,-0.584419,0,0,0,0,0,0,0,0,0,0,0,0,0,0,0.234354,0.300423,0.260889,0.714002,0.681191,-0.161803,0.000232911
18989328798,1.46742,-0.144466,-0.574128,-2.65103,-0.034294,2.20936,-0.575044,0.0134166,0.0414897,0.0126689,0.0158068,0.130023,0.0681088,0.1875,0.134166,0.414897,0.126689,0.158068,1.30023,0.681088,1.875,0.234263,0.301287,0.260686,0.718568,0.67657,-0.160973,-0.000789196
19089328798,1.46916,-0.139071,-0.572481,-2.64897,-0.0173866,2.21821,-0.550663,0.0148433,0.0459018,0.0140162,0.0174878,0.14385,0.0753516,0.207439,-0.134166,-0.414897,-0.126689,-0.158068,-1.30023,-0.681088,-1.875,0.234039,0.303519,0.260154,0.730311,0.664378,-0.15886,-0.00344592
19189328798,1.46998,-0.136555,-0.571713,-2.64801,-0.0095027,2.22234,-0.539294,0.00142675,0.00441212,0.00134725,0.00168094,0.013827,0.00724286,0.0199392,-0.134166,-0.414897,-0.126689,-0.158068,-1.30023,-0.681088,-1.875,0.233941,0.304554,0.259905,0.73572,0.658606,-0.157897,-0.00468369
19199963055,1.46999,-0.136532,-0.571705,-2.648,-0.00942918,2.22238,-0.539188,0,0,0,0,0,0,0,0,0,0,0,0,0,0,0.23394,0.304563,0.259903,0.735771,0.658552,-0.157888,-0.00469523
19199963055,1.46999,-0.136532,-0.571705,-2.648,-0.00942922,2.22238,-0.539188,0,0,0,0,0,0,0,0,0,0,0,0,0,0,0.23394,0.304563,0.259903,0.735771,0.658552,-0.157888,-0.00469523
19299963055,1.47063,-0.134578,-0.571002,-2.6474,-0.00328134,2.22625,-0.529813,0.0129877,0.03908,0.014059,0.0121431,0.122958,0.0773679,0.1875,0.129877,0.3908,0.14059,0.121431,1.22958,0.773679,1.875,0.233848,0.305418,0.259699,0.740123,0.653888,-0.156896,-0.00565655
19399963055,1.47226,-0.129683,-0.569241,-2.64588,0.0121197,2.23594,-0.506327,0.013054,0.0392795,0.0141308,0.0122051,0.123585,0.0777629,0.188457,-0.129877,-0.3908,-0.14059,-0.121431,-1.22958,-0.773679,-1.875,0.233631,0.307542,0.25919,0.750905,0.642045,-0.15445,-0.00806869
19499963055,1.47292,-0.127709,-0.568531,-2.64526,0.0183303,2.23985,-0.496857,6.62995e-05,0.000199494,7.17679e-05,6.19879e-05,0.000627671,0.000394946,0.000957145,-0.129877,-0.3908,-0.14059,-0.121431,-1.22958,-0.773679,-1.875,0.233549,0.308393,0.258984,0.755203,0.637205,-0.15348,-0.00904276
19500473532,1.47292,-0.127709,-0.568531,-2.64526,0.0183305,2.23985,-0.496856,0,0,0,0,0,0,0,0,0,0,0,0,0,0,0.233549,0.308393,0.258984,0.755203,0.637205,-0.15348,-0.00904278
19500473532,1.47292,-0.127709,-0.568531,-2.64526,0.0183305,2.23985,-0.496856,0,0,0,0,0,0,0,0,0,0,0,0,0,0,0.233549,0.308393,0.258984,0.755203,0.637205,-0.15348,-0.00904278
19600473532,1.47315,-0.126562,-0.567901,-2.64531,0.0230825,2.24414,-0.487481,0.00466161,0.0229441,0.0126163,-0.000925799,0.0950411,0.0858087,0.1875,0.0466161,0.229441,0.126163,-0.00925799,0.950411,0.858087,1.875,0.233521,0.308997,0.258843,0.759263,0.63265,-0.152242,-0.00983749
19700473532,1.47385,-0.12312,-0.566008,-2.64545,0.0373386,2.25701,-0.459357,0.00928792,0.0457145,0.025137,-0.00184459,0.189363,0.170968,0.37358,-0.0466161,-0.229441,-0.126163,0.00925799,-0.950411,-0.858087,-1.875,0.233458,0.310788,0.258424,0.771282,0.618788,-0.148578,-0.0122466
19800473532,1.47455,-0.119696,-0.564125,-2.64559,0.0515228,2.26981,-0.431374,0.00462632,0.0227704,0.0125207,-0.00091879,0.0943216,0.0851591,0.18608,-0.0466161,-0.229441,-0.126163,0.00925799,-0.950411,-0.858087,-1.875,0.233424,0.312537,0.258015,0.782999,0.604707,-0.145008,-0.0146791
19899716464,1.47477,-0.118566,-0.563504,-2.64563,0.0562031,2.27404,-0.42214,0,0,0,0,0,0,0,0,0,0,0,0,0,0,0.233418,0.313106,0.257882,0.786811,0.599998,-0.143846,-0.0154892
19899716464,1.47477,-0.118566,-0.563504,-2.64563,0.0562031,2.27404,-0.42214,0,0,0,0,0,0,0,0,0,0,0,0,0,0,0.233418,0.313106,0.257882,0.786811,0.599998,-0.143846,-0.0154892
19999716464,1.47459,-0.11821,-0.562942,-2.64633,0.0593884,2.27872,-0.412765,-0.00369295,0.00711895,0.0112288,-0.0139773,0.0637054,0.093571,0.1875,-0.0369295,0.0711895,0.112288,-0.139773,0.637054,0.93571,1.875,0.233466,0.313441,0.257807,0.790458,0.595518,-0.142389,-0.0160963
20099716464,1.47405,-0.11716,-0.561286,-2.64839,0.0687839,2.29252,-0.385112,-0.00621418,0.0119791,0.0188949,-0.0235198,0.107198,0.157453,0.315509,0.0369295,-0.0711895,-0.112288,0.139773,-0.637054,-0.93571,-1.875,0.233623,0.314408,0.257594,0.801068,0.582141,-0.138133,-0.017933
20199716464,1.47361,-0.116318,-0.559958,-2.65005,0.0763184,2.30359,-0.362936,-0.00252123,0.0048602,0.00766606,-0.00954247,0.0434925,0.0638821,0.128009,0.0369295,-0.0711895,-0.112288,0.139773,-0.637054,-0.93571,-1.875,0.233763,0.315163,0.257434,0.809411,0.571238,-0.134764,-0.0194544
20267987754,1.47352,-0.116152,-0.559697,-2.65037,0.0778031,2.30577,-0.358566,0,0,0,0,0,0,0,0,0,0,0,0,0,0,0.233792,0.31531,0.257403,0.811038,0.569072,-0.134105,-0.0197592
20267987754,1.47352,-0.116152,-0.559697,-2.65037,0.0778031,2.30577,-0.358566,0,0,0,0,0,0,0,0,0,0,0,0,0,0,0.233792,0.31531,0.257403,0.811038,0.569072,-0.134105,-0.0197592
20367987754,1.47332,-0.115806,-0.559027,-2.65115,0.080368,2.3107,-0.349191,-0.00403032,0.00692573,0.0133975,-0.0156701,0.0512993,0.0986759,0.1875,-0.0403032,0.0692573,0.133975,-0.156701,0.512993,0.986759,1.875,0.233839,0.315633,0.257329,0.814371,0.564643,-0.132545,-0.0202394
20467987754,1.47276,-0.114836,-0.55715,-2.65335,0.0875551,2.32453,-0.322923,-0.00552444,0.00949322,0.0183642,-0.0214793,0.070317,0.135257,0.25701,0.0403032,-0.0692573,-0.133975,0.156701,-0.512993,-0.986759,-1.875,0.233979,0.31652,0.257131,0.823577,0.552101,-0.128204,-0.0216381
20567987754,1.47241,-0.114233,-0.555983,-2.65471,0.0920218,2.33312,-0.306597,-0.00149412,0.0025675,0.00496669,-0.0058092,0.0190176,0.036581,0.0695098,0.0403032,-0.0692573,-0.133975,0.156701,-0.512993,-0.986759,-1.875,0.234073,0.317059,0.257015,0.829198,0.54421,-0.125529,-0.0225466
20605059658,1.47238,-0.114185,-0.555891,-2.65482,0.0923743,2.33379,-0.305308,0,0,0,0,0,0,0,0,0,0,0,0,0,0,0.23408,0.317102,0.257006,0.829638,0.543584,-0.125319,-0.0226196
20605059658,1.47238,-0.114185,-0.555891,-2.65482,0.0923743,2.33379,-0.305308,0,0,0,0,0,0,0,0,0,0,0,0,0,0,0.23408,0.317102,0.257006,0.829638,0.543584,-0.125319,-0.0226196
20705059658,1.47215,-0.113818,-0.55512,-2.65563,0.0942774,2.33883,-0.295933,-0.00461326,0.00734556,0.0154254,-0.016249,0.0380612,0.100616,0.1875,-0.0461326,0.0734556,0.154254,-0.16249,0.380612,1.00616,1.875,0.234124,0.317414,0.256932,0.832686,0.539266,-0.123692,-0.0229495
20805059658,1.47147,-0.112733,-0.552841,-2.65803,0.0998996,2.35369,-0.268237,-0.00783156,0.01247,0.0261864,-0.0275846,0.0646134,0.170808,0.318304,0.0461326,-0.0734556,-0.154254,0.16249,-0.380612,-1.00616,-1.875,0.234258,0.318322,0.256724,0.841547,0.526387,-0.118913,-0.0239955
20905059658,1.47091,-0.111853,-0.550994,-2.65998,0.104458,2.36574,-0.245781,-0.0032183,0.00512441,0.010761,-0.0113356,0.0265522,0.0701918,0.130804,0.0461326,-0.0734556,-0.154254,0.16249,-0.380612,-1.00616,-1.875,0.234373,0.31904,0.256568,0.848573,0.515812,-0.115069,-0.0249209
20974821688,1.4708,-0.111674,-0.550619,-2.66038,0.105384,2.36819,-0.241219,0,0,0,0,0,0,0,0,0,0,0,0,0,0,0.234397,0.319184,0.256537,0.849983,0.513649,-0.114291,-0.0251173
20974821688,1.4708,-0.111674,-0.550619,-2.66038,0.105384,2.36819,-0.241219,0,0,0,0,0,0,0,0,0,0,0,0,0,0,0.234397,0.319184,0.256537,0.849983,0.513649,-0.114291,-0.0251173
21074821688,1.47052,-0.111263,-0.549752,-2.66117,0.106559,2.37316,-0.231844,-0.00554565,0.00822641,0.0173265,-0.0158522,0.0234946,0.099517,0.1875,-0.0554565,0.0822641,0.173265,-0.158522,0.234946,0.99517,1.875,0.234439,0.319481,0.256465,0.852715,0.50946,-0.112641,-0.0252918
21174821688,1.46971,-0.110055,-0.547207,-2.6635,0.11001,2.38778,-0.204303,-0.00913378,0.013549,0.0285371,-0.0261089,0.038696,0.163906,0.308816,0.0554565,-0.0822641,-0.173265,0.158522,-0.234946,-0.99517,-1.875,0.234562,0.320343,0.256264,0.860605,0.497056,-0.107813,-0.0258866
21274821688,1.46907,-0.109111,-0.54522,-2.66532,0.112705,2.39919,-0.182796,-0.00358813,0.00532263,0.0112106,-0.0102567,0.0152014,0.0643892,0.121316,0.0554565,-0.0822641,-0.173265,0.158522,-0.234946,-0.99517,-1.875,0.23466,0.321004,0.256118,0.866626,0.487269,-0.104064,-0.026436
21339523391,1.46896,-0.108939,-0.544857,-2.66565,0.113196,2.40128,-0.178872,0,0,0,0,0,0,0,0,0,0,0,0,0,0,0.234678,0.321123,0.256093,0.867711,0.485473,-0.103382,-0.0265443
21339523391,1.46896,-0.108944,-0.544867,-2.66564,0.113183,2.40122,-0.178982,0,0,0,0,0,0,0,0,0,0,0,0,0,0,0.234677,0.32112,0.256093,0.867681,0.485524,-0.103401,-0.0265412
21439523391,1.46863,-0.108481,-0.543929,-2.66637,0.11367,2.40601,-0.169607,-0.00669621,0.00925925,0.0187676,-0.014707,0.00974078,0.0958019,0.1875,-0.0669621,0.0925925,0.187676,-0.14707,0.0974078,0.958019,1.875,0.234717,0.321402,0.256024,0.870126,0.481475,-0.101766,-0.0265763
21539523391,1.46766,-0.10714,-0.541211,-2.6685,0.11508,2.41988,-0.142457,-0.0103385,0.0142956,0.0289759,-0.0227065,0.015039,0.147911,0.289486,0.0669621,-0.0925925,-0.187676,0.14707,-0.0974078,-0.958019,-1.875,0.234831,0.322211,0.255833,0.877082,0.469674,-0.0970434,-0.026767
21639523391,1.46696,-0.106173,-0.539252,-2.67004,0.116097,2.42988,-0.122883,-0.00364224,0.00503635,0.0102082,-0.0079995,0.00529826,0.0521092,0.101986,0.0669621,-0.0925925,-0.187676,0.14707,-0.0974078,-0.958019,-1.875,0.23491,0.322787,0.255704,0.881982,0.461096,-0.093653,-0.0269862
21693915988,1.46686,-0.106036,-0.538975,-2.67026,0.116241,2.4313,-0.120109,0,0,0,0,0,0,0,0,0,0,0,0,0,0,0.234921,0.322869,0.255686,0.882668,0.459876,-0.0931736,-0.0270228
21693915988,1.46686,-0.106036,-0.538975,-2.67026,0.116241,2.4313,-0.120109,0,0,0,0,0,0,0,0,0,0,0,0,0,0,0.234921,0.322869,0.255686,0.882668,0.459876,-0.0931736,-0.0270228
21793915988,1.46635,-0.105421,-0.538112,-2.67071,0.116142,2.43563,-0.110734,-0.0101682,0.0123098,0.0172463,-0.00909879,-0.00197717,0.0866603,0.1875,-0.101682,0.123098,0.172463,-0.0909879,-0.0197717,0.866603,1.875,0.235069,0.32312,0.255638,0.88492,0.45585,-0.0916104,-0.0269313
21893915988,1.46482,-0.103574,-0.535525,-2.67208,0.115846,2.44863,-0.0826093,-0.0203363,0.0246195,0.0344926,-0.0181976,-0.00395434,0.173321,0.375,-0.101682,0.123098,0.172463,-0.0909879,-0.0197717,0.866603,1.875,0.235508,0.323869,0.255501,0.891544,0.443707,-0.0869302,-0.0267525
21993915988,1.46322,-0.101631,-0.532802,-2.67351,0.115533,2.46232,-0.0530038,-0.0109875,0.0133017,0.018636,-0.009832,-0.0021365,0.0936436,0.202609,0.101682,-0.123098,-0.172463,0.0909879,0.0197717,-0.866603,-1.875,0.235962,0.324652,0.25537,0.898306,0.430818,-0.0820218,-0.0267193
22093915988,1.46263,-0.100916,-0.531801,-2.67404,0.115419,2.46735,-0.0421179,-0.000819377,0.000991952,0.00138975,-0.000733204,-0.000159326,0.00698331,0.0151092,0.101682,-0.123098,-0.172463,0.0909879,0.0197717,-0.866603,-1.875,0.236126,0.324938,0.255326,0.900738,0.426052,-0.0802225,-0.0267469
22101974243,1.46262,-0.100912,-0.531795,-2.67404,0.115418,2.46737,-0.042057,0,0,0,0,0,0,0,0,0,0,0,0,0,0,0.236127,0.32494,0.255325,0.900751,0.426025,-0.0802124,-0.0267471
22101974243,1.46262,-0.100912,-0.531795,-2.67404,0.115418,2.46737,-0.042057,0,0,0,0,0,0,0,0,0,0,0,0,0,0,0.236127,0.32494,0.255325,0.900751,0.426025,-0.0802124,-0.0267471
22201974243,1.46202,-0.100239,-0.530912,-2.67437,0.11454,2.4713,-0.032682,-0.0121096,0.0134579,0.0176604,-0.00655137,-0.0175542,0.0784262,0.1875,-0.121096,0.134579,0.176604,-0.0655137,-0.175542,0.784262,1.875,0.236287,0.32517,0.255283,0.902702,0.422175,-0.0787081,-0.0265183
22301974243,1.4602,-0.0982206,-0.528263,-2.67535,0.111907,2.48306,-0.00455698,-0.0242192,0.0269158,0.0353208,-0.0131027,-0.0351085,0.156852,0.375,-0.121096,0.134579,0.176604,-0.0655137,-0.175542,0.784262,1.875,0.236761,0.325861,0.255162,0.908433,0.410573,-0.0741997,-0.0259319
22401974243,1.45823,-0.0960267,-0.525384,-2.67642,0.109045,2.49585,0.0260094,-0.0137413,0.0152713,0.0200401,-0.00743414,-0.0199196,0.0889938,0.212765,0.121096,-0.134579,-0.176604,0.0655137,0.175542,-0.784262,-1.875,0.23726,0.326613,0.255042,0.914459,0.397885,-0.0693113,-0.0254644
22501974243,1.45746,-0.0951724,-0.524263,-2.67684,0.107931,2.50082,0.0379109,-0.00163172,0.0018134,0.00237967,-0.000882771,-0.00236537,0.0105676,0.0252649,0.121096,-0.134579,-0.176604,0.0655137,0.175542,-0.784262,-1.875,0.23745,0.326905,0.254999,0.916747,0.392923,-0.0674121,-0.0253302
22515448848,1.45745,-0.0951602,-0.524247,-2.67684,0.107915,2.50089,0.0380811,0,0,0,0,0,0,0,0,0,0,0,0,0,0,0.237453,0.326909,0.254998,0.91678,0.392852,-0.067385,-0.0253284
22515448848,1.45745,-0.0951602,-0.524247,-2.67684,0.107915,2.50089,0.0380811,0,0,0,0,0,0,0,0,0,0,0,0,0,0,0.237453,0.326909,0.254998,0.91678,0.392852,-0.067385,-0.0253284
22615448848,1.45678,-0.0944639,-0.523349,-2.67708,0.106371,2.5044,0.0474561,-0.013416,0.0139264,0.0179598,-0.00467035,-0.0308866,0.0701312,0.1875,-0.13416,0.139264,0.179598,-0.0467035,-0.308866,0.701312,1.875,0.237604,0.327125,0.254959,0.918459,0.389177,-0.0659491,-0.0250067
22715448848,1.45481,-0.0924185,-0.520711,-2.67776,0.101834,2.5147,0.0749952,-0.0220887,0.022929,0.0295698,-0.00768946,-0.0508531,0.115467,0.308708,0.13416,-0.139264,-0.179598,0.0467035,0.308866,-0.701312,-1.875,0.238035,0.327761,0.254847,0.923287,0.378347,-0.061733,-0.0241588
22815448848,1.45327,-0.0908219,-0.518652,-2.6783,0.0982935,2.52274,0.096491,-0.00867271,0.00900262,0.01161,-0.00301912,-0.0199665,0.0453359,0.121208,0.13416,-0.139264,-0.179598,0.0467035,0.308866,-0.701312,-1.875,0.238361,0.328261,0.254765,0.926947,0.369861,-0.0584457,-0.0235975
22880093288,1.45299,-0.0905309,-0.518277,-2.6784,0.0976482,2.52421,0.100409,0,0,0,0,0,0,0,0,0,0,0,0,0,0,0.238419,0.328352,0.254751,0.927603,0.368311,-0.0578471,-0.0235047
22880093288,1.45299,-0.0905309,-0.518277,-2.6784,0.0976482,2.52421,0.100409,0,0,0,0,0,0,0,0,0,0,0,0,0,0,0.238419,0.328352,0.254751,0.927603,0.368311,-0.0578471,-0.0235047
22980093288,1.45226,-0.0898225,-0.517382,-2.67853,0.0955457,2.52728,0.109784,-0.0145953,0.014168,0.0179024,-0.00274147,-0.0420493,0.0615479,0.1875,-0.145953,0.14168,0.179024,-0.0274147,-0.420493,0.615479,1.875,0.238563,0.328554,0.254712,0.929085,0.364798,-0.0564866,-0.0230878
23080093288,1.45007,-0.0876985,-0.514698,-2.67894,0.0892419,2.53651,0.137893,-0.0283408,0.027511,0.0347624,-0.0053233,-0.08165,0.119512,0.364082,0.145953,-0.14168,-0.179024,0.0274147,0.420493,-0.615479,-1.875,0.238983,0.329165,0.254601,0.933428,0.354238,-0.0524052,-0.0219361
23180093288,1.44797,-0.0856558,-0.512117,-2.67934,0.0831793,2.54539,0.164926,-0.0137455,0.013343,0.01686,-0.00258183,-0.0396008,0.057964,0.176582,0.145953,-0.14168,-0.179024,0.0274147,0.420493,-0.615479,-1.875,0.23937,0.329759,0.254499,0.937465,0.344049,-0.0484801,-0.0209671
23274270406,1.44732,-0.0850275,-0.511323,-2.67946,0.0813146,2.54811,0.173241,0,0,0,0,0,0,0,0,0,0,0,0,0,0,0.239486,0.329943,0.254469,0.938679,0.340909,-0.0472734,-0.0206963
23274270406,1.44732,-0.0850275,-0.511323,-2.67946,0.0813146,2.54811,0.173241,0,0,0,0,0,0,0,0,0,0,0,0,0,0,0.239486,0.329943,0.254469,0.938679,0.340909,-0.0472734,-0.0206963
23374270406,1.44651,-0.0840287,-0.510546,-2.67917,0.0789596,2.55067,0.182616,-0.0162459,0.0199757,0.0155367,0.00586941,-0.0470993,0.0511869,0.1875,-0.162459,0.199757,0.155367,0.0586941,-0.470993,0.511869,1.875,0.239741,0.330175,0.254437,0.940029,0.337375,-0.0459891,-0.0202183
23474270406,1.44407,-0.0810324,-0.508216,-2.67829,0.0718947,2.55835,0.210741,-0.0324917,0.0399513,0.0310734,0.0117388,-0.0941986,0.102374,0.375,-0.162459,0.199757,0.155367,0.0586941,-0.470993,0.511869,1.875,0.240497,0.330877,0.254344,0.943982,0.326751,-0.0421314,-0.0188743
23574270406,1.44113,-0.0774104,-0.505399,-2.67722,0.0633547,2.56763,0.244738,-0.0218105,0.0268179,0.0208584,0.00787983,-0.063232,0.0687197,0.251724,0.162459,-0.199757,-0.155367,-0.0586941,0.470993,-0.511869,-1.875,0.241389,0.331735,0.254232,0.948567,0.31387,-0.0374627,-0.0174296
23674270406,1.43976,-0.0757274,-0.50409,-2.67673,0.0593865,2.57195,0.260536,-0.00556464,0.0068422,0.00532173,0.00201043,-0.0161328,0.0175329,0.0642237,0.162459,-0.199757,-0.155367,-0.0586941,0.470993,-0.511869,-1.875,0.241795,0.332136,0.254181,0.950625,0.307871,-0.0352928,-0.0168252
23708523057,1.43966,-0.0756102,-0.503999,-2.67669,0.0591102,2.57225,0.261636,0,0,0,0,0,0,0,0,0,0,0,0,0,0,0.241823,0.332164,0.254177,0.950766,0.307453,-0.0351417,-0.0167847
23708523057,1.43967,-0.0756264,-0.504011,-2.6767,0.0591483,2.5722,0.261484,0,0,0,0,0,0,0,0,0,0,0,0,0,0,0.241819,0.33216,0.254178,0.950747,0.30751,-0.0351626,-0.0167903
23808523057,1.43883,-0.07445,-0.503362,-2.67608,0.0564908,2.57424,0.270859,-0.0168267,0.0235262,0.0129867,0.0123761,-0.0531501,0.040748,0.1875,-0.168267,0.235262,0.129867,0.123761,-0.531501,0.40748,1.875,0.242145,0.332411,0.254151,0.951928,0.303999,-0.033956,-0.0162666
23908523057,1.43631,-0.0709211,-0.501414,-2.67422,0.0485183,2.58035,0.298984,-0.0336534,0.0470524,0.0259734,0.0247522,-0.1063,0.081496,0.375,-0.168267,0.235262,0.129867,0.123761,-0.531501,0.40748,1.875,0.243112,0.333166,0.254071,0.955379,0.293449,-0.0303282,-0.014777
24008523057,1.43366,-0.0672104,-0.499366,-2.67227,0.0401352,2.58678,0.328557,-0.0181527,0.0253802,0.0140101,0.0133514,-0.0573386,0.0439592,0.202276,0.168267,-0.235262,-0.129867,-0.123761,0.531501,-0.40748,-1.875,0.244113,0.333965,0.253985,0.958858,0.282331,-0.0265032,-0.0133418
24108523057,1.43268,-0.0658487,-0.498614,-2.67155,0.0370588,2.58914,0.33941,-0.00132603,0.00185398,0.00102342,0.000975299,-0.00418849,0.00321115,0.0147759,0.168267,-0.235262,-0.129867,-0.123761,0.531501,-0.40748,-1.875,0.244477,0.33426,0.253952,0.960096,0.278245,-0.0250975,-0.0128488
24116403553,1.43268,-0.0658414,-0.49861,-2.67155,0.0370423,2.58915,0.339468,0,0,0,0,0,0,0,0,0,0,0,0,0,0,0.244478,0.334262,0.253952,0.960103,0.278223,-0.02509,-0.0128462
24116403553,1.43268,-0.0658414,-0.49861,-2.67155,0.0370423,2.58915,0.339468,0,0,0,0,0,0,0,0,0,0,0,0,0,0,0.244478,0.334262,0.253952,0.960103,0.278223,-0.02509,-0.0128462
24216403553,1.43186,-0.0647058,-0.498041,-2.67085,0.0339879,2.59072,0.348843,-0.0162381,0.0227123,0.011374,0.0140442,-0.0610883,0.0313153,0.1875,-0.162381,0.227123,0.11374,0.140442,-0.610883,0.313153,1.875,0.244789,0.334499,0.253927,0.961114,0.274836,-0.0239638,-0.0122623
24316403553,1.42943,-0.0613005,-0.496336,-2.66874,0.0248287,2.59541,0.376956,-0.0316391,0.0442537,0.0221617,0.0273644,-0.119027,0.0610162,0.365334,0.162381,-0.227123,-0.11374,-0.140442,0.610883,-0.313153,-1.875,0.245712,0.335215,0.253848,0.964062,0.264667,-0.0205733,-0.0105847
24416403553,1.42708,-0.0580107,-0.494688,-2.66671,0.0159804,2.59995,0.404114,-0.015401,0.0215414,0.0107877,0.0133202,-0.0579391,0.0297009,0.177834,0.162381,-0.227123,-0.11374,-0.140442,0.610883,-0.313153,-1.875,0.246591,0.335912,0.253769,0.96679,0.254826,-0.0172811,-0.00906843
24511248400,1.42635,-0.0569892,-0.494177,-2.66608,0.0132328,2.60136,0.412548,0,0,0,0,0,0,0,0,0,0,0,0,0,0,0.246862,0.336129,0.253744,0.967613,0.251767,-0.0162558,-0.00861848
24511248400,1.42635,-0.0569892,-0.494177,-2.66608,0.0132328,2.60136,0.412548,0,0,0,0,0,0,0,0,0,0,0,0,0,0,0.246862,0.336129,0.253744,0.967613,0.251767,-0.0162558,-0.00861848
24611248400,1.42544,-0.0549291,-0.493943,-2.6642,0.0105484,2.60227,0.421923,-0.0180647,0.0412023,0.00468103,0.0375808,-0.0536868,0.0182913,0.1875,-0.180647,0.412023,0.0468103,0.375808,-0.536868,0.182913,1.875,0.247544,0.336504,0.253726,0.96861,0.247996,-0.0151579,-0.00795003
24711248400,1.42277,-0.0488243,-0.493249,-2.65863,0.00259396,2.60498,0.449703,-0.0312343,0.0712398,0.00809362,0.0649781,-0.0928258,0.031626,0.324192,0.180647,-0.412023,-0.0468103,-0.375808,0.536868,-0.182913,-1.875,0.249558,0.337613,0.253668,0.971465,0.236807,-0.0118835,-0.00602723
24811248400,1.42055,-0.0437605,-0.492674,-2.65401,-0.00400428,2.60723,0.472748,-0.0131696,0.0300375,0.00341258,0.0273973,-0.039139,0.0133348,0.136692,0.180647,-0.412023,-0.0468103,-0.375808,0.536868,-0.182913,-1.875,0.251224,0.338531,0.253612,0.973722,0.22751,-0.00914447,-0.00449829
24884150799,1.42007,-0.0426656,-0.492549,-2.65301,-0.00543094,2.60772,0.47773,0,0,0,0,0,0,0,0,0,0,0,0,0,0,0.251583,0.33873,0.253599,0.974197,0.225498,-0.00854964,-0.00417561
24884150799,1.42007,-0.0426656,-0.492549,-2.65301,-0.00543094,2.60772,0.47773,0,0,0,0,0,0,0,0,0,0,0,0,0,0,0.251583,0.33873,0.253599,0.974197,0.225498,-0.00854964,-0.00417561
24984150799,1.41912,-0.0395204,-0.492717,-2.64976,-0.00747657,2.60791,0.487105,-0.0188553,0.0629035,-0.00335268,0.0650801,-0.0409127,0.00394555,0.1875,-0.188553,0.629035,-0.0335268,0.650801,-0.409127,0.0394555,1.875,0.252694,0.339269,0.253586,0.97519,0.221219,-0.00748797,-0.0034078
25084150799,1.41643,-0.0305323,-0.493196,-2.64046,-0.0133224,2.60848,0.513896,-0.0276529,0.0922531,-0.00491698,0.0954452,-0.0600017,0.00578647,0.274984,0.188553,-0.629035,0.0335268,-0.650801,0.409127,-0.0394555,-1.875,0.255869,0.340802,0.253536,0.97791,0.208976,-0.00442152,-0.00125533
25184150799,1.41461,-0.0244522,-0.49352,-2.63417,-0.017277,2.60886,0.53202,-0.00879754,0.0293496,-0.0015643,0.0303651,-0.0190891,0.00184092,0.087484,0.188553,-0.629035,0.0335268,-0.650801,0.409127,-0.0394555,-1.875,0.258015,0.341831,0.253492,0.979653,0.200684,-0.00232031,0.000165318
25230808916,1.4144,-0.0237675,-0.493557,-2.63346,-0.0177223,2.6089,0.534061,0,0,0,0,0,0,0,0,0,0,0,0,0,0,0.258257,0.341946,0.253487,0.979845,0.19975,-0.00208235,0.000323493
25230808916,1.4144,-0.0237675,-0.493557,-2.63346,-0.0177223,2.6089,0.534061,0,0,0,0,0,0,0,0,0,0,0,0,0,0,0.258257,0.341946,0.253487,0.979845,0.19975,-0.00208235,0.000323493
25330808916,1.41302,-0.0155451,-0.495279,-2.62409,-0.0117804,2.60684,0.535698,-0.0275763,0.164448,-0.0344416,0.1875,0.118839,-0.0413079,0.0327508,-0.275763,1.64448,-0.344416,1.875,1.18839,-0.413079,0.327508,0.261464,0.343182,0.253492,0.980827,0.194873,-0.00178648,0.000650063
25430808916,1.40979,0.00372324,-0.499314,-2.60212,0.00214399,2.602,0.539536,-0.0235515,0.140447,-0.0294148,0.160134,0.101494,-0.035279,0.0279708,0.275763,-1.64448,0.344416,-1.875,-1.18839,0.413079,-0.327508,0.268966,0.34603,0.253472,0.983017,0.183505,-0.00104058,0.00137905
25516213842,1.40879,0.00972066,-0.50057,-2.59528,0.00647804,2.60049,0.54073,0,0,0,0,0,0,0,0,0,0,0,0,0,0,0.271296,0.346903,0.253458,0.983668,0.179984,-0.000793529,0.00159542
25516213842,1.40884,0.00937311,-0.500498,-2.59567,0.00622689,2.60058,0.540661,0,0,0,0,0,0,0,0,0,0,0,0,0,0,0.271161,0.346852,0.253459,0.983631,0.180188,-0.000808037,0.00158302
25616213842,1.40716,0.0173099,-0.501902,-2.5863,0.0153658,2.59757,0.535516,-0.0337369,0.158736,-0.0280809,0.1875,0.182779,-0.0601049,-0.102891,-0.337369,1.58736,-0.280809,1.875,1.82779,-0.601049,-1.02891,0.27434,0.347946,0.253461,0.984143,0.177368,-0.00131397,0.00141944
25716213842,1.40259,0.0388098,-0.505705,-2.5609,0.0401221,2.58943,0.52158,-0.0417308,0.196349,-0.0347347,0.231928,0.226088,-0.0743467,-0.127271,0.337369,-1.58736,0.280809,-1.875,-1.82779,0.601049,1.02891,0.282905,0.350857,0.25343,0.985466,0.16985,-0.0026396,0.000844355
25816213842,1.4001,0.0505078,-0.507774,-2.54709,0.0535919,2.585,0.513998,-0.00799393,0.0376125,-0.00665376,0.044428,0.0433093,-0.0142418,-0.02438,0.337369,-1.58736,0.280809,-1.875,-1.82779,0.601049,1.02891,0.287537,0.352413,0.25339,0.986148,0.165834,-0.00333252,0.000450603
25839908775,1.40001,0.0509535,-0.507853,-2.54656,0.0541051,2.58483,0.513709,0,0,0,0,0,0,0,0,0,0,0,0,0,0,0.287713,0.352471,0.253389,0.986173,0.165682,-0.00335851,0.000434479
25839908775,1.40001,0.0509535,-0.507853,-2.54656,0.0541051,2.58483,0.513709,0,0,0,0,0,0,0,0,0,0,0,0,0,0,0.287713,0.352471,0.253389,0.986173,0.165682,-0.00335851,0.000434479
25939908775,1.39762,0.0584111,-0.508484,-2.53749,0.0634801,2.58138,0.506685,-0.047684,0.149152,-0.0126084,0.181406,0.1875,-0.0691032,-0.140486,-0.47684,1.49152,-0.126084,1.81406,1.875,-0.691032,-1.40486,0.290718,0.353442,0.253385,0.986477,0.163852,-0.00408768,8.86731e-05
26039908775,1.39056,0.08051,-0.510352,-2.51061,0.0912607,2.57114,0.48587,-0.0824442,0.25788,-0.0217995,0.313646,0.324182,-0.119477,-0.242895,0.47684,-1.49152,0.126084,-1.81406,-1.875,0.691032,1.40486,0.299557,0.356276,0.253323,0.987327,0.158574,-0.00623266,-0.00113158
26139908775,1.3847,0.0988404,-0.511901,-2.48832,0.114304,2.56265,0.468604,-0.0347602,0.108728,-0.00919113,0.13224,0.136682,-0.0503743,-0.10241,0.47684,-1.49152,0.126084,-1.81406,-1.875,0.691032,1.40486,0.306814,0.358584,0.253215,0.987978,0.154367,-0.00798977,-0.00236471
26212805904,1.38343,0.102803,-0.512236,-2.4835,0.119286,2.56081,0.464872,0,0,0,0,0,0,0,0,0,0,0,0,0,0,0.308374,0.359078,0.253184,0.988113,0.153478,-0.00836656,-0.00265753
26212805904,1.38343,0.102803,-0.512236,-2.4835,0.119286,2.56081,0.464872,0,0,0,0,0,0,0,0,0,0,0,0,0,0,0.308374,0.359078,0.253184,0.988113,0.153478,-0.00836656,-0.00265753
26312805904,1.38012,0.110416,-0.512209,-2.47412,0.127659,2.55741,0.457775,-0.0662437,0.152251,0.000543806,0.1875,0.167457,-0.0679883,-0.141942,-0.662437,1.52251,0.00543806,1.875,1.67457,-0.679883,-1.41942,0.311457,0.360015,0.253155,0.988313,0.15215,-0.00883486,-0.00306781
26412805904,1.37036,0.132842,-0.512129,-2.4465,0.152325,2.5474,0.436867,-0.110715,0.254461,0.000908877,0.313373,0.279875,-0.113631,-0.237231,0.662437,-1.52251,-0.00543806,-1.875,-1.67457,0.679883,1.41942,0.320475,0.362728,0.253,0.988867,0.148386,-0.0102222,-0.004448
26512805904,1.3626,0.150676,-0.512065,-2.42454,0.17194,2.53943,0.420241,-0.0444711,0.10221,0.000365071,0.125873,0.112418,-0.0456423,-0.0952893,0.662437,-1.52251,-0.00543806,-1.875,-1.67457,0.679883,1.41942,0.327579,0.364838,0.252802,0.989269,0.145554,-0.0113306,-0.00572749
26579938396,1.36111,0.154107,-0.512053,-2.42032,0.175713,2.5379,0.417042,0,0,0,0,0,0,0,0,0,0,0,0,0,0,0.328938,0.36524,0.252756,0.989342,0.145026,-0.0115441,-0.00599205
26579938396,1.36111,0.154107,-0.512053,-2.42032,0.175713,2.5379,0.417042,0,0,0,0,0,0,0,0,0,0,0,0,0,0,0.328938,0.36524,0.252756,0.989342,0.145026,-0.0115441,-0.00599205
26679938396,1.35764,0.161613,-0.512027,-2.41094,0.181171,2.53477,0.412337,-0.0694107,0.15013,0.000528456,0.1875,0.109154,-0.0626774,-0.0941088,-0.694107,1.5013,0.00528456,1.875,1.09154,-0.626774,-0.941088,0.332008,0.366124,0.252714,0.989522,0.143802,-0.0114475,-0.00601452
26779938396,1.3473,0.183967,-0.511948,-2.38302,0.197423,2.52543,0.398325,-0.124219,0.268677,0.00094574,0.335555,0.195345,-0.112169,-0.16842,0.694107,-1.5013,-0.00528456,-1.875,-1.09154,0.626774,0.941088,0.341098,0.368696,0.252519,0.990029,0.140283,-0.0111876,-0.00616746
26879938396,1.33835,0.203328,-0.51188,-2.35884,0.2115,2.51735,0.386188,-0.0548086,0.118547,0.000417284,0.148055,0.0861908,-0.0494918,-0.0743109,0.694107,-1.5013,-0.00528456,-1.875,-1.09154,0.626774,0.941088,0.348908,0.370854,0.252261,0.990435,0.13739,-0.0109953,-0.00640379
26958901109,1.33619,0.208008,-0.511863,-2.353,0.214903,2.5154,0.383254,0,0,0,0,0,0,0,0,0,0,0,0,0,0,0.350787,0.371366,0.252187,0.990529,0.136713,-0.0109534,-0.00647535
26958901109,1.3364,0.207544,-0.511865,-2.35358,0.214565,2.51559,0.383545,0,0,0,0,0,0,0,0,0,0,0,0,0,0,0.350601,0.371315,0.252194,0.99052,0.13678,-0.0109575,-0.006468
27058901109,1.3329,0.214788,-0.511797,-2.3442,0.218743,2.51225,0.380761,-0.0700748,0.144894,0.00136416,0.1875,0.0835635,-0.0667491,-0.0556943,-0.700748,1.44894,0.0136416,1.875,0.835635,-0.667491,-0.556943,0.353585,0.372148,0.252162,0.990729,0.135279,-0.0107557,-0.00633453
27158901109,1.32251,0.236268,-0.511594,-2.31641,0.231131,2.50236,0.372504,-0.121573,0.251377,0.00236668,0.325294,0.144974,-0.115803,-0.096624,0.700748,-1.44894,-0.0136416,-1.875,-0.835635,0.667491,0.556943,0.362382,0.374559,0.251996,0.991319,0.130943,-0.0101952,-0.00600078
27258901109,1.31386,0.254161,-0.511426,-2.29325,0.24145,2.49412,0.365627,-0.051498,0.106483,0.00100252,0.137794,0.0614108,-0.0490539,-0.0409297,0.700748,-1.44894,-0.0136416,-1.875,-0.835635,0.667491,0.556943,0.369652,0.376502,0.251778,0.991779,0.12746,-0.00977186,-0.00579338
27332391150,1.31197,0.258073,-0.511389,-2.28819,0.243706,2.49231,0.364123,0,0,0,0,0,0,0,0,0,0,0,0,0,0,0.371234,0.37692,0.251721,0.991875,0.126714,-0.00968459,-0.00575657
27332391150,1.31197,0.258072,-0.511389,-2.28819,0.243706,2.49231,0.364123,0,0,0,0,0,0,0,0,0,0,0,0,0,0,0.371234,0.376919,0.251721,0.991875,0.126715,-0.00968462,-0.00575658
27432391150,1.30849,0.265087,-0.511349,-2.27882,0.247238,2.48878,0.362946,-0.0696113,0.140298,0.000807855,0.1875,0.0706546,-0.0707352,-0.0235462,-0.696113,1.40298,0.00807855,1.875,0.706546,-0.707352,-0.235462,0.374144,0.377691,0.251695,0.99212,0.124807,-0.00948058,-0.00557647
27532391150,1.29835,0.285512,-0.511231,-2.25152,0.257524,2.47848,0.359518,-0.109955,0.221608,0.00127605,0.296166,0.111603,-0.11173,-0.0371925,0.696113,-1.40298,-0.00807855,-1.875,-0.706546,0.707352,0.235462,0.382566,0.379884,0.251558,0.992798,0.119354,-0.00892474,-0.00510233
27632391150,1.29084,0.300658,-0.511144,-2.23128,0.265152,2.47084,0.356976,-0.0403435,0.0813102,0.000468196,0.108666,0.0409481,-0.0409949,-0.0136463,0.696113,-1.40298,-0.00807855,-1.875,-0.706546,0.707352,0.235462,0.388761,0.381459,0.251393,0.99327,0.115409,-0.00854986,-0.00479887
27690346572,1.28967,0.303014,-0.51113,-2.22813,0.266339,2.46966,0.356581,0,0,0,0,0,0,0,0,0,0,0,0,0,0,0.389721,0.3817,0.251362,0.993341,0.114803,-0.00849443,-0.00475533
27690346572,1.28967,0.303014,-0.51113,-2.22813,0.266339,2.46966,0.356581,0,0,0,0,0,0,0,0,0,0,0,0,0,0,0.389721,0.3817,0.251362,0.993341,0.114803,-0.00849443,-0.00475533
27790346572,1.28628,0.309829,-0.511207,-2.21875,0.26945,2.46588,0.35687,-0.0676661,0.136299,-0.00154145,0.1875,0.0622243,-0.0756134,0.0057885,-0.676661,1.36299,-0.0154145,1.875,0.622243,-0.756134,0.057885,0.392563,0.382406,0.251348,0.993613,0.11244,-0.00833062,-0.00453943
27890346572,1.27626,0.330019,-0.511436,-2.19098,0.278667,2.45467,0.357728,-0.116831,0.23533,-0.00266143,0.323733,0.107435,-0.130552,0.00999427,0.676661,-1.36299,0.0154145,-1.875,-0.622243,0.756134,-0.057885,0.400928,0.384446,0.251244,0.994376,0.105541,-0.00788202,-0.00394438
27990346572,1.26796,0.346737,-0.511625,-2.16798,0.286299,2.4454,0.358438,-0.0491644,0.0990312,-0.00111998,0.136233,0.0452106,-0.0549387,0.00420577,0.676661,-1.36299,0.0154145,-1.875,-0.622243,0.756134,-0.057885,0.40779,0.386074,0.251087,0.994959,0.0999412,-0.00755303,-0.00350169
28063003988,1.26618,0.350335,-0.511666,-2.16303,0.287942,2.4434,0.35859,0,0,0,0,0,0,0,0,0,0,0,0,0,0,0.409259,0.386417,0.251045,0.995078,0.0987498,-0.00748737,-0.0034123
28063003988,1.26629,0.350099,-0.511663,-2.16336,0.287834,2.44353,0.35858,0,0,0,0,0,0,0,0,0,0,0,0,0,0,0.409163,0.386395,0.251048,0.995071,0.0988276,-0.00749161,-0.00341808
28163003988,1.26292,0.356771,-0.511847,-2.15398,0.290707,2.43968,0.359986,-0.0674017,0.133426,-0.00368969,0.1875,0.0574508,-0.0770666,0.0281149,-0.674017,1.33426,-0.0368969,1.875,0.574508,-0.770666,0.281149,0.411972,0.387009,0.251036,0.995342,0.0960762,-0.00732661,-0.00322451
28263003988,1.25312,0.376168,-0.512384,-2.12672,0.299059,2.42848,0.364073,-0.10583,0.209499,-0.00579335,0.294402,0.0902061,-0.121006,0.0441446,0.674017,-1.33426,0.0368969,-1.875,-0.574508,0.770666,-0.281149,0.420084,0.388741,0.250943,0.996078,0.0881713,-0.0068799,-0.00269863
28363003988,1.24591,0.390447,-0.512779,-2.10666,0.305207,2.42023,0.367082,-0.0384288,0.0760725,-0.00210366,0.106902,0.0327553,-0.0439392,0.0160296,0.674017,-1.33426,0.0368969,-1.875,-0.574508,0.770666,-0.281149,0.426,0.389967,0.25082,0.996571,0.0824435,-0.00658334,-0.00234619
28420018613,1.24481,0.392615,-0.512839,-2.10361,0.306141,2.41898,0.367539,0,0,0,0,0,0,0,0,0,0,0,0,0,0,0.426894,0.39015,0.250797,0.996643,0.0815804,-0.00654075,-0.0022952
28420018613,1.24481,0.392615,-0.512839,-2.10361,0.306141,2.41898,0.367539,0,0,0,0,0,0,0,0,0,0,0,0,0,0,0.426894,0.39015,0.250797,0.996643,0.0815804,-0.00654075,-0.0022952
28520018613,1.2414,0.399188,-0.513112,-2.09423,0.308805,2.4152,0.369585,-0.0682343,0.131444,-0.00547682,0.1875,0.0532786,-0.075647,0.0409244,-0.682343,1.31444,-0.0547682,1.875,0.532786,-0.75647,0.409244,0.429699,0.390663,0.250787,0.996881,0.0786336,-0.00631659,-0.00213291
28620018613,1.23168,0.417918,-0.513893,-2.06752,0.316397,2.40442,0.375417,-0.0990939,0.19089,-0.00795376,0.272299,0.0773744,-0.109859,0.0594329,0.682343,-1.31444,0.0547682,-1.875,-0.532786,0.75647,-0.409244,0.437637,0.392071,0.250706,0.997506,0.0703266,-0.00570821,-0.00169979
28720018613,1.22518,0.430435,-0.514414,-2.04966,0.321471,2.39721,0.379314,-0.0308596,0.0594466,-0.00247694,0.0847986,0.0240958,-0.034212,0.0185085,0.682343,-1.31444,0.0547682,-1.875,-0.532786,0.75647,-0.409244,0.442893,0.392971,0.250607,0.99788,0.0648512,-0.00532752,-0.00143426
28765244534,1.22448,0.431779,-0.51447,-2.04774,0.322015,2.39644,0.379733,0,0,0,0,0,0,0,0,0,0,0,0,0,0,0.443455,0.393065,0.250595,0.997918,0.0642667,-0.0052879,-0.00140687
28765244534,1.22448,0.431779,-0.51447,-2.04774,0.322015,2.39644,0.379733,0,0,0,0,0,0,0,0,0,0,0,0,0,0,0.443455,0.393065,0.250595,0.997918,0.0642667,-0.0052879,-0.00140687
28865244534,1.22114,0.438285,-0.514966,-2.03837,0.324121,2.39267,0.38227,-0.0668416,0.130112,-0.00991263,0.1875,0.0421129,-0.0752674,0.050752,-0.668416,1.30112,-0.0991263,1.875,0.421129,-0.752674,0.50752,0.446262,0.393463,0.25059,0.998106,0.0613139,-0.00495117,-0.00112026
28965244534,1.21154,0.456983,-0.516391,-2.01142,0.330173,2.38186,0.389564,-0.100144,0.194937,-0.0148513,0.280917,0.0630945,-0.112767,0.0760378,0.668416,-1.30112,0.0991263,-1.875,-0.421129,0.752674,-0.50752,0.454266,0.394553,0.250527,0.998591,0.0529164,-0.0040078,-0.00031329
29065244534,1.20486,0.469971,-0.51738,-1.99271,0.334377,2.37435,0.39463,-0.0333019,0.0648249,-0.00493869,0.0934166,0.0209816,-0.0374999,0.0252858,0.668416,-1.30112,0.0991263,-1.875,-0.421129,0.752674,-0.50752,0.459772,0.395264,0.250439,0.998882,0.0471616,-0.00337466,0.000232949
29115066740,1.20403,0.471586,-0.517503,-1.99038,0.334899,2.37341,0.39526,0,0,0,0,0,0,0,0,0,0,0,0,0,0,0.460453,0.39535,0.250426,0.998915,0.0464506,-0.00329725,0.000300061
29115066740,1.20403,0.471586,-0.517503,-1.99038,0.334899,2.37341,0.39526,0,0,0,0,0,0,0,0,0,0,0,0,0,0,0.460453,0.39535,0.250426,0.998915,0.0464506,-0.00329725,0.000300061
29215066740,1.20077,0.478015,-0.518186,-1.981,0.33638,2.36962,0.398003,-0.0652316,0.12858,-0.0136538,0.1875,0.0296093,-0.0759194,0.0548581,-0.652316,1.2858,-0.136538,1.875,0.296093,-0.759194,0.548581,0.463233,0.395645,0.250429,0.999041,0.0436755,-0.00285525,0.000754484
29315066740,1.19148,0.496328,-0.52013,-1.9543,0.340597,2.3588,0.405816,-0.0945629,0.186396,-0.0197932,0.271809,0.0429231,-0.110057,0.0795251,0.652316,-1.2858,0.136538,-1.875,-0.296093,0.759194,-0.548581,0.471089,0.396434,0.250393,0.999354,0.0358532,-0.00161468,0.0020454
29415066740,1.18529,0.508539,-0.521427,-1.93649,0.343409,2.35159,0.411026,-0.0293314,0.0578159,-0.00613943,0.0843094,0.0133138,-0.0341372,0.024667,0.652316,-1.2858,0.136538,-1.875,-0.296093,0.759194,-0.548581,0.476272,0.396917,0.250331,0.999524,0.030706,-0.000803454,0.0029034
29460031736,1.18463,0.509839,-0.521565,-1.9346,0.343708,2.35082,0.41158,0,0,0,0,0,0,0,0,0,0,0,0,0,0,0.476821,0.396966,0.250323,0.99954,0.0301613,-0.000717876,0.00299461
29460031736,1.18463,0.509839,-0.521565,-1.9346,0.343708,2.35082,0.41158,0,0,0,0,0,0,0,0,0,0,0,0,0,0,0.476821,0.396966,0.250323,0.99954,0.0301613,-0.000717876,0.00299461
29560031736,1.18255,0.51667,-0.523644,-1.92522,0.343811,2.34783,0.417854,-0.0414876,0.13663,-0.0415824,0.1875,0.00206199,-0.0599544,0.125487,-0.414876,1.3663,-0.415824,1.875,0.0206199,-0.599544,1.25487,0.479666,0.397161,0.250327,0.999649,0.0261816,0.000513174,0.00404139
29660031736,1.17717,0.534402,-0.529041,-1.90089,0.344079,2.34005,0.43414,-0.0456631,0.150381,-0.0457675,0.206371,0.00226952,-0.0659885,0.138116,0.414876,-1.3663,0.415824,-1.875,-0.0206199,0.599544,-1.25487,0.48698,0.397637,0.25032,0.999843,0.015931,0.00374527,0.00676693
29760031736,1.17468,0.542608,-0.531538,-1.88963,0.344203,2.33645,0.441677,-0.00417556,0.0137513,-0.0041851,0.0188711,0.000207531,-0.00603417,0.0126297,0.414876,-1.3663,0.415824,-1.875,-0.0206199,0.599544,-1.25487,0.490331,0.397842,0.250307,0.999891,0.0112261,0.00525876,0.00803227
29770096335,1.17466,0.542678,-0.531559,-1.88953,0.344204,2.33641,0.441741,0,0,0,0,0,0,0,0,0,0,0,0,0,0,0.490359,0.397844,0.250307,0.999891,0.0111865,0.00527156,0.00804295
29770096335,1.17466,0.542678,-0.531559,-1.88953,0.344204,2.33641,0.441741,0,0,0,0,0,0,0,0,0,0,0,0,0,0,0.490359,0.397844,0.250307,0.999891,0.0111865,0.00527156,0.00804295
29870096335,1.17322,0.549637,-0.534329,-1.88016,0.34358,2.33333,0.449755,-0.0286622,0.139184,-0.0553971,0.1875,-0.0124831,-0.061615,0.160282,-0.286622,1.39184,-0.553971,1.875,-0.124831,-0.61615,1.60282,0.493131,0.397998,0.250322,0.99991,0.00669548,0.00676494,0.0094778
29970096335,1.16943,0.56806,-0.541662,-1.85534,0.341927,2.32518,0.470971,-0.0332511,0.161468,-0.0642665,0.21752,-0.0144818,-0.0714799,0.185944,0.286622,-1.39184,0.553971,-1.875,0.124831,0.61615,-1.60282,0.500388,0.39839,0.250354,0.99984,-0.00510581,0.0107935,0.0132828
30070096335,1.16754,0.577248,-0.545319,-1.84296,0.341103,2.32111,0.481551,-0.00458895,0.0222841,-0.00886934,0.0300196,-0.00199861,-0.00986486,0.0256619,0.286622,-1.39184,0.553971,-1.875,0.124831,0.61615,-1.60282,0.503961,0.398578,0.250365,0.999742,-0.0109425,0.0128428,0.0151831
30086106806,1.1675,0.577426,-0.54539,-1.84272,0.341087,2.32103,0.481756,0,0,0,0,0,0,0,0,0,0,0,0,0,0,0.50403,0.398582,0.250366,0.99974,-0.0110555,0.0128829,0.01522
30086106806,1.1675,0.577426,-0.54539,-1.84272,0.341087,2.32103,0.481756,0,0,0,0,0,0,0,0,0,0,0,0,0,0,0.50403,0.398582,0.250366,0.99974,-0.0110555,0.0128829,0.01522
30186106806,1.1681,0.582555,-0.549042,-1.83652,0.339064,2.31902,0.491131,0.0120258,0.102579,-0.073043,0.123959,-0.0404576,-0.0401949,0.1875,0.120258,1.02579,-0.73043,1.23959,-0.404576,-0.401949,1.875,0.50587,0.39859,0.250385,0.999628,-0.015444,0.0145891,0.0171034
30286106806,1.16973,0.59647,-0.55895,-1.81971,0.333576,2.31357,0.516566,0.0149417,0.127451,-0.0907538,0.154015,-0.0502674,-0.049941,0.232963,-0.120258,-1.02579,0.73043,-1.23959,0.404576,0.401949,-1.875,0.510812,0.398629,0.250469,0.999194,-0.0272947,0.0193472,0.0221922
30386106806,1.17063,0.604086,-0.564374,-1.81051,0.330572,2.31059,0.530488,0.00291591,0.0248724,-0.0177108,0.0300564,-0.00980981,-0.00974612,0.0454634,-0.120258,-1.02579,0.73043,-1.23959,0.404576,0.401949,-1.875,0.513484,0.398661,0.250534,0.998876,-0.0337454,0.0220313,0.0249628
30410353941,1.17066,0.604388,-0.564588,-1.81014,0.330453,2.31047,0.531039,0,0,0,0,0,0,0,0,0,0,0,0,0,0,0.51359,0.398662,0.250537,0.998862,-0.0340003,0.0221387,0.0250723
30410353941,1.17066,0.604388,-0.564588,-1.81014,0.330453,2.31047,0.531039,0,0,0,0,0,0,0,0,0,0,0,0,0,0,0.51359,0.398662,0.250537,0.998862,-0.0340003,0.0221387,0.0250723
