vajneluc/RoboDemos/Webots-Demos/panda_python/joints_moveit_smooth.csv
time_ns,q0,q1,q2,q3,q4,q5,q6,v0,v1,v2,v3,v4,v5,v6,a0,a1,a2,a3,a4,a5,a6,ee_pos_x,ee_pos_y,ee_pos_z,ee_rot_x,ee_rot_y,ee_rot_z,ee_rot_w
0,1.34495,0.844063,-1.97217,-2.84641,1.38065,2.02768,2.25399,0,0,0,0,0,0,0,0,0,0,0,0,0,0,0.30702,-5.22133e-12,0.59027,0.923956,-0.382499,1.32493e-12,3.20041e-12
285311670,0,-0.785,0,-2.356,0,1.571,0.785,0.0165865,-0.00571866,-0.0177261,-0.0277434,-0.0153008,0.0237227,-0.0657176,0.242896,-0.0837454,-0.259586,-0.406281,-0.224069,0.3474,-0.962384,0.307047,-0.000257267,0.589609,0.924905,-0.380198,9.33535e-05,6.82794e-05
570623341,0.00118308,-0.785408,-0.00126437,-2.35798,-0.00109138,1.57269,0.780312,0.0331729,-0.0114373,-0.0354522,-0.0554868,-0.0306017,0.0474453,-0.131435,0.242197,-0.0835044,-0.258838,-0.405112,-0.223424,0.3464,-0.959614,0.307108,-0.000851483,0.588065,0.927101,-0.374812,0.000308037,0.000228434
855935011,0.00394359,-0.78636,-0.00421456,-2.3626,-0.00363793,1.57664,0.769375,0.0497594,-0.017156,-0.0531784,-0.0832302,-0.0459025,0.071168,-0.197153,0.241502,-0.0832647,-0.258095,-0.403949,-0.222783,0.345406,-0.95686,0.307199,-0.00176798,0.585631,0.930496,-0.366302,0.000636532,0.000482247
1141246682,0.00828155,-0.787855,-0.00885057,-2.36985,-0.00763964,1.58284,0.752188,0.0663459,-0.0228746,-0.0709045,-0.110974,-0.0612034,0.0948906,-0.26287,0.240811,-0.0830264,-0.257357,-0.402793,-0.222145,0.344417,-0.954121,0.30737,-0.0036936,0.580284,0.937666,-0.347535,0.00131586,0.00104318
1426558353,0.0177462,-0.791119,-0.0189655,-2.38568,-0.0163707,1.59638,0.714687,0.0829323,-0.0285933,-0.0886306,-0.138717,-0.0765042,0.118613,-0.328588,0.240123,-0.0827894,-0.256622,-0.401643,-0.221511,0.343434,-0.951398,0.307558,-0.00638854,0.572176,0.947789,-0.318885,0.00224002,0.00189473
1711870023,0.0319431,-0.796013,-0.0341379,-2.40943,-0.0294672,1.61669,0.658438,0.0995188,-0.034312,-0.106357,-0.16646,-0.0918051,0.142336,-0.394306,0.23944,-0.0825538,-0.255892,-0.4005,-0.220881,0.342457,-0.94869,0.307674,-0.009612,0.561207,0.960054,-0.27978,0.00330059,0.00302579
1997181694,0.0508724,-0.80254,-0.0543678,-2.44109,-0.0469292,1.64376,0.583438,0.103265,-0.0356034,-0.11036,-0.172726,-0.0952605,0.147693,-0.409147,0.0539193,-0.0185902,-0.0576241,-0.0901883,-0.04974,0.0771177,-0.213635,0.307591,-0.0130069,0.547368,0.973197,-0.229889,0.00435968,0.00437401
2282493362,0.0743567,-0.810637,-0.0794657,-2.48037,-0.0685933,1.67735,0.49039,0.0866781,-0.0298848,-0.0926337,-0.144982,-0.0799596,0.123971,-0.343429,-0.238085,0.0820866,0.254444,0.398233,0.219631,-0.340519,0.943321,0.307179,-0.0159731,0.531705,0.984938,-0.172734,0.00523775,0.00572905
2567805032,0.100474,-0.819641,-0.107378,-2.52406,-0.0926865,1.7147,0.386909,0.0700916,-0.0241661,-0.0749076,-0.117239,-0.0646588,0.100248,-0.277711,-0.237413,0.0818549,0.253726,0.39711,0.219011,-0.339558,0.940659,0.306391,-0.0180799,0.515631,0.993512,-0.113369,0.00585635,0.00686247
2853116703,0.126859,-0.828738,-0.135576,-2.56819,-0.117026,1.75244,0.282369,0.0535051,-0.0184474,-0.0571814,-0.0894955,-0.0493579,0.0765253,-0.211994,-0.236745,0.0816246,0.253012,0.395992,0.218395,-0.338603,0.938012,0.305304,-0.0192115,0.50065,0.9983,-0.057449,0.00624443,0.00762998
3138428373,0.151145,-0.837112,-0.16153,-2.60881,-0.13943,1.78717,0.186145,0.0369187,-0.0127288,-0.0394553,-0.0617521,-0.0340571,0.0528026,-0.146276,-0.236081,0.0813956,0.252302,0.394881,0.217782,-0.337652,0.93538,0.304127,-0.0195533,0.488207,0.999891,-0.0106078,0.00647749,0.00802421
3423740047,0.171143,-0.844006,-0.182902,-2.64226,-0.157878,1.81578,0.106911,0.0203322,-0.00701011,-0.0217292,-0.0340087,-0.0187562,0.02908,-0.0805586,-0.23542,0.0811678,0.251596,0.393776,0.217173,-0.336708,0.932763,0.303045,-0.0194525,0.478658,0.999618,0.0255616,0.00662791,0.00816296
3709051717,0.186409,-0.84927,-0.199217,-2.6678,-0.17196,1.83761,0.0464268,0.00374572,-0.00129145,-0.00400309,-0.0062653,-0.00345539,0.00535729,-0.014841,-0.234763,0.0809413,0.250894,0.392677,0.216567,-0.335768,0.93016,0.302201,-0.0191997,0.47205,0.998658,0.0506975,0.00672828,0.00817082
3773483683,0.196942,-0.852901,-0.210474,-2.68542,-0.181677,1.85267,0.00469249,0,0,0,0,0,0,0,-0.0529832,0.0182675,0.0566237,0.0886225,0.0488765,-0.0757788,0.209926,0.301669,-0.0189826,0.468183,0.9978,0.0654462,0.00678853,0.00814079
3773483683,0.203097,-0.855024,-0.217052,-2.69571,-0.187355,1.86148,-0.0196965,0,0,0,0,0,0,0,0,0,0,0,0,0,0,0.301406,-0.0188612,0.46634,0.997313,0.0724822,0.00681811,0.00811731
4058795354,0.206028,-0.856034,-0.220184,-2.70061,-0.190059,1.86567,-0.0313082,0.000378017,-0.0114317,-0.0282773,-0.0266038,-0.0317513,0.0250927,-0.0657176,0.00533217,-0.161251,-0.39887,-0.375265,-0.447873,0.35395,-0.92699,0.301253,-0.0191331,0.46547,0.997072,0.0757072,0.00696693,0.008232
4344107025,0.20693,-0.856748,-0.222143,-2.70305,-0.192011,1.86784,-0.0371738,0.000756033,-0.0228633,-0.0565546,-0.0532077,-0.0635027,0.0501855,-0.131435,0.00531738,-0.160804,-0.397764,-0.374224,-0.446631,0.352968,-0.924419,0.300956,-0.0203667,0.464204,0.996717,0.0801455,0.0075225,0.00872257
4629418695,0.207015,-0.858389,-0.226209,-2.70689,-0.196568,1.87146,-0.0466684,0.000931725,-0.0281765,-0.0696972,-0.0655725,-0.0782598,0.0618479,-0.161979,0.00246454,-0.0745307,-0.184359,-0.173448,-0.207008,0.163596,-0.428457,0.300284,-0.0230486,0.461431,0.995868,0.0898609,0.0087323,0.00980316
4914730366,0.207134,-0.862,-0.235141,-2.7153,-0.206598,1.87938,-0.0674264,0.000553709,-0.0167448,-0.0414199,-0.0389686,-0.0465085,0.0367552,-0.0962614,-0.00528805,0.159917,0.39557,0.37216,0.444168,-0.351021,0.91932,0.299269,-0.0267919,0.457402,0.994458,0.104003,0.0104341,0.0113461
5200042036,0.207306,-0.867213,-0.248035,-2.72743,-0.221077,1.89083,-0.0973943,0.000175692,-0.00531313,-0.0131425,-0.0123648,-0.0147572,0.0116624,-0.0305438,-0.00527351,0.159477,0.394482,0.371136,0.442946,-0.350056,0.916792,0.298122,-0.0306362,0.453048,0.992696,0.119322,0.0122065,0.0129756
5332647303,0.207491,-0.872805,-0.261868,-2.74044,-0.236608,1.9031,-0.129541,0,0,0,0,0,0,0,-0.00244786,0.0740261,0.183111,0.172274,0.205607,-0.162489,0.425557,0.297167,-0.0335718,0.449555,0.991102,0.131637,0.0135843,0.0142533
5332647303,0.207639,-0.877262,-0.272892,-2.75082,-0.248987,1.91288,-0.155162,0,0,0,0,0,0,0,0,0,0,0,0,0,0,0.296621,-0.0351534,0.447606,0.990143,0.13852,0.0143381,0.0149546
5617958974,0.20772,-0.879739,-0.279019,-2.75658,-0.255866,1.91832,-0.169401,-0.00180967,-0.00991694,-0.0308692,-0.025043,-0.0332566,0.0274712,-0.0657176,-0.0251445,-0.137791,-0.428912,-0.347961,-0.462083,0.381699,-0.913114,0.296354,-0.0360136,0.446606,0.989634,0.14203,0.0147632,0.0153125
5903270644,0.207685,-0.880967,-0.282283,-2.75951,-0.259482,1.92122,-0.176773,-0.00361935,-0.0198339,-0.0617383,-0.0500861,-0.0665131,0.0549424,-0.131435,-0.0250758,-0.137415,-0.42774,-0.34701,-0.460821,0.380656,-0.910619,0.296045,-0.0372983,0.445296,0.988953,0.146575,0.0154306,0.0157832
6188582315,0.20743,-0.88247,-0.286905,-2.76329,-0.264471,1.92533,-0.186655,-0.00397201,-0.0217665,-0.067754,-0.0549664,-0.072994,0.0602959,-0.144242,-0.00487338,-0.0267059,-0.0831295,-0.0674399,-0.0895586,0.0739789,-0.176975,0.295398,-0.0399104,0.442595,0.987482,0.15594,0.0168087,0.0167465
6473893986,0.20687,-0.885539,-0.296456,-2.77103,-0.274761,1.93383,-0.206989,-0.00216234,-0.0118495,-0.0368849,-0.0299233,-0.0397375,0.0328247,-0.0785244,0.0249396,0.136668,0.425416,0.345125,0.458317,-0.378588,0.905671,0.294452,-0.0434163,0.438819,0.985263,0.169056,0.0187012,0.0180761
6759205656,0.206091,-0.889806,-0.30974,-2.78181,-0.289072,1.94565,-0.235268,-0.000352663,-0.00193258,-0.00601568,-0.0048803,-0.00648092,0.0053535,-0.0128068,0.024872,0.136298,0.424263,0.34419,0.457075,-0.377562,0.903217,0.293422,-0.0468789,0.434899,0.982759,0.182705,0.0206303,0.0194345
6814806210,0.205287,-0.894211,-0.323452,-2.79294,-0.303845,1.95786,-0.26446,0,0,0,0,0,0,0,0.00484441,0.0265472,0.0826354,0.0670391,0.0890263,-0.0735392,0.175923,0.292603,-0.0494102,0.431898,0.980701,0.193179,0.0220872,0.0204591
6814806210,0.204674,-0.897569,-0.333903,-2.80141,-0.315104,1.96716,-0.28671,0,0,0,0,0,0,0,0,0,0,0,0,0,0,0.292176,-0.0506589,0.430372,0.979607,0.198517,0.022823,0.0209754
7100117881,0.204363,-0.899273,-0.339207,-2.80572,-0.320818,1.97188,-0.298001,-0.00366377,-0.0078485,-0.0334983,-0.0229758,-0.0340053,0.0291664,-0.0657176,-0.0501921,-0.107521,-0.458912,-0.314759,-0.465858,0.399567,-0.900303,0.291978,-0.051331,0.429613,0.979056,0.201147,0.023218,0.0212226
7385429551,0.204141,-0.900057,-0.341974,-2.80781,-0.323724,1.97432,-0.303691,-0.00732754,-0.015697,-0.0669966,-0.0459516,-0.0680107,0.0583328,-0.131435,-0.0500569,-0.107231,-0.457676,-0.313911,-0.464604,0.398491,-0.897878,0.291691,-0.0525574,0.428376,0.978152,0.205376,0.0239323,0.0216053
7670741222,0.203616,-0.90119,-0.346794,-2.81112,-0.32862,1.97852,-0.313155,-0.00716821,-0.0153557,-0.0655398,-0.0449524,-0.0665318,0.0570644,-0.128577,0.00217112,0.00465096,0.0198508,0.0136153,0.0201513,-0.0172838,0.0389437,0.29107,-0.0550745,0.42578,0.976189,0.214259,0.0254261,0.0224054
7956052893,0.202511,-0.903557,-0.356896,-2.81805,-0.338875,1.98731,-0.332973,-0.00350443,-0.00750717,-0.0320415,-0.0219766,-0.0325264,0.027898,-0.0628596,0.0497887,0.106657,0.455224,0.312229,0.462114,-0.396356,0.893067,0.290191,-0.0583405,0.422277,0.973395,0.22627,0.0274287,0.0234795
8228956390,0.201025,-0.906739,-0.370478,-2.82737,-0.352662,1.99914,-0.359618,0,0,0,0,0,0,0,0.0475017,0.101758,0.434313,0.297887,0.440887,-0.378149,0.852044,0.289271,-0.0614468,0.418787,0.970445,0.238263,0.0294134,0.024543
8228956390,0.199551,-0.909898,-0.383958,-2.83661,-0.366347,2.01087,-0.386064,0,0,0,0,0,0,0,0,0,0,0,0,0,0,0.288567,-0.0636408,0.416217,0.968164,0.24711,0.0308708,0.025322
8514268061,0.198469,-0.912216,-0.393854,-2.8434,-0.376393,2.01949,-0.405478,-0.00499207,-0.00533559,-0.0360035,-0.0204802,-0.0340375,0.0301082,-0.0657176,-0.0674858,-0.0721297,-0.486717,-0.276863,-0.46014,0.407021,-0.88841,0.288165,-0.0649328,0.414728,0.966806,0.252221,0.0317336,0.0257556
8799579731,0.19779,-0.913478,-0.399711,-2.84727,-0.382249,2.02455,-0.416793,-0.00998414,-0.0106712,-0.072007,-0.0409603,-0.068075,0.0602165,-0.131435,-0.0673064,-0.071938,-0.485423,-0.276127,-0.458917,0.405939,-0.886049,0.287806,-0.0663639,0.413244,0.96544,0.257248,0.0326501,0.026139
9084891402,0.196959,-0.914495,-0.40594,-2.85094,-0.388214,2.02979,-0.428313,-0.00870133,-0.0093001,-0.0627552,-0.0356975,-0.0593285,0.0524796,-0.114548,0.0172498,0.0184368,0.124408,0.070768,0.117615,-0.104037,0.227083,0.287213,-0.0687713,0.410776,0.963113,0.265572,0.0342029,0.0267534
9370203073,0.195497,-0.916058,-0.416482,-2.85694,-0.39818,2.03861,-0.447555,-0.00370926,-0.00396451,-0.0267517,-0.0152174,-0.0252909,0.0223714,-0.0488302,0.0669505,0.0715576,0.482857,0.274667,0.45649,-0.403793,0.881364,0.286399,-0.0718036,0.407552,0.959946,0.27646,0.0362336,0.0275615
9582198514,0.193593,-0.918093,-0.430216,-2.86475,-0.411164,2.05009,-0.472624,0,0,0,0,0,0,0,0.0496488,0.0530653,0.358074,0.203686,0.338521,-0.299442,0.653597,0.285576,-0.0745976,0.404456,0.956769,0.286934,0.0381901,0.028344
9582198514,0.191768,-0.920043,-0.443375,-2.87223,-0.423605,2.0611,-0.496643,0,0,0,0,0,0,0,0,0,0,0,0,0,0,0.284971,-0.0765075,0.402263,0.954436,0.294364,0.0395816,0.0289024
9867510185,0.190478,-0.921422,-0.452682,-2.87753,-0.432403,2.06888,-0.513631,-0.00567947,-0.00257926,-0.0382614,-0.0177043,-0.0334463,0.0303295,-0.0657176,-0.0758201,-0.0344328,-0.510784,-0.23635,-0.446504,0.404895,-0.87732,0.284644,-0.0775887,0.401051,0.953123,0.298455,0.040362,0.0291899
10152821855,0.189734,-0.922092,-0.457948,-2.88038,-0.437284,2.07322,-0.523095,-0.0113589,-0.00515852,-0.0765228,-0.0354087,-0.0668927,0.0606591,-0.131435,-0.0756211,-0.0343424,-0.509443,-0.23573,-0.445332,0.403832,-0.875018,0.284322,-0.0789063,0.399714,0.951671,0.30291,0.0412499,0.0294436
10438133526,0.188826,-0.922565,-0.464115,-2.88331,-0.442726,2.07814,-0.533764,-0.00878984,-0.0039918,-0.0592153,-0.0274002,-0.0517633,0.0469395,-0.101708,0.0341175,0.0154941,0.229843,0.106353,0.200918,-0.182195,0.394777,0.283758,-0.0811981,0.397387,0.949092,0.310644,0.0428094,0.0298707
10723445197,0.187216,-0.923296,-0.474957,-2.88832,-0.452203,2.08674,-0.552386,-0.00311037,-0.00141254,-0.0209539,-0.00969581,-0.0183169,0.01661,-0.0359903,0.0752262,0.034163,0.506783,0.234499,0.443006,-0.401723,0.870448,0.283006,-0.0840073,0.39444,0.94572,0.320438,0.0447958,0.0304268
10879696481,0.185183,-0.92422,-0.488658,-2.89466,-0.46418,2.0976,-0.575919,0,0,0,0,0,0,0,0.0411389,0.0186827,0.277144,0.12824,0.242266,-0.21969,0.476021,0.282269,-0.0865329,0.391694,0.94247,0.329567,0.0466612,0.0309608
10879696481,0.183291,-0.925079,-0.501403,-2.90056,-0.475322,2.1077,-0.597811,0,0,0,0,0,0,0,0,0,0,0,0,0,0,0.281749,-0.0881989,0.389829,0.940201,0.335772,0.0479378,0.0313328
11165008152,0.182006,-0.925662,-0.510055,-2.90456,-0.482885,2.11456,-0.612672,-0.00570138,0.000195905,-0.0402039,-0.0148133,-0.0323573,0.0299313,-0.0657176,-0.0752125,0.00258437,-0.530368,-0.195416,-0.426856,0.394852,-0.866945,0.281483,-0.0891093,0.38884,0.938983,0.339049,0.0486191,0.0315059
11450319822,0.181318,-0.925876,-0.514758,-2.9066,-0.486896,2.11822,-0.620629,-0.0114028,0.00039181,-0.0804077,-0.0296266,-0.0647145,0.0598625,-0.131435,-0.0750174,0.00257767,-0.528992,-0.19491,-0.425749,0.393828,-0.864696,0.281188,-0.0903418,0.387614,0.937472,0.34307,0.0494698,0.0316492
11735631493,0.180444,-0.925875,-0.520902,-2.90891,-0.49187,2.12281,-0.630707,-0.00777884,0.000267288,-0.0548532,-0.0202109,-0.0441475,0.0408375,-0.0896636,0.0475594,-0.00163419,0.33537,0.123568,0.269915,-0.249678,0.548198,0.280652,-0.092517,0.385432,0.934737,0.350212,0.0509927,0.0319018
12020943164,0.178886,-0.925822,-0.531889,-2.91296,-0.500712,2.13099,-0.648666,-0.00207745,7.13833e-05,-0.0146494,-0.00539762,-0.0117902,0.0109063,-0.023946,0.0746302,-0.00256437,0.526262,0.193904,0.423551,-0.391795,0.860233,0.279959,-0.095114,0.382753,0.931293,0.358968,0.0528778,0.0322347
12124904180,0.176976,-0.925756,-0.545354,-2.91792,-0.511549,2.14102,-0.670676,0,0,0,0,0,0,0,0.027168,-0.000933518,0.191578,0.0705876,0.154187,-0.142627,0.313155,0.279299,-0.0974048,0.380319,0.928079,0.366916,0.0546074,0.0325595
12124904180,0.175243,-0.925697,-0.557576,-2.92242,-0.521386,2.15012,-0.690654,0,0,0,0,0,0,0,0,0,0,0,0,0,0,0.278854,-0.0988552,0.37874,0.925952,0.372064,0.0557377,0.0327817
12410215850,0.17412,-0.925658,-0.565493,-2.92534,-0.527758,2.15601,-0.703597,-0.00511519,0.0027942,-0.0418134,-0.0119516,-0.0309074,0.0290434,-0.0657176,-0.0667221,0.0364474,-0.545411,-0.155896,-0.403154,0.378839,-0.857215,0.278637,-0.0996237,0.377932,0.924854,0.374691,0.0563156,0.0328689
12695527521,0.17356,-0.925545,-0.569651,-2.92675,-0.531006,2.15903,-0.710299,-0.0102304,0.00558841,-0.0836269,-0.0239033,-0.0618149,0.0580868,-0.131435,-0.066551,0.0363539,-0.544012,-0.155496,-0.40212,0.377868,-0.855016,0.27836,-0.100794,0.376789,0.923297,0.378386,0.0571271,0.0329197
12980839192,0.172803,-0.925146,-0.575804,-2.92852,-0.535567,2.16331,-0.719981,-0.00608251,0.00332261,-0.0497206,-0.0142118,-0.0367522,0.0345357,-0.0781452,0.0538277,-0.0294037,0.440007,0.125768,0.325242,-0.305627,0.691554,0.277852,-0.102854,0.374752,0.920483,0.384954,0.0585805,0.0330191
13266150862,0.171461,-0.924412,-0.586777,-2.93166,-0.543678,2.17094,-0.737227,-0.000967315,0.000528401,-0.00790718,-0.00226013,-0.00584479,0.00549229,-0.0124276,0.0662114,-0.0361683,0.541236,0.154703,0.400068,-0.375939,0.850653,0.277217,-0.105247,0.372328,0.917068,0.392742,0.0603241,0.0331649
13320105082,0.169867,-0.923542,-0.599808,-2.93538,-0.55331,2.17999,-0.757708,0,0,0,0,0,0,0,0.0125149,-0.00683636,0.102302,0.0292411,0.0756188,-0.0710582,0.160786,0.276624,-0.107328,0.370168,0.913964,0.399661,0.0618915,0.0333203
13320105082,0.168449,-0.922767,-0.611402,-2.93869,-0.561879,2.18804,-0.775929,0,0,0,0,0,0,0,0,0,0,0,0,0,0,0.276247,-0.108584,0.36884,0.912027,0.403904,0.0628619,0.0334279
13605416753,0.167578,-0.922291,-0.618521,-2.94073,-0.567142,2.19299,-0.787119,-0.00403312,0.00508122,-0.04311,-0.00922341,-0.0292275,0.027797,-0.0657176,-0.0520471,0.0655727,-0.556331,-0.119027,-0.377178,0.358718,-0.848079,0.276069,-0.109234,0.368178,0.911053,0.406018,0.0633421,0.0334537
13890728424,0.167176,-0.921969,-0.622167,-2.94166,-0.569743,2.19544,-0.792777,-0.00806625,0.0101624,-0.08622,-0.0184468,-0.058455,0.0555941,-0.131435,-0.051915,0.0654063,-0.554919,-0.118725,-0.376221,0.357808,-0.845927,0.275803,-0.110364,0.367092,0.909449,0.40948,0.0641185,0.0334277
14176040094,0.166594,-0.921241,-0.62837,-2.94299,-0.573952,2.19944,-0.802235,-0.00410395,0.00517046,-0.0438671,-0.0093854,-0.0297408,0.0282852,-0.0668718,0.0508741,-0.0640949,0.543793,0.116345,0.368678,-0.350634,0.828967,0.275323,-0.11231,0.365195,0.906617,0.415503,0.0654802,0.033399
14461351765,0.165582,-0.919966,-0.639187,-2.94531,-0.581285,2.20642,-0.818724,-7.0832e-05,8.92393e-05,-0.000757122,-0.000161987,-0.00051331,0.000488187,-0.00115417,0.0516528,-0.065076,0.552117,0.118126,0.374321,-0.356001,0.841655,0.274745,-0.114504,0.363014,0.903312,0.422393,0.0670563,0.0333955
14466362568,0.164421,-0.918503,-0.651594,-2.94796,-0.589697,2.21442,-0.837638,0,0,0,0,0,0,0,0.000907116,-0.00114285,0.00969615,0.0020745,0.00657375,-0.00625201,0.014781,0.274214,-0.116393,0.361099,0.900367,0.428412,0.0684496,0.0334186
14466362568,0.163404,-0.917222,-0.662465,-2.95029,-0.597067,2.22143,-0.854209,0,0,0,0,0,0,0,0,0,0,0,0,0,0,0.273898,-0.117466,0.359995,0.898651,0.43187,0.0692569,0.0334431
14751674239,0.162819,-0.916484,-0.668723,-2.95163,-0.60131,2.22546,-0.863749,-0.0025925,0.00698457,-0.044131,-0.0066964,-0.0274341,0.026312,-0.0657176,-0.0331175,0.0892232,-0.563744,-0.085542,-0.350452,0.336118,-0.839499,0.273752,-0.118015,0.359451,0.897799,0.433576,0.0696491,0.0334267
15036985909,0.162577,-0.916048,-0.671889,-2.95221,-0.603368,2.22743,-0.86852,-0.00479483,0.012918,-0.0816203,-0.012385,-0.0507394,0.048664,-0.121545,-0.0280626,0.0756047,-0.477698,-0.0724854,-0.296961,0.284815,-0.711363,0.273493,-0.119119,0.358404,0.896146,0.43687,0.0703939,0.0333366
15322297580,0.162209,-0.915054,-0.678167,-2.95316,-0.60727,2.23117,-0.877869,-0.00220233,0.00593339,-0.0374893,-0.00568859,-0.0233053,0.022352,-0.0558271,0.0329515,-0.0887761,0.560919,0.0851133,0.348696,-0.334434,0.835292,0.273041,-0.120951,0.356643,0.893346,0.442377,0.0716494,0.0332053
15564669898,0.16159,-0.913388,-0.688692,-2.95475,-0.613814,2.23745,-0.893543,0,0,0,0,0,0,0,0.0279329,-0.0752551,0.475489,0.0721502,0.295588,-0.283498,0.708073,0.272516,-0.122955,0.354686,0.8902,0.448457,0.0730503,0.0330887
15564669898,0.160905,-0.911543,-0.700354,-2.95652,-0.621063,2.2444,-0.910909,0,0,0,0,0,0,0,0,0,0,0,0,0,0,0.272042,-0.124663,0.35299,0.887446,0.453689,0.0742684,0.0330126
15849981569,0.160313,-0.909948,-0.710426,-2.95805,-0.627324,2.2504,-0.925908,-0.000931031,0.00848757,-0.044921,-0.00440574,-0.0256242,0.0246907,-0.0657176,-0.0117791,0.107382,-0.568326,-0.05574,-0.32419,0.31238,-0.831438,0.271719,-0.12584,0.351829,0.885539,0.457269,0.0751002,0.0329432
16135293240,0.159965,-0.908796,-0.717396,-2.95902,-0.631575,2.25449,-0.936246,-0.00157026,0.014315,-0.075763,-0.00743063,-0.0432174,0.041643,-0.110838,-0.00806721,0.0735431,-0.389232,-0.0381748,-0.222029,0.213941,-0.56943,0.271409,-0.12711,0.350624,0.883535,0.461001,0.0759482,0.0327945
16420604910,0.159768,-0.907423,-0.724846,-2.95982,-0.635882,2.25863,-0.947174,-0.000639229,0.00582741,-0.030842,-0.0030249,-0.0175931,0.0169522,-0.0451205,0.0117206,-0.106849,0.565506,0.0554633,0.322581,-0.310829,0.827312,0.270986,-0.128827,0.348995,0.880806,0.466022,0.0770895,0.0325845
16616494739,0.159559,-0.905511,-0.734962,-2.96081,-0.641652,2.26419,-0.961973,0,0,0,0,0,0,0,0.0080335,-0.0732358,0.387605,0.0380153,0.221101,-0.213047,0.567051,0.270509,-0.130657,0.347235,0.877836,0.471402,0.0783238,0.0323858
16616494739,0.159333,-0.903454,-0.745849,-2.96187,-0.647862,2.27018,-0.9779,0,0,0,0,0,0,0,0,0,0,0,0,0,0,0.270086,-0.132203,0.345729,0.875277,0.475973,0.079381,0.0322384
16901806410,0.159141,-0.9017,-0.755134,-2.96278,-0.653158,2.27528,-0.991483,0.000841137,0.00962096,-0.0455282,-0.00234942,-0.0238621,0.0230065,-0.0657176,0.0105448,0.120612,-0.57076,-0.0294532,-0.299145,0.288419,-0.823863,0.26981,-0.13323,0.344736,0.873573,0.478985,0.0800739,0.0321236
17187118080,0.159076,-0.900496,-0.761315,-2.96332,-0.656609,2.27861,-1.00049,0.00127928,0.0146325,-0.0692437,-0.00357322,-0.0362918,0.0349905,-0.0999497,0.00547923,0.0626717,-0.296574,-0.0153043,-0.15544,0.149866,-0.428089,0.269524,-0.134411,0.343632,0.871651,0.48236,0.0808318,0.0319266
17472429751,0.159177,-0.89902,-0.768378,-2.96372,-0.660346,2.28221,-1.0107,0.000438145,0.00501152,-0.0237155,-0.0012238,-0.0124297,0.011984,-0.0342321,-0.010493,-0.120019,0.567953,0.0293084,0.297674,-0.287001,0.819811,0.26913,-0.136014,0.34213,0.869021,0.486929,0.0818584,0.0316598
17621047556,0.159355,-0.896986,-0.778002,-2.96421,-0.66539,2.28707,-1.0246,0,0,0,0,0,0,0,-0.00545876,-0.0624375,0.295466,0.0152471,0.154859,-0.149306,0.42649,0.2687,-0.137679,0.340551,0.866246,0.491685,0.0829344,0.0314047
17621047556,0.159541,-0.894859,-0.788066,-2.96473,-0.670665,2.29216,-1.03912,0,0,0,0,0,0,0,0,0,0,0,0,0,0,0.268326,-0.139065,0.339222,0.863899,0.495657,0.0838385,0.0312096
17906359227,0.159697,-0.893076,-0.796507,-2.96517,-0.675089,2.29642,-1.05131,0.00337398,0.0107283,-0.046021,0.00022266,-0.021358,0.020583,-0.0657176,0.0419327,0.133335,-0.571962,0.00276727,-0.265443,0.255811,-0.816756,0.268098,-0.139952,0.338385,0.862402,0.498171,0.0844032,0.0310573
18191670897,0.159887,-0.891899,-0.801904,-2.96535,-0.677819,2.29905,-1.05907,0.00674795,0.0214567,-0.0920421,0.000445319,-0.042716,0.0411659,-0.131435,0.0418302,0.133009,-0.570564,0.00276051,-0.264794,0.255185,-0.81476,0.267844,-0.141112,0.337338,0.860481,0.501381,0.085098,0.0307711
18476982568,0.160376,-0.890276,-0.80891,-2.96534,-0.681097,2.30221,-1.06908,0.00555407,0.0176604,-0.0757575,0.000366531,-0.0351585,0.0338827,-0.108181,-0.0147655,-0.0469504,0.201402,-0.000974426,0.0934691,-0.0900773,0.2876,0.267348,-0.1433,0.335349,0.856822,0.50742,0.0864064,0.0302434
18762294238,0.161349,-0.887183,-0.822177,-2.96528,-0.687254,2.30815,-1.08803,0.00218009,0.00693211,-0.0297365,0.000143871,-0.0138005,0.0132997,-0.0424634,-0.0416267,-0.132362,0.567788,-0.00274708,0.263506,-0.253944,0.810796,0.266666,-0.146088,0.332774,0.852071,0.515109,0.0880844,0.0296288
18946648286,0.162597,-0.883213,-0.839207,-2.9652,-0.695158,2.31576,-1.11235,0,0,0,0,0,0,0,-0.0268549,-0.0853912,0.366301,-0.00177224,0.169997,-0.163828,0.523074,0.265974,-0.148697,0.33032,0.847532,0.522304,0.0896652,0.0291132
18946648286,0.163776,-0.879466,-0.855281,-2.96512,-0.702617,2.32295,-1.1353,0,0,0,0,0,0,0,0,0,0,0,0,0,0,0.265467,-0.150493,0.328605,0.844353,0.527259,0.0907594,0.028792
19231959957,0.164593,-0.876867,-0.866431,-2.96507,-0.707792,2.32794,-1.15122,0.00663366,0.0114096,-0.0465459,0.00305499,-0.0185909,0.0174863,-0.0657176,0.0815169,0.140206,-0.571973,0.0375408,-0.228452,0.214878,-0.807563,0.2652,-0.151477,0.32768,0.84261,0.52995,0.0913439,0.0285877
19517271627,0.165156,-0.875423,-0.872538,-2.96493,-0.710519,2.33055,-1.15992,0.0132673,0.0228193,-0.0930917,0.00610997,-0.0371819,0.0349725,-0.131435,0.0813199,0.139867,-0.570591,0.0374501,-0.2279,0.214359,-0.805611,0.264933,-0.152663,0.326615,0.840539,0.533134,0.0920052,0.0282392
19802583298,0.166152,-0.873636,-0.879864,-2.9645,-0.713489,2.33335,-1.17027,0.00806557,0.0138725,-0.0565931,0.00371442,-0.0226039,0.0212608,-0.0799032,-0.0636128,-0.109411,0.446347,-0.0292955,0.178276,-0.167683,0.630192,0.264477,-0.154651,0.324829,0.837048,0.538441,0.0931008,0.027654
20087894968,0.167905,-0.870621,-0.892162,-2.96369,-0.718401,2.33797,-1.18763,0.00143191,0.00246284,-0.0100472,0.000659437,-0.00401296,0.00377452,-0.0141855,-0.0809287,-0.139194,0.567847,-0.03727,0.226804,-0.213327,0.801736,0.263898,-0.157014,0.322675,0.832847,0.544726,0.0943992,0.0270016
20149481227,0.169996,-0.867024,-0.906836,-2.96273,-0.724262,2.34349,-1.20835,0,0,0,0,0,0,0,-0.0174599,-0.0300303,0.12251,-0.00804078,0.0489316,-0.0460241,0.17297,0.263349,-0.159113,0.320735,0.829068,0.550288,0.0955484,0.0264615
20149481227,0.171862,-0.863815,-0.919929,-2.96187,-0.729492,2.3484,-1.22684,0,0,0,0,0,0,0,0,0,0,0,0,0,0,0.262993,-0.16041,0.319524,0.826712,0.553713,0.0962557,0.0261465
20434792898,0.173018,-0.861826,-0.92804,-2.96133,-0.732732,2.35145,-1.23829,0.00942598,0.011502,-0.0468597,0.0052416,-0.0164385,0.014776,-0.0657176,0.114659,0.139912,-0.570009,0.0637596,-0.199961,0.179738,-0.799399,0.262825,-0.161069,0.318921,0.825513,0.555447,0.0966056,0.0259604
20720104568,0.173704,-0.860814,-0.932166,-2.96099,-0.734298,2.3529,-1.2441,0.0170848,0.0208475,-0.0849342,0.0095005,-0.0297951,0.0267819,-0.119114,0.0929399,0.113409,-0.462035,0.051682,-0.162083,0.145691,-0.647973,0.262586,-0.162148,0.317967,0.82356,0.558261,0.0971545,0.0255903
21005416239,0.175054,-0.859162,-0.938898,-2.96024,-0.736664,2.35503,-1.25354,0.0076588,0.00934558,-0.0380744,0.0042589,-0.0133566,0.0120058,-0.0533968,-0.114112,-0.139244,0.567288,-0.0634552,0.199006,-0.17888,0.795583,0.262178,-0.163914,0.316392,0.820341,0.562852,0.0980472,0.0250021
21237237566,0.177275,-0.856451,-0.949941,-2.959,-0.740537,2.35851,-1.26903,0,0,0,0,0,0,0,-0.0925386,-0.112919,0.46004,-0.0514588,0.161383,-0.145062,0.645176,0.261704,-0.165854,0.314643,0.816779,0.567867,0.0990185,0.0243853
21237237566,0.179718,-0.85347,-0.962086,-2.95764,-0.744798,2.36234,-1.28606,0,0,0,0,0,0,0,0,0,0,0,0,0,0,0.261275,-0.167522,0.313121,0.813691,0.57216,0.0998464,0.0238789
21522549237,0.181824,-0.850901,-0.972553,-2.95647,-0.74847,2.36564,-1.30074,0.0120748,0.0112637,-0.0469537,0.00722845,-0.0144205,0.0120853,-0.0657176,0.145549,0.135772,-0.565978,0.0871314,-0.173824,0.145676,-0.792156,0.260988,-0.168661,0.312088,0.81157,0.575083,0.100402,0.0235176
21807860908,0.183357,-0.849154,-0.97971,-2.9556,-0.750907,2.3678,-1.31077,0.0241496,0.0225274,-0.0939075,0.0144569,-0.028841,0.0241707,-0.131435,0.145204,0.13545,-0.564636,0.0869248,-0.173412,0.145331,-0.790278,0.260713,-0.169904,0.310998,0.809248,0.578263,0.100985,0.0230539
22093172578,0.1853,-0.847278,-0.987504,-2.95445,-0.753349,2.36987,-1.32169,0.0134334,0.012531,-0.0522368,0.00804177,-0.0160431,0.0134451,-0.0731119,-0.128561,-0.119925,0.49992,-0.0769619,0.153536,-0.128674,0.699701,0.260283,-0.171831,0.309306,0.805631,0.583166,0.101871,0.02233
22378484249,0.188407,-0.84438,-0.999585,-2.95259,-0.757059,2.37298,-1.33859,0.00135861,0.00126734,-0.00528305,0.000813317,-0.00162254,0.00135979,-0.00739428,-0.144518,-0.134811,0.561972,-0.0865146,0.172594,-0.144645,0.786549,0.259748,-0.174084,0.307301,0.801371,0.588859,0.102892,0.0215185
22410586380,0.192044,-0.840988,-1.01372,-2.95041,-0.761401,2.37662,-1.35838,0,0,0,0,0,0,0,-0.0162563,-0.0151643,0.063214,-0.0097317,0.0194144,-0.0162705,0.0884759,0.259246,-0.176071,0.305509,0.797586,0.593845,0.103776,0.0208334
22410586380,0.195255,-0.837993,-1.02621,-2.94849,-0.765236,2.37983,-1.37586,0,0,0,0,0,0,0,0,0,0,0,0,0,0,0.258933,-0.177257,0.304428,0.795314,0.596808,0.104297,0.0204377
22695898050,0.197174,-0.836203,-1.03367,-2.94734,-0.767528,2.38175,-1.3863,0.0145846,0.0106979,-0.047142,0.00901286,-0.0128996,0.00948529,-0.0657176,0.1741,0.127704,-0.562747,0.107589,-0.153987,0.113229,-0.78449,0.258787,-0.177854,0.303896,0.794166,0.598298,0.104553,0.0202191
22981209721,0.198227,-0.835324,-1.03743,-2.9467,-0.768625,2.38262,-1.39155,0.022065,0.0161849,-0.0713212,0.0136356,-0.0195159,0.0143503,-0.0994243,0.0890866,0.0653458,-0.287957,0.0550531,-0.0787946,0.0579389,-0.401422,0.258561,-0.178896,0.302992,0.792152,0.6009,0.104986,0.0197937
23266521391,0.200251,-0.833838,-1.04397,-2.94545,-0.770417,2.38394,-1.40068,0.00748045,0.00548697,-0.0241792,0.00462271,-0.00661625,0.00486503,-0.0337067,-0.173284,-0.127106,0.560111,-0.107085,0.153265,-0.112698,0.780815,0.258203,-0.180476,0.30161,0.789086,0.604828,0.105634,0.0191614
23412858281,0.203324,-0.831584,-1.05391,-2.94355,-0.773134,2.38594,-1.41452,0,0,0,0,0,0,0,-0.0887713,-0.0651145,0.286937,-0.0548582,0.0785157,-0.0577338,0.400001,0.257812,-0.182127,0.300151,0.78587,0.608906,0.1063,0.0185181
23412858281,0.206533,-0.82923,-1.06428,-2.94157,-0.775973,2.38803,-1.42898,0,0,0,0,0,0,0,0,0,0,0,0,0,0,0.25747,-0.183509,0.298916,0.783164,0.612303,0.106848,0.0179922
23698169951,0.209222,-0.827257,-1.07297,-2.9399,-0.778352,2.38978,-1.4411,0.0166454,0.0100539,-0.0471288,0.0105018,-0.01165,0.00722694,-0.0657176,0.197072,0.119032,-0.557978,0.124335,-0.137929,0.0855627,-0.778058,0.257259,-0.184389,0.298137,0.781432,0.614462,0.107189,0.0176459
23983481622,0.211007,-0.826026,-1.0785,-2.93879,-0.77982,2.39081,-1.44881,0.0280623,0.0169497,-0.0794539,0.0177048,-0.0196406,0.0121838,-0.110792,0.134854,0.0814523,-0.381818,0.085081,-0.0943834,0.0585496,-0.532416,0.257017,-0.185519,0.297165,0.779192,0.61724,0.107614,0.0171608
24268793293,0.213489,-0.824509,-1.08558,-2.93723,-0.781582,2.39192,-1.45868,0.0114169,0.00689581,-0.032325,0.00720302,-0.00799057,0.00495686,-0.0450748,-0.196156,-0.118479,0.555385,-0.123757,0.137288,-0.0851651,0.774443,0.256643,-0.187215,0.295697,0.775816,0.621388,0.108239,0.0164388
24464484596,0.217242,-0.822242,-1.09621,-2.93486,-0.784209,2.39355,-1.4735,0,0,0,0,0,0,0,-0.134327,-0.0811338,0.380325,-0.0847483,0.0940143,-0.0583206,0.530334,0.25622,-0.189037,0.294101,0.772172,0.625816,0.108896,0.0156801
24464484596,0.221274,-0.819806,-1.10763,-2.93232,-0.787032,2.3953,-1.48942,0,0,0,0,0,0,0,0,0,0,0,0,0,0,0.255842,-0.190591,0.292723,0.769052,0.629568,0.109443,0.0150468
24749796267,0.224713,-0.817729,-1.11736,-2.93015,-0.789439,2.39679,-1.503,0.0180009,0.00381891,-0.0180319,-0.000735966,-0.0161713,-0.0168121,-0.0657176,0.211302,0.0448279,-0.211666,-0.00863908,-0.189826,-0.197348,-0.771421,0.255622,-0.191262,0.291829,0.766617,0.632552,0.109385,0.0145458
25035107937,0.227043,-0.816574,-1.12278,-2.92911,-0.791196,2.39692,-1.512,0.0170141,0.00360955,-0.0170434,-0.00069562,-0.0152848,-0.0158905,-0.0621149,-0.0115569,-0.00245181,0.0115768,0.000472504,0.0103823,0.0107937,0.042192,0.255494,-0.191073,0.290984,0.763249,0.636809,0.108324,0.0138196
25304778716,0.229533,-0.815936,-1.12579,-2.92902,-0.793378,2.39498,-1.52118,0,0,0,0,0,0,0,-0.198824,-0.0421806,0.199166,0.0081289,0.178616,0.185693,0.725864,0.255371,-0.190678,0.290063,0.759298,0.641766,0.10694,0.0129589
25304778716,0.232317,-0.815345,-1.12858,-2.92914,-0.795879,2.39238,-1.53134,0,0,0,0,0,0,0,0,0,0,0,0,0,0,0.255245,-0.190283,0.289142,0.755311,0.646696,0.105564,0.0120873
25590090387,0.235101,-0.814755,-1.13137,-2.92925,-0.79838,2.38978,-1.54151,0.0092762,-0.0109878,0.0657176,-0.0329173,-0.0177908,-0.062503,-0.0273613,0.108151,-0.128106,0.766199,-0.383782,-0.207422,-0.72872,-0.319005,0.255212,-0.188997,0.288374,0.750894,0.652193,0.103345,0.0110724
25875402058,0.237574,-0.814692,-1.13117,-2.93051,-0.800939,2.38555,-1.55031,0.00160835,-0.00190511,0.0113944,-0.00570736,-0.00308464,-0.0108371,-0.00474403,-0.0891941,0.105651,-0.6319,0.316513,0.171065,0.60099,0.26309,0.255323,-0.186636,0.288038,0.74695,0.657189,0.100331,0.010109
25924870708,0.238919,-0.815484,-1.12628,-2.93327,-0.802934,2.37982,-1.55467,0,0,0,0,0,0,0,-0.0187013,0.0221518,-0.13249,0.0663629,0.035867,0.126009,0.0551618,0.25544,-0.184337,0.287882,0.743782,0.661202,0.0975414,0.00932926
25924870708,0.239701,-0.816409,-1.12074,-2.93605,-0.804433,2.37455,-1.55698,0,0,0,0,0,0,0,0,0,0,0,0,0,0,0.255534,-0.18205,0.28772,0.740595,0.665185,0.094731,0.00855974
26210182378,0.240482,-0.817335,-1.11521,-2.93882,-0.805931,2.36929,-1.55928,0.00169789,-0.0138828,0.0657176,-0.0306832,-0.00484401,-0.0413308,0.0142346,0.0196972,-0.161055,0.762391,-0.355957,-0.0561954,-0.479479,0.165136,0.255643,-0.179887,0.28767,0.738081,0.668318,0.0923284,0.00795254
26495494049,0.240993,-0.818364,-1.10967,-2.94151,-0.806968,2.36478,-1.56011,0.00117416,-0.00960057,0.0454466,-0.0212188,-0.00334985,-0.028582,0.00984387,-0.00606187,0.0495649,-0.234627,0.109546,0.0172943,0.147561,-0.050821,0.255825,-0.177194,0.28781,0.735933,0.671026,0.0898426,0.00742819
26692799594,0.241193,-0.819932,-1.10223,-2.94499,-0.80753,2.36008,-1.55854,0,0,0,0,0,0,0,-0.013569,0.110947,-0.525195,0.245211,0.0387118,0.330303,-0.113759,0.255999,-0.17414,0.287957,0.733503,0.674062,0.0869829,0.00686096
26692799594,0.241413,-0.821726,-1.09374,-2.94895,-0.808156,2.35474,-1.5567,0,0,0,0,0,0,0,0,0,0,0,0,0,0,0.256134,-0.171105,0.288086,0.731071,0.677071,0.0840833,0.00632151
26978111265,0.241632,-0.823519,-1.08526,-2.95291,-0.808782,2.3494,-1.55486,0.00190519,-0.0175253,0.0657176,-0.0324434,0.00264599,-0.0306699,0.0342503,0.0219669,-0.202068,0.757726,-0.374074,0.0305083,-0.353626,0.394907,0.256265,-0.16806,0.288245,0.728914,0.679724,0.0813998,0.00584939
27263422935,0.241859,-0.825442,-1.07677,-2.95694,-0.80914,2.34444,-1.55231,0.001884,-0.0173304,0.0649867,-0.0320826,0.00261656,-0.0303288,0.0338694,-0.000243755,0.00224224,-0.00840809,0.0041509,-0.000338535,0.003924,-0.00438208,0.256446,-0.164679,0.288513,0.727218,0.68182,0.0790292,0.0054583
27545561455,0.242125,-0.82786,-1.06747,-2.9615,-0.808894,2.33992,-1.5478,0,0,0,0,0,0,0,-0.0216248,0.198921,-0.745927,0.368249,-0.0300332,0.348119,-0.388758,0.256614,-0.16088,0.288813,0.725466,0.68398,0.076445,0.00507822
27545561455,0.242428,-0.830651,-1.057,-2.96667,-0.808472,2.33503,-1.54235,0,0,0,0,0,0,0,0,0,0,0,0,0,0,0.256725,-0.157106,0.289085,0.723724,0.686115,0.0738055,0.00474001
27830873126,0.242732,-0.833443,-1.04653,-2.97184,-0.808051,2.33015,-1.53689,0.00563613,-0.0178088,0.0657176,-0.0326973,0.0103379,-0.0222397,0.0536344,0.0645463,-0.20395,0.752613,-0.374458,0.118392,-0.254694,0.614234,0.256828,-0.15332,0.289357,0.722238,0.687946,0.0712943,0.00443977
28116184796,0.243168,-0.836245,-1.03606,-2.97702,-0.807355,2.32556,-1.53074,0.00772227,-0.0244005,0.0900421,-0.0447998,0.0141643,-0.0304714,0.0734865,0.0238371,-0.0753194,0.277942,-0.138288,0.0437223,-0.0940591,0.226838,0.257006,-0.149186,0.289698,0.721334,0.689124,0.0690493,0.00415111
28401496467,0.243999,-0.839271,-1.02486,-2.98258,-0.805861,2.32148,-1.52228,0.00208614,-0.00659168,0.0243245,-0.0121025,0.00382642,-0.00823171,0.0198521,-0.0642562,0.203034,-0.74923,0.372774,-0.117859,0.253549,-0.611473,0.257182,-0.144383,0.290084,0.720586,0.69015,0.0665822,0.00386584
28507100676,0.245113,-0.842791,-1.01187,-2.98904,-0.803818,2.31708,-1.51168,0,0,0,0,0,0,0,-0.0237638,0.0750876,-0.277087,0.137863,-0.0435878,0.0937697,-0.22614,0.25727,-0.139501,0.290432,0.719842,0.691173,0.0639758,0.0036355
28507100676,0.246254,-0.846398,-0.99856,-2.99566,-0.801724,2.31258,-1.50081,0,0,0,0,0,0,0,0,0,0,0,0,0,0,0.257273,-0.13551,0.290681,0.719247,0.691994,0.0617697,0.0034939
28792412347,0.247195,-0.849369,-0.987594,-3.00112,-0.799999,2.30886,-1.49186,0.0145315,-0.016023,0.0655752,-0.0302073,0.0171747,-0.0170906,0.0657176,0.165161,-0.182113,0.745312,-0.343329,0.195204,-0.194247,0.74693,0.257316,-0.133021,0.290849,0.718999,0.692364,0.0604996,0.00341149
29077724017,0.24809,-0.851133,-0.980856,-3.00439,-0.798694,2.30677,-1.48593,0.0229617,-0.0253185,0.103618,-0.0477317,0.0271384,-0.0270054,0.103843,0.0956018,-0.105414,0.431417,-0.198733,0.112992,-0.112438,0.432353,0.257518,-0.129409,0.291141,0.718936,0.692563,0.0589636,0.00327799
29363035688,0.250145,-0.853455,-0.971386,-3.00876,-0.796248,2.30427,-1.4765,0.00843024,-0.00929552,0.0380426,-0.0175244,0.0099637,-0.00991487,0.0381253,-0.164424,0.181301,-0.741987,0.341797,-0.194333,0.19338,-0.743598,0.257739,-0.124017,0.291538,0.718886,0.692811,0.0566187,0.00312951
29528555704,0.253292,-0.856925,-0.957185,-3.0153,-0.792528,2.30057,-1.46227,0,0,0,0,0,0,0,-0.0952653,0.105043,-0.429898,0.198033,-0.112594,0.112042,-0.430832,0.257849,-0.118375,0.291898,0.718862,0.693041,0.0540618,0.00304694
29528555704,0.256614,-0.860588,-0.942198,-3.02221,-0.788603,2.29667,-1.44725,0,0,0,0,0,0,0,0,0,0,0,0,0,0,0.257844,-0.113655,0.292152,0.718864,0.693209,0.0518398,0.00303834
29813867375,0.259417,-0.863678,-0.929548,-3.02803,-0.78529,2.29337,-1.43457,0.0286855,-0.0134142,0.0657176,-0.0242205,0.0220653,-0.0216575,0.0604417,0.323438,-0.151249,0.740986,-0.273093,0.248793,-0.244195,0.681498,0.257875,-0.110571,0.292325,0.718716,0.693473,0.0503369,0.00301261
30099179045,0.261734,-0.865583,-0.921365,-3.03159,-0.782974,2.29108,-1.42656,0.0379358,-0.0177399,0.0869099,-0.032031,0.0291808,-0.0286415,0.0799326,0.104069,-0.0486658,0.238419,-0.0878703,0.0800515,-0.078572,0.219278,0.258069,-0.106824,0.292589,0.718134,0.69421,0.0484504,0.00288362
30384490716,0.265765,-0.86758,-0.911741,-3.03521,-0.7798,2.28796,-1.41765,0.00925034,-0.00432573,0.0211922,-0.00781048,0.0071155,-0.00698399,0.0194909,-0.322006,0.15058,-0.737706,0.271885,-0.247692,0.243114,-0.678482,0.258272,-0.101888,0.292916,0.71731,0.695235,0.045901,0.00274783
30476496417,0.271306,-0.87017,-0.899049,-3.03988,-0.775539,2.28377,-1.40597,0,0,0,0,0,0,0,-0.103765,0.0485235,-0.237722,0.0876133,-0.0798174,0.0783422,-0.218637,0.258378,-0.0968929,0.293209,0.716488,0.696252,0.0432503,0.00267728
30476496417,0.276952,-0.872811,-0.886113,-3.04465,-0.771195,2.27951,-1.39408,0,0,0,0,0,0,0,0,0,0,0,0,0,0,0.25839,-0.0928319,0.293418,0.715828,0.697064,0.0410416,0.00267158
30761808088,0.281576,-0.874973,-0.87552,-3.04856,-0.767639,2.27602,-1.38433,0.0420717,-0.00959807,0.0657176,-0.0181824,0.0254096,-0.027435,0.0513889,0.470894,-0.107428,0.735554,-0.203509,0.2844,-0.307071,0.575178,0.258431,-0.0903263,0.293552,0.715223,0.697768,0.0395997,0.00264049
31047119759,0.284865,-0.876152,-0.869078,-3.05072,-0.765357,2.27369,-1.37873,0.0416845,-0.00950973,0.0651128,-0.0180151,0.0251757,-0.0271825,0.050916,-0.00432426,0.00098652,-0.00675466,0.00186885,-0.00261167,0.00281986,-0.00528192,0.25859,-0.0869555,0.293758,0.713978,0.699157,0.0375178,0.00251772
31329805600,0.290209,-0.877396,-0.860653,-3.05307,-0.762112,2.2702,-1.37211,0,0,0,0,0,0,0,-0.464519,0.105974,-0.725597,0.200754,-0.28055,0.302914,-0.567392,0.258731,-0.082774,0.293997,0.712407,0.700894,0.0348908,0.00240635
31329805600,0.29692,-0.878927,-0.850171,-3.05597,-0.758059,2.26582,-1.36391,0,0,0,0,0,0,0,0,0,0,0,0,0,0,0.2588,-0.0786142,0.294213,0.710842,0.702609,0.0322357,0.00234881
31615117271,0.30363,-0.880458,-0.839689,-3.05887,-0.754006,2.26144,-1.35572,0.0522083,-0.00479167,0.0657176,-0.0137529,0.0303185,-0.0288195,0.0511311,0.580518,-0.0532799,0.730732,-0.152922,0.33712,-0.320451,0.56854,0.258852,-0.0744326,0.294416,0.709221,0.704364,0.0295237,0.00228818
31900428941,0.310702,-0.881818,-0.829206,-3.06161,-0.749778,2.25702,-1.34753,0.0473896,-0.00434941,0.059652,-0.0124835,0.0275202,-0.0261595,0.0464118,-0.0534636,0.00490688,-0.0672977,0.0140835,-0.0310475,0.0295124,-0.0523604,0.258962,-0.0702434,0.294619,0.707487,0.706216,0.0267681,0.0021439
32159406861,0.318512,-0.882735,-0.818929,-3.06392,-0.745208,2.25256,-1.33952,0,0,0,0,0,0,0,-0.524743,0.0481608,-0.660524,0.138229,-0.30473,0.289663,-0.513916,0.25905,-0.066178,0.294806,0.705758,0.708041,0.0240621,0.00200334
32159406861,0.326384,-0.883458,-0.809021,-3.06599,-0.740637,2.24822,-1.33181,0,0,0,0,0,0,0,0,0,0,0,0,0,0,0.259069,-0.0621293,0.294975,0.704031,0.709846,0.0213359,0.00191539
32444718532,0.334255,-0.88418,-0.799113,-3.06806,-0.736066,2.24387,-1.32411,0.0594048,-0.0252137,-0.0194687,-0.000837615,-0.027424,-0.0312241,0.0657176,0.656354,-0.278583,-0.215106,-0.00925467,-0.303003,-0.34499,0.726103,0.25905,-0.0586327,0.295106,0.702733,0.711195,0.0190861,0.00184648
32730030203,0.342383,-0.885631,-0.792243,-3.06968,-0.733554,2.23944,-1.31588,0.11881,-0.0504275,-0.0389374,-0.00167523,-0.054848,-0.0624481,0.131435,0.654927,-0.277977,-0.214639,-0.00923456,-0.302345,-0.34424,0.724525,0.25907,-0.0561818,0.295184,0.702479,0.711477,0.0179254,0.00171137
33015341873,0.352391,-0.889369,-0.793089,-3.0702,-0.736576,2.23414,-1.305,0.142936,-0.0606676,-0.0468443,-0.00201541,-0.0659858,-0.0751293,0.158125,0.265412,-0.112651,-0.0869833,-0.00374234,-0.122527,-0.139505,0.293617,0.259114,-0.0525164,0.295283,0.702665,0.711327,0.0165419,0.00146304
33300653544,0.371085,-0.897303,-0.799216,-3.07046,-0.745206,2.22431,-1.28432,0.0835311,-0.0354539,-0.0273756,-0.0011778,-0.0385618,-0.0439052,0.0924078,-0.652093,0.276774,0.21371,0.00919459,0.301036,0.34275,-0.72139,0.259096,-0.0472971,0.295398,0.702946,0.711094,0.0145488,0.00122092
33585965214,0.397856,-0.908666,-0.807989,-3.07084,-0.757564,2.21024,-1.2547,0.0241264,-0.0102402,-0.00790691,-0.000340185,-0.0111378,-0.0126812,0.0266902,-0.650685,0.276176,0.213248,0.00917474,0.300386,0.34201,-0.719832,0.258975,-0.0417819,0.295485,0.703263,0.71082,0.0124194,0.00111038
33701840261,0.426347,-0.920759,-0.817327,-3.07124,-0.770717,2.19527,-1.22318,0,0,0,0,0,0,0,-0.264034,0.112067,0.0865317,0.00372292,0.12189,0.13878,-0.292093,0.258807,-0.0374588,0.295529,0.703528,0.710586,0.0107381,0.00113025
33701840261,0.448832,-0.930302,-0.824696,-3.07156,-0.781097,2.18345,-1.19831,0,0,0,0,0,0,0,0,0,0,0,0,0,0,0.258689,-0.0351116,0.295544,0.703678,0.710451,0.00982219,0.00118087
33987151932,0.461098,-0.935508,-0.828716,-3.07173,-0.78676,2.177,-1.18474,0.0537894,-0.0155405,-0.0129336,-1.49477e-06,-0.0162702,-0.0185905,0.0657176,0.587393,-0.169706,-0.141239,-1.63233e-05,-0.177674,-0.203013,0.717653,0.258657,-0.0339118,0.295553,0.703863,0.710272,0.00943651,0.00119445
34272463602,0.467205,-0.93784,-0.83055,-3.07179,-0.789274,2.17414,-1.17776,0.107579,-0.031081,-0.0258673,-2.98954e-06,-0.0325404,-0.037181,0.131435,0.586131,-0.169342,-0.140935,-1.62882e-05,-0.177293,-0.202577,0.716111,0.258698,-0.0322459,0.295573,0.704401,0.709743,0.00911729,0.00115992
34557775273,0.475228,-0.940206,-0.832509,-3.0718,-0.791756,2.1713,-1.168,0.112053,-0.0323736,-0.026943,-3.11387e-06,-0.0338936,-0.0387273,0.136901,0.048647,-0.0140548,-0.0116972,-1.35187e-06,-0.0147147,-0.0168132,0.0594349,0.258761,-0.0288194,0.295611,0.705546,0.708613,0.00848802,0.00109946
34843086944,0.491687,-0.944961,-0.836467,-3.0718,-0.796735,2.16561,-1.14789,0.0582633,-0.0168331,-0.0140094,-1.6191e-06,-0.0176235,-0.0201368,0.0711837,-0.583624,0.168617,0.140332,1.62185e-05,0.176534,0.20171,-0.713048,0.258777,-0.0241374,0.295654,0.707114,0.707057,0.00762668,0.00105726
35128398614,0.51422,-0.951471,-0.841885,-3.0718,-0.80355,2.15782,-1.12036,0.00447393,-0.00129258,-0.00107576,-1.24328e-07,-0.00135327,-0.00154627,0.00546607,-0.582378,0.168257,0.140033,1.61839e-05,0.176158,0.20128,-0.711526,0.258712,-0.0194008,0.295685,0.708706,0.705471,0.00675515,0.00106227
35152129427,0.537072,-0.958073,-0.84738,-3.0718,-0.810463,2.14993,-1.09244,0,0,0,0,0,0,0,-0.0484307,0.0139923,0.0116452,1.34586e-06,0.0146493,0.0167385,-0.0591707,0.25861,-0.0158627,0.2957,0.709898,0.704277,0.00610509,0.00109743
35152129427,0.554182,-0.963017,-0.851494,-3.0718,-0.815638,2.14401,-1.07154,0,0,0,0,0,0,0,0,0,0,0,0,0,0,0.258544,-0.014144,0.295705,0.710478,0.703694,0.00578987,0.00112423
35437441097,0.562507,-0.965422,-0.853496,-3.0718,-0.818156,2.14113,-1.06137,0.0633793,0.0345269,0.0519433,3.22403e-05,0.0461864,0.013382,0.0657176,0.684626,0.372961,0.561094,0.000348261,0.498908,0.144553,0.709884,0.25857,-0.0128097,0.295717,0.710602,0.703573,0.0053643,0.00112616
35722752768,0.567018,-0.964841,-0.852184,-3.0718,-0.81719,2.14083,-1.05627,0.101868,0.0554944,0.0834874,5.18191e-05,0.0742345,0.0215086,0.105627,0.414876,0.22601,0.340017,0.000211042,0.302332,0.0875976,0.430182,0.258725,-0.00938817,0.295754,0.710472,0.703713,0.00402794,0.00111424
36008064438,0.575899,-0.960014,-0.84492,-3.07179,-0.810732,2.1427,-1.04706,0.0384889,0.0209675,0.0315441,1.95788e-05,0.0280481,0.00812662,0.039909,-0.681722,-0.371379,-0.558714,-0.000346784,-0.496792,-0.14394,-0.706874,0.258877,-0.00402145,0.295785,0.710259,0.703937,0.00193791,0.00113755
36181328347,0.589771,-0.952457,-0.833551,-3.07179,-0.800623,2.14563,-1.03268,0,0,0,0,0,0,0,-0.413463,-0.225241,-0.338859,-0.000210324,-0.301303,-0.0872994,-0.428718,0.258919,0.00168911,0.295786,0.710025,0.704175,-0.000276893,0.00121822
36181328347,0.604478,-0.944445,-0.821498,-3.07178,-0.789906,2.14874,-1.01743,0,0,0,0,0,0,0,0,0,0,0,0,0,0,0.258857,0.00653679,0.29576,0.709819,0.704379,-0.00214984,0.00133143
36466640018,0.616924,-0.937665,-0.811298,-3.07177,-0.780836,2.15136,-1.00452,0.0657176,0.032098,0.0339763,0.00796193,0.0344142,0.00319036,0.0486316,0.704473,0.344081,0.364216,0.0853494,0.36891,0.0341997,0.521316,0.258832,0.0095411,0.295738,0.709548,0.704647,-0.00341318,0.00138531
36751951688,0.625107,-0.933339,-0.8053,-3.07149,-0.775353,2.15271,-0.996735,0.105977,0.0517615,0.0547905,0.0128395,0.0554967,0.0051448,0.0784237,0.430655,0.210342,0.222651,0.0521755,0.225521,0.0209068,0.318689,0.258935,0.0127237,0.295728,0.708854,0.705336,-0.00504881,0.00136049
37037263359,0.63514,-0.928392,-0.799861,-3.07037,-0.769929,2.15333,-0.989064,0.0402591,0.0196635,0.0208142,0.00487754,0.0210824,0.00195444,0.0297921,-0.701508,-0.342633,-0.362683,-0.0849902,-0.367358,-0.0340558,-0.519122,0.25905,0.0172225,0.295709,0.707778,0.706395,-0.00740995,0.00135175
37212047534,0.649554,-0.921352,-0.792409,-3.06863,-0.76238,2.15403,-0.978397,0,0,0,0,0,0,0,-0.429196,-0.209629,-0.221896,-0.0519986,-0.224756,-0.020836,-0.317609,0.259086,0.0220242,0.295678,0.706622,0.707521,-0.00990681,0.00140507
37212047534,0.664848,-0.913882,-0.784502,-3.06677,-0.754371,2.15478,-0.967079,0,0,0,0,0,0,0,0,0,0,0,0,0,0,0.259047,0.0261115,0.295643,0.705631,0.708476,-0.0120135,0.00150019
37497359204,0.677798,-0.907556,-0.777806,-3.0652,-0.747589,2.1554,-0.957496,0.0657176,0.0367239,0.0297342,0.0118968,0.0349369,0.00411086,0.0440636,0.699135,0.390686,0.316327,0.126564,0.371675,0.0437333,0.468769,0.259032,0.0287378,0.295614,0.704986,0.709093,-0.0133941,0.00154728
37782670875,0.686237,-0.90327,-0.773595,-3.06404,-0.743152,2.15585,-0.951414,0.114661,0.0640742,0.051879,0.0207571,0.0609563,0.00717245,0.0768802,0.519596,0.290357,0.235094,0.0940623,0.276228,0.0325025,0.348389,0.259106,0.031789,0.295569,0.704219,0.709821,-0.0150884,0.00152177
38067982546,0.696415,-0.897644,-0.768933,-3.06225,-0.737748,2.15647,-0.944528,0.0489436,0.0273504,0.0221448,0.00886025,0.0260195,0.00306159,0.0328167,-0.696215,-0.389054,-0.315006,-0.126036,-0.370122,-0.0435506,-0.466811,0.259177,0.0363296,0.295493,0.703068,0.710903,-0.0176064,0.00151593
38280470415,0.711549,-0.889187,-0.762086,-3.05951,-0.729703,2.15742,-0.934381,0,0,0,0,0,0,0,-0.517706,-0.289301,-0.234238,-0.0937201,-0.275223,-0.0323842,-0.347121,0.259163,0.0412996,0.295399,0.701801,0.712082,-0.0203288,0.00158207
38280470415,0.727982,-0.880004,-0.75465,-3.05654,-0.720966,2.15845,-0.923363,0,0,0,0,0,0,0,0,0,0,0,0,0,0,0.259074,0.0455851,0.295308,0.700701,0.713093,-0.0226483,0.00169797
38565782086,0.742049,-0.872143,-0.748286,-3.05399,-0.713488,2.15933,-0.913931,0.0657176,0.0429132,0.0275158,0.0141164,0.0389418,0.0112708,0.0531329,0.693687,0.452973,0.290445,0.149006,0.411053,0.11897,0.560849,0.259015,0.0484755,0.295233,0.700133,0.713602,-0.0241483,0.00174906
38851093756,0.751504,-0.866639,-0.744087,-3.0522,-0.708319,2.16017,-0.907268,0.11809,0.0771119,0.0494439,0.0253661,0.0699756,0.0202528,0.095476,0.551671,0.360237,0.230983,0.118501,0.326899,0.0946136,0.446028,0.25903,0.0517176,0.295118,0.699998,0.713682,-0.0256743,0.00167261
39136405427,0.762107,-0.859835,-0.739604,-3.04996,-0.702113,2.16185,-0.898871,0.0523722,0.0341987,0.0219281,0.0112497,0.0310338,0.00898202,0.0423431,-0.690812,-0.451096,-0.289241,-0.148389,-0.409349,-0.118477,-0.558524,0.259012,0.0564507,0.294931,0.699934,0.713663,-0.0278402,0.00157287
39363778175,0.77749,-0.849788,-0.733164,-3.04666,-0.692997,2.16449,-0.886431,0,0,0,0,0,0,0,-0.54962,-0.358898,-0.230124,-0.11806,-0.325684,-0.0942618,-0.444369,0.258893,0.0616941,0.294708,0.69985,0.713649,-0.0302106,0.00154079
39363778175,0.794385,-0.838756,-0.72609,-3.04303,-0.682986,2.16739,-0.872772,0,0,0,0,0,0,0,0,0,0,0,0,0,0,0.258705,0.0662461,0.294501,0.699767,0.713642,-0.0322434,0.00157684
39649089845,0.808936,-0.829254,-0.719998,-3.0399,-0.674363,2.16989,-0.861007,0.0657176,0.048081,0.0232998,0.0181356,0.0399442,0.0143528,0.0491385,0.688249,0.503544,0.244015,0.189931,0.418329,0.150315,0.514619,0.258592,0.0693323,0.294353,0.699722,0.713623,-0.033606,0.00159608
39934401516,0.818847,-0.822598,-0.715998,-3.03763,-0.668454,2.1717,-0.853136,0.129628,0.0948396,0.0459588,0.0357724,0.0787897,0.0283109,0.0969255,0.66794,0.488686,0.236815,0.184327,0.405985,0.145879,0.499434,0.258601,0.0726396,0.294189,0.699719,0.713557,-0.0350457,0.0015368
40219713187,0.82971,-0.814768,-0.712052,-3.03473,-0.661875,2.174,-0.844923,0.0639101,0.0467586,0.022659,0.0176368,0.0388455,0.0139581,0.047787,-0.685419,-0.501474,-0.243012,-0.18915,-0.416608,-0.149697,-0.512503,0.258596,0.077608,0.293929,0.699722,0.713446,-0.0371776,0.00147481
40497177485,0.845986,-0.802859,-0.706281,-3.03023,-0.651981,2.17755,-0.832753,0,0,0,0,0,0,0,-0.665237,-0.486708,-0.235856,-0.183581,-0.404341,-0.145289,-0.497412,0.258475,0.0833149,0.293608,0.699712,0.713326,-0.0395846,0.00149566
40497177485,0.864479,-0.789329,-0.699724,-3.02513,-0.640741,2.18159,-0.818925,0,0,0,0,0,0,0,0,0,0,0,0,0,0,0.258266,0.0883502,0.293306,0.699692,0.713227,-0.0416714,0.00159197
40782489156,0.880628,-0.777514,-0.693999,-3.02067,-0.630925,2.18512,-0.80685,0.0657176,0.0515621,0.0183995,0.0229353,0.0409718,0.0118118,0.0372979,0.68265,0.535608,0.191128,0.238244,0.4256,0.122697,0.387437,0.258119,0.0919046,0.293086,0.699598,0.713228,-0.0431871,0.00165386
41067800827,0.892091,-0.769003,-0.690109,-3.01734,-0.623921,2.18753,-0.798702,0.122217,0.0958911,0.0342181,0.0426533,0.0761963,0.0219667,0.0693638,0.585691,0.459533,0.163981,0.204405,0.365151,0.10527,0.332408,0.258104,0.0953762,0.292875,0.699282,0.713437,-0.0448397,0.00160631
41353112497,0.90366,-0.760044,-0.686705,-3.01346,-0.616744,2.1897,-0.791737,0.0564989,0.0443291,0.0158185,0.019718,0.0352244,0.0101549,0.0320659,-0.679866,-0.533423,-0.190348,-0.237272,-0.423864,-0.122196,-0.385857,0.25809,0.100082,0.292579,0.698749,0.713812,-0.0471293,0.00154376
41598401500,0.919385,-0.747706,-0.682302,-3.00798,-0.606939,2.19252,-0.782812,0,0,0,0,0,0,0,-0.583473,-0.457793,-0.16336,-0.203631,-0.363768,-0.104871,-0.331149,0.257973,0.105369,0.292227,0.698144,0.714232,-0.0496516,0.00156253
41598401500,0.936843,-0.734008,-0.677414,-3.00188,-0.596055,2.19566,-0.772903,0,0,0,0,0,0,0,0,0,0,0,0,0,0,0.257784,0.109989,0.2919,0.697612,0.714598,-0.0518133,0.00165227
41883713170,0.95193,-0.722171,-0.67319,-2.99662,-0.586649,2.19837,-0.764341,0.0657176,0.055081,0.0152583,0.0275244,0.0413431,0.00823497,0.0265206,0.677297,0.567675,0.157254,0.283671,0.426089,0.0848711,0.273326,0.25766,0.113171,0.29167,0.697155,0.714929,-0.0533589,0.00173805
42169024841,0.962353,-0.713868,-0.670384,-2.99282,-0.580138,2.20012,-0.75881,0.125137,0.104883,0.0290543,0.0524109,0.0787239,0.0156807,0.0504995,0.611146,0.51223,0.141895,0.255965,0.384473,0.0765817,0.24663,0.257651,0.116475,0.291438,0.696422,0.715506,-0.0551733,0.00182079
42454336512,0.973422,-0.704682,-0.667733,-2.9883,-0.573184,2.2016,-0.754063,0.0594195,0.0498023,0.013796,0.0248865,0.0373809,0.00744576,0.023979,-0.674556,-0.565377,-0.156618,-0.282523,-0.424364,-0.0845276,-0.27222,0.257621,0.121241,0.291091,0.695268,0.716417,-0.0578268,0.00199239
42712304896,0.989341,-0.691338,-0.664038,-2.98163,-0.563169,2.20359,-0.747644,0,0,0,0,0,0,0,-0.608795,-0.51026,-0.14135,-0.25498,-0.382994,-0.0762872,-0.245682,0.257477,0.126662,0.290672,0.693957,0.717443,-0.0607706,0.00228026
42712304896,1.0072,-0.676366,-0.659891,-2.97415,-0.551932,2.20583,-0.740435,0,0,0,0,0,0,0,0,0,0,0,0,0,0,0.257256,0.131432,0.290282,0.692803,0.718339,-0.0632986,0.00261045
42997616567,1.02272,-0.66336,-0.656288,-2.96765,-0.542169,2.20777,-0.734173,0.0657176,0.0579862,0.0123112,0.0323604,0.0434456,0.000903251,0.0147299,0.671967,0.592912,0.125882,0.330887,0.444234,0.0092358,0.150614,0.257097,0.134758,0.290001,0.691903,0.719038,-0.0651625,0.00285285
43282928237,1.03356,-0.654169,-0.653876,-2.96294,-0.535274,2.20887,-0.730218,0.101824,0.0898452,0.0190752,0.0501399,0.0673156,0.00139952,0.0228229,0.368453,0.325105,0.0690238,0.181432,0.243582,0.00506417,0.0825848,0.257034,0.138067,0.289722,0.690729,0.719961,-0.0673774,0.00304745
43568239908,1.04462,-0.644501,-0.651719,-2.95763,-0.528028,2.20924,-0.727397,0.0361069,0.031859,0.00676406,0.0177796,0.0238701,0.000496269,0.00809298,-0.669269,-0.590531,-0.125377,-0.329558,-0.44245,-0.00919872,-0.15001,0.25694,0.14228,0.289356,0.689134,0.721209,-0.0702887,0.00332047
43724997252,1.05867,-0.632098,-0.649086,-2.95071,-0.518735,2.20943,-0.724246,0,0,0,0,0,0,0,-0.367308,-0.324095,-0.0688093,-0.180868,-0.242825,-0.00504844,-0.0823282,0.25676,0.146761,0.288948,0.687441,0.722521,-0.0733162,0.00367663
43724997252,1.07344,-0.619071,-0.64632,-2.94344,-0.508975,2.20963,-0.720937,0,0,0,0,0,0,0,0,0,0,0,0,0,0,0.256543,0.150573,0.288586,0.686003,0.723624,-0.0758382,0.00403038
44010308923,1.08586,-0.608113,-0.643993,-2.93733,-0.500764,2.2098,-0.718153,0.0657176,0.0607475,0.0103269,0.0366408,0.0451822,-0.00734777,0.0038109,0.667193,0.616734,0.104843,0.371993,0.458709,-0.0745976,0.0386898,0.25641,0.153006,0.288347,0.684981,0.724406,-0.0775776,0.00426834
44295620594,1.09383,-0.600981,-0.642571,-2.93325,-0.495433,2.20962,-0.716756,0.0876445,0.0810161,0.0137725,0.0488661,0.0602573,-0.00979937,0.00508241,0.222167,0.205364,0.0349113,0.123869,0.152744,-0.02484,0.0128832,0.256318,0.155863,0.288057,0.683506,0.725534,-0.0799938,0.00454284
44580932264,1.10339,-0.592172,-0.641047,-2.92796,-0.488878,2.20864,-0.716084,0.0219269,0.0202686,0.0034456,0.0122253,0.0150752,-0.00245161,0.00127152,-0.664533,-0.614275,-0.104425,-0.370509,-0.45688,0.0743002,-0.0385356,0.256154,0.159703,0.287655,0.681484,0.727066,-0.0832474,0.00494926
44676127436,1.11615,-0.580375,-0.639042,-2.92085,-0.480103,2.20721,-0.715344,0,0,0,0,0,0,0,-0.221576,-0.204819,-0.0348185,-0.12354,-0.152338,0.024774,-0.012849,0.255918,0.163667,0.287225,0.679402,0.728625,-0.0865377,0.00541738
44676127436,1.12918,-0.568337,-0.636995,-2.91359,-0.471149,2.20576,-0.714589,0,0,0,0,0,0,0,0,0,0,0,0,0,0,0.255672,0.166951,0.286858,0.677681,0.729901,-0.089213,0.00584083
44961439107,1.13985,-0.558465,-0.635317,-2.90763,-0.463808,2.20456,-0.713969,0.0657176,0.0637072,0.00907239,0.0396317,0.0470919,-0.010801,-0.00337218,0.662771,0.642496,0.0914963,0.399692,0.474928,-0.108929,-0.0340089,0.255529,0.168954,0.286625,0.67657,0.73072,-0.0909034,0.00610026
45246750777,1.14637,-0.552341,-0.634338,-2.9039,-0.459263,2.20371,-0.713848,0.0716761,0.0694835,0.00989497,0.0432251,0.0513617,-0.0117803,-0.00367794,0.0599733,0.0581386,0.00827938,0.0361675,0.0429756,-0.00985687,-0.00307742,0.255383,0.17161,0.286304,0.674962,0.731902,-0.0932967,0.00642952
45532062448,1.15503,-0.543951,-0.633137,-2.89868,-0.45306,2.2023,-0.714264,0.00595852,0.00577624,0.000822581,0.00359335,0.00426976,-0.000979309,-0.000305751,-0.660146,-0.639951,-0.0911339,-0.398108,-0.473047,0.108498,0.0338742,0.255151,0.175063,0.285876,0.672865,0.733429,-0.0963703,0.00688551
45557931243,1.16621,-0.533119,-0.631595,-2.89194,-0.445053,2.20046,-0.714838,0,0,0,0,0,0,0,-0.0598437,-0.0580131,-0.0082615,-0.0360894,-0.0428828,0.00983558,0.00307078,0.254863,0.178557,0.285431,0.670749,0.734953,-0.0994239,0.00737988
45557931243,1.1774,-0.522267,-0.630049,-2.88519,-0.437032,2.19862,-0.715412,0,0,0,0,0,0,0,0,0,0,0,0,0,0,0.254595,0.181344,0.285068,0.669064,0.736156,-0.10182,0.00779696
45843242914,1.18625,-0.513688,-0.628827,-2.87986,-0.43069,2.19717,-0.715866,0.065258,0.0657176,0.00771217,0.0406899,0.0493157,-0.0095885,-0.00838529,0.654116,0.658723,0.0773033,0.407857,0.494318,-0.0961107,-0.0840504,0.254446,0.182962,0.284845,0.668062,0.73687,-0.103205,0.00800974
46128554585,1.19137,-0.508641,-0.628167,-2.87672,-0.426933,2.19637,-0.716308,0.0745467,0.0750718,0.00880991,0.0464817,0.0563352,-0.0109533,-0.00957885,0.0929225,0.093577,0.0109816,0.0579394,0.0702219,-0.0136533,-0.01194,0.254217,0.185654,0.284454,0.666349,0.738092,-0.105502,0.00830266
46413866255,1.19984,-0.50011,-0.627166,-2.87144,-0.420531,2.19512,-0.717396,0.00928874,0.00935417,0.00109774,0.00579176,0.00701953,-0.00136482,-0.00119355,-0.651541,-0.65613,-0.076999,-0.406252,-0.492372,0.0957324,0.0837195,0.253855,0.18932,0.283908,0.66402,0.739737,-0.10858,0.00873122
46454477176,1.21128,-0.488586,-0.625813,-2.86431,-0.411883,2.19344,-0.718866,0,0,0,0,0,0,0,-0.0927136,-0.0933666,-0.0109569,-0.0578092,-0.070064,0.0136226,0.0119132,0.25343,0.193036,0.28334,0.661666,0.741384,-0.111642,0.00919951
46454477176,1.22277,-0.477014,-0.624455,-2.85714,-0.4032,2.19175,-0.720342,0,0,0,0,0,0,0,0,0,0,0,0,0,0,0.253046,0.196022,0.282874,0.659776,0.742693,-0.114063,0.00959979
46739788847,1.23194,-0.467787,-0.623373,-2.85143,-0.396275,2.19041,-0.72152,0.0621985,0.0657176,0.00733557,0.0396453,0.0491185,-0.00326827,-0.0103262,0.619602,0.654658,0.0730746,0.394934,0.489303,-0.0325575,-0.102866,0.252828,0.197766,0.282594,0.658686,0.743454,-0.11538,0.00981745
47025100517,1.23719,-0.462384,-0.622752,-2.84812,-0.392228,2.18984,-0.722278,0.0734576,0.0776138,0.00866345,0.0468218,0.0580099,-0.00385989,-0.0121955,0.11194,0.118274,0.013202,0.0713506,0.0883998,-0.005882,-0.0185844,0.252509,0.200541,0.282136,0.65698,0.74466,-0.117283,0.0101242
47310412188,1.24537,-0.453748,-0.621788,-2.84291,-0.385773,2.18941,-0.723634,0.0112591,0.0118962,0.00132788,0.00717657,0.0088914,-0.000591621,-0.00186925,-0.617178,-0.652097,-0.0727887,-0.393389,-0.487388,0.0324301,0.102464,0.25202,0.204352,0.281493,0.654642,0.746303,-0.119852,0.0105725
47362059190,1.25652,-0.441967,-0.620473,-2.8358,-0.376967,2.18882,-0.725485,0,0,0,0,0,0,0,-0.111682,-0.118001,-0.0131715,-0.0711858,-0.0881956,0.00586841,0.0185414,0.251464,0.208218,0.280821,0.652274,0.747952,-0.122408,0.0110586
47362059190,1.26774,-0.430109,-0.619149,-2.82865,-0.368105,2.18823,-0.727348,0,0,0,0,0,0,0,0,0,0,0,0,0,0,0.25097,0.211341,0.280265,0.650364,0.749273,-0.124438,0.0114736
47647370860,1.27675,-0.420594,-0.618087,-2.82291,-0.360993,2.18776,-0.728843,0.0584793,0.0657176,0.00786394,0.0394369,0.0504639,5.31572e-05,-0.00942047,0.578936,0.650594,0.0778518,0.390419,0.499585,0.000526248,-0.0932612,0.250688,0.213174,0.279936,0.649305,0.749999,-0.125573,0.0117014
47932682531,1.28192,-0.414981,-0.617442,-2.81953,-0.35675,2.1876,-0.729693,0.0750475,0.0843365,0.0100919,0.05061,0.0647612,6.82176e-05,-0.0120894,0.163702,0.183965,0.0220137,0.110397,0.141265,0.000148804,-0.0263709,0.250278,0.216041,0.279418,0.647786,0.751027,-0.127233,0.0120163
48217994201,1.2898,-0.406132,-0.616383,-2.81422,-0.349956,2.1876,-0.730963,0.0165681,0.0186189,0.00222798,0.0111731,0.0142972,1.50603e-05,-0.00266897,-0.576685,-0.648064,-0.0775491,-0.388901,-0.497642,-0.000524202,0.0928985,0.249643,0.220096,0.278665,0.645642,0.75247,-0.129538,0.0124871
48298827605,1.30088,-0.393687,-0.614894,-2.80675,-0.3404,2.18761,-0.732747,0,0,0,0,0,0,0,-0.163294,-0.183506,-0.0219588,-0.110121,-0.140913,-0.000148433,0.0263052,0.248926,0.224241,0.277873,0.643452,0.753935,-0.131844,0.0129993
48298827605,1.31212,-0.381054,-0.613382,-2.79917,-0.330699,2.18762,-0.734558,0,0,0,0,0,0,0,0,0,0,0,0,0,0,0.248288,0.227638,0.277205,0.641658,0.755128,-0.133699,0.0134415
48584139276,1.32128,-0.370764,-0.612151,-2.79299,-0.322798,2.18763,-0.736033,0.0534758,0.0657176,0.00890986,0.0407969,0.0532031,-0.00262833,-0.00614847,0.526032,0.646452,0.0876446,0.401311,0.523349,-0.0258544,-0.0604814,0.247919,0.229661,0.276807,0.640699,0.755736,-0.134832,0.0136958
48869450947,1.32662,-0.364561,-0.611372,-2.78922,-0.317937,2.18754,-0.736805,0.0772014,0.0948745,0.0128629,0.0588972,0.0768077,-0.00379444,-0.00887637,0.232933,0.286256,0.03881,0.177705,0.231745,-0.0114486,-0.0267818,0.247435,0.232592,0.276236,0.63957,0.756377,-0.136558,0.0140324
49154762617,1.33412,-0.35536,-0.610127,-2.78352,-0.310496,2.18718,-0.737675,0.0237256,0.0291569,0.00395303,0.0181003,0.0236046,-0.00116611,-0.00272789,-0.523999,-0.643954,-0.087306,-0.399761,-0.521327,0.0257545,0.0602477,0.246664,0.236897,0.275374,0.637923,0.757303,-0.139051,0.0145486
49281346772,1.34505,-0.341925,-0.608306,-2.77518,-0.299619,2.18664,-0.738932,0,0,0,0,0,0,0,-0.232284,-0.285458,-0.0387018,-0.17721,-0.231099,0.0114167,0.0267072,0.24578,0.241382,0.274445,0.636203,0.758267,-0.14159,0.0151159
49281346772,1.35636,-0.328027,-0.606421,-2.76655,-0.288368,2.18609,-0.740233,0,0,0,0,0,0,0,0,0,0,0,0,0,0,0.244976,0.245133,0.273644,0.634761,0.759074,-0.143671,0.0156126
49566658443,1.36576,-0.316474,-0.604855,-2.75938,-0.279015,2.18563,-0.741313,0.0467404,0.0657176,0.00980043,0.0426655,0.0638283,-0.00617976,0.00940928,0.456726,0.642163,0.0957654,0.416908,0.623701,-0.0603859,0.0919433,0.244495,0.247448,0.273147,0.634247,0.759246,-0.145002,0.0158382
49851970113,1.3714,-0.309246,-0.603843,-2.75482,-0.272784,2.18521,-0.741435,0.0777107,0.109262,0.0162942,0.0709357,0.106121,-0.0102745,0.0156439,0.302046,0.42468,0.0633323,0.275713,0.412471,-0.0399349,0.0608047,0.24395,0.25046,0.27251,0.63457,0.758612,-0.146885,0.0159041
50137281784,1.37835,-0.299543,-0.602402,-2.74854,-0.263435,2.18432,-0.740155,0.0309703,0.0435446,0.00649378,0.0282702,0.0422927,-0.00409472,0.00623461,-0.454974,-0.639699,-0.0953979,-0.415308,-0.621308,0.0601541,-0.0915904,0.243062,0.255038,0.271514,0.635162,0.757562,-0.149712,0.016006
50326329830,1.3888,-0.284851,-0.600212,-2.739,-0.249166,2.18294,-0.738051,0,0,0,0,0,0,0,-0.301084,-0.423327,-0.0631305,-0.274834,-0.411157,0.0398076,-0.0606109,0.242005,0.259975,0.270398,0.635773,0.756451,-0.152689,0.0161548
50326329830,1.39998,-0.269131,-0.597867,-2.72879,-0.233897,2.18146,-0.735801,0,0,0,0,0,0,0,0,0,0,0,0,0,0,0.241017,0.264205,0.269407,0.636275,0.755518,-0.155182,0.0163124
50611641501,1.40949,-0.255754,-0.595872,-2.72011,-0.220905,2.18021,-0.733885,0.0289947,0.0494789,0.00876515,0.0321522,0.0657176,0.00109688,0.0382817,0.281339,0.480099,0.085049,0.311976,0.637664,0.0106432,0.371451,0.240409,0.266817,0.26879,0.637239,0.754408,-0.156621,0.0162636
50896953172,1.41514,-0.247511,-0.594594,-2.71475,-0.212269,2.17964,-0.731593,0.0351661,0.0600102,0.0106307,0.0389956,0.0797051,0.00133035,0.0464297,0.0597666,0.10199,0.0180675,0.0662751,0.135463,0.00226099,0.0789097,0.239943,0.269198,0.268249,0.639951,0.751892,-0.157708,0.0157872
51182264842,1.41968,-0.23997,-0.593287,-2.70985,-0.202621,2.17968,-0.726407,0.00617132,0.0105312,0.0018656,0.00684337,0.0139875,0.000233464,0.00814798,-0.280266,-0.478269,-0.0847249,-0.310787,-0.635234,-0.0106026,-0.370035,0.239384,0.272054,0.267593,0.64364,0.748489,-0.158944,0.0151223
51242991351,1.42497,-0.230943,-0.591687,-2.70399,-0.19063,2.17988,-0.719422,0,0,0,0,0,0,0,-0.0596285,-0.101755,-0.0180258,-0.0661219,-0.13515,-0.00225577,-0.0787274,0.238787,0.274948,0.266911,0.647338,0.745041,-0.16018,0.0144698
51242991351,1.43031,-0.221835,-0.590074,-2.69807,-0.178534,2.18009,-0.712376,0,0,0,0,0,0,0,0,0,0,0,0,0,0,0.238281,0.277289,0.266347,0.650302,0.742251,-0.16117,0.0139567
51528303022,1.43461,-0.214493,-0.588773,-2.6933,-0.168781,2.18025,-0.706695,0.0220242,0.0420919,0.00804072,0.0271783,0.0657176,0.00582017,0.0489929,0.212398,0.405927,0.0775433,0.262103,0.633769,0.0561287,0.472479,0.23801,0.278605,0.266035,0.652294,0.740403,-0.161652,0.0135824
51813614693,1.43692,-0.210396,-0.588027,-2.69064,-0.16299,2.18051,-0.702939,0.0239384,0.0457501,0.00873955,0.0295404,0.0714291,0.006326,0.0532509,0.0184245,0.0352123,0.00672653,0.0227363,0.0549766,0.00486891,0.0409854,0.237686,0.280377,0.265629,0.655712,0.737283,-0.162141,0.0128804
52098926363,1.43978,-0.204937,-0.586985,-2.68712,-0.154486,2.18126,-0.696617,0.00191413,0.00365822,0.000698822,0.00236208,0.00571154,0.000505833,0.00425799,-0.211593,-0.404389,-0.0772496,-0.26111,-0.631368,-0.0559161,-0.470689,0.237248,0.2827,0.265087,0.660183,0.733157,-0.162775,0.0119666
52123722909,1.44352,-0.197796,-0.585621,-2.68251,-0.143337,2.18225,-0.688305,0,0,0,0,0,0,0,-0.0183866,-0.0351398,-0.00671269,-0.0226895,-0.0548634,-0.00485889,-0.0409011,0.23679,0.285034,0.264531,0.664633,0.728998,-0.16341,0.0110637
52123722909,1.44726,-0.190644,-0.584255,-2.67789,-0.13217,2.18324,-0.67998,0,0,0,0,0,0,0,0,0,0,0,0,0,0,0.236416,0.286882,0.264083,0.668129,0.725693,-0.16391,0.0103589
52409034580,1.45022,-0.184993,-0.583175,-2.67424,-0.123347,2.18402,-0.673403,0.0161706,0.0350036,0.00722521,0.0218583,0.0657176,0.0122283,0.0611279,0.155036,0.335599,0.0692721,0.209568,0.630071,0.11724,0.586068,0.236228,0.287887,0.263845,0.670389,0.723574,-0.164081,0.00988379
52694346250,1.45172,-0.181971,-0.582579,-2.67232,-0.118234,2.1847,-0.669158,0.0213533,0.0462224,0.00954093,0.0288641,0.0867805,0.0161476,0.0807198,0.0495963,0.107358,0.0221602,0.0670411,0.201561,0.0375051,0.187484,0.235967,0.28949,0.26348,0.674777,0.719482,-0.164138,0.00892338
52979657921,1.4539,-0.177254,-0.581605,-2.66937,-0.109383,2.18634,-0.660928,0.00518276,0.0112189,0.00231572,0.00700573,0.0210629,0.00391925,0.0195919,-0.154452,-0.334335,-0.0690112,-0.208779,-0.627699,-0.116798,-0.583861,0.235585,0.291788,0.262948,0.681023,0.713569,-0.164226,0.00755761
53071101997,1.45702,-0.1705,-0.580211,-2.66515,-0.0967026,2.1887,-0.649134,0,0,0,0,0,0,0,-0.049473,-0.107092,-0.0221052,-0.0668745,-0.20106,-0.0374119,-0.187018,0.235183,0.294133,0.262393,0.687335,0.707481,-0.164326,0.00617892
53071101997,1.4602,-0.163618,-0.578791,-2.66085,-0.0837818,2.19111,-0.637115,0,0,0,0,0,0,0,0,0,0,0,0,0,0,0.234845,0.296055,0.26193,0.692462,0.702452,-0.164414,0.00506004
53356413668,1.4628,-0.157985,-0.577628,-2.65734,-0.0732049,2.19308,-0.627277,0.00487136,0.0154664,0.00404688,0.00690474,0.0475249,0.0204254,0.0657176,0.0464132,0.14736,0.0385577,0.0657867,0.452806,0.194608,0.626142,0.23469,0.297015,0.261698,0.695621,0.699358,-0.164286,0.00436553
53641725339,1.46398,-0.155256,-0.577034,-2.65573,-0.0674233,2.19456,-0.621132,0.00428088,0.0135916,0.00355633,0.00606778,0.0417642,0.0179495,0.0577516,-0.00561544,-0.0178288,-0.00466501,-0.0079594,-0.0547841,-0.0235452,-0.0757556,0.234607,0.29779,0.261515,0.699729,0.695383,-0.163737,0.00344909
53892452898,1.46463,-0.153268,-0.576521,-2.65482,-0.0614684,2.19706,-0.613006,0,0,0,0,0,0,0,-0.0406438,-0.129042,-0.0337647,-0.0576091,-0.39652,-0.170417,-0.548309,0.234519,0.298687,0.261303,0.704608,0.690602,-0.16307,0.00235504
53892452898,1.46535,-0.150983,-0.575923,-2.6538,-0.0544453,2.20008,-0.603295,0,0,0,0,0,0,0,0,0,0,0,0,0,0,0.234433,0.299581,0.261091,0.709454,0.685781,-0.162413,0.00126283
54177764569,1.46607,-0.148698,-0.575325,-2.65278,-0.0474245,2.2031,-0.593586,0.00470242,0.0145419,0.00444039,0.00554019,0.0455723,0.0238717,0.0657176,0.0445626,0.137806,0.0420794,0.0525018,0.431867,0.226221,0.622774,0.234346,0.300474,0.260878,0.714255,0.680946,-0.161713,0.000179748
54463076239,1.46678,-0.146446,-0.574713,-2.65181,-0.0404735,2.20624,-0.583878,0.00520247,0.0160882,0.00491257,0.00612933,0.0504183,0.0264102,0.0727059,0.00472985,0.0146267,0.00446629,0.00557251,0.0458381,0.0240109,0.0661009,0.234249,0.301417,0.260655,0.719253,0.675871,-0.160849,-0.000943077
54748387910,1.46752,-0.144154,-0.574032,-2.65091,-0.0333149,2.20987,-0.573633,0.000500045,0.00154635,0.000472181,0.000589132,0.00484605,0.00253846,0.00698826,-0.0443967,-0.137293,-0.0419228,-0.0523063,-0.430259,-0.225379,-0.620456,0.234144,0.302451,0.260409,0.724703,0.670256,-0.159865,-0.00217221
54778727314,1.46833,-0.141658,-0.57327,-2.64996,-0.0254944,2.21396,-0.562355,0,0,0,0,0,0,0,-0.00472011,-0.0145966,-0.00445709,-0.00556104,-0.0457437,-0.0239615,-0.0659648,0.234042,0.303484,0.260162,0.730127,0.664572,-0.158893,-0.00340406
54778727314,1.46914,-0.139156,-0.572506,-2.649,-0.0176529,2.21807,-0.551047,0,0,0,0,0,0,0,0,0,0,0,0,0,0,0.233965,0.3043,0.259966,0.734397,0.660027,-0.158132,-0.0043801
55064038984,1.46978,-0.137173,-0.5719,-2.64825,-0.0114367,2.22133,-0.542083,0.00455212,0.0136973,0.00492759,0.00425609,0.0430959,0.027117,0.0657176,0.0428894,0.129054,0.046427,0.0401002,0.406042,0.255492,0.619181,0.233917,0.304775,0.259852,0.736849,0.657403,-0.157642,-0.00493259
55349350655,1.47014,-0.136049,-0.571531,-2.64785,-0.00791041,2.22334,-0.53687,0.00457535,0.0137672,0.00495274,0.00427781,0.0433158,0.0272554,0.066053,0.000218453,0.000657323,0.000236472,0.000204247,0.00206814,0.00130133,0.00315374,0.233837,0.305525,0.259674,0.740671,0.653296,-0.156771,-0.00577802
55634662326,1.47072,-0.134331,-0.570913,-2.64732,-0.00250482,2.22674,-0.528629,2.32289e-05,6.98955e-05,2.51449e-05,2.17183e-05,0.000219913,0.000138374,0.000335348,-0.0427306,-0.128576,-0.0462552,-0.0399518,-0.40454,-0.254546,-0.616889,0.233737,0.306485,0.259444,0.745547,0.647982,-0.155663,-0.00686444
55636118234,1.47145,-0.132125,-0.570119,-2.64664,0.00443505,2.2311,-0.518046,0,0,0,0,0,0,0,-0.000218047,-0.000656101,-0.000236032,-0.000203867,-0.00206429,-0.00129891,-0.00314788,0.233641,0.30744,0.259214,0.750388,0.642623,-0.154567,-0.00795191
55636118234,1.47218,-0.12992,-0.569326,-2.64595,0.011375,2.23547,-0.507463,0,0,0,0,0,0,0,0,0,0,0,0,0,0,0.233569,0.308181,0.259035,0.754131,0.638418,-0.153722,-0.00879919
55921429905,1.47275,-0.128202,-0.568708,-2.64542,0.0167779,2.23887,-0.499224,0.00163386,0.00804176,0.00442192,-0.000324486,0.0333113,0.0300754,0.0657176,0.0153086,0.0753477,0.0414314,-0.00304028,0.312112,0.281793,0.615744,0.233541,0.308545,0.258948,0.75622,0.636069,-0.15317,-0.00924105
56206741575,1.47297,-0.127422,-0.568373,-2.64527,0.0195186,2.24092,-0.494513,0.00325536,0.0160226,0.00881037,-0.000646515,0.0663705,0.0599232,0.130938,0.0151647,0.0746394,0.0410419,-0.0030117,0.309178,0.279144,0.609956,0.233515,0.309148,0.258807,0.760273,0.631506,-0.151934,-0.0100368
56492053246,1.47321,-0.126275,-0.567742,-2.64532,0.0242707,2.24521,-0.485138,0.00162149,0.00798088,0.00438845,-0.000322029,0.0330591,0.0298477,0.0652201,-0.0152522,-0.0750703,-0.0412789,0.00302909,-0.310963,-0.280756,-0.613478,0.233476,0.310193,0.258563,0.767287,0.623459,-0.149796,-0.0114365
56775204962,1.47361,-0.124272,-0.56664,-2.6454,0.0325687,2.2527,-0.468767,0,0,0,0,0,0,0,-0.0151092,-0.0743662,-0.0408917,0.00300068,-0.308046,-0.278122,-0.607723,0.233444,0.311371,0.258288,0.77519,0.614156,-0.147387,-0.0130485
56775204962,1.47408,-0.121986,-0.565384,-2.64549,0.0420369,2.26125,-0.450088,0,0,0,0,0,0,0,0,0,0,0,0,0,0,0.233425,0.312389,0.25805,0.782012,0.605915,-0.145309,-0.014471
57060516632,1.47449,-0.119987,-0.564284,-2.64557,0.0503171,2.26873,-0.433753,-0.00129435,0.00249515,0.00393563,-0.00489895,0.0223284,0.0327961,0.0657176,-0.0120387,0.0232072,0.0366051,-0.0455649,0.207675,0.305035,0.611236,0.233431,0.313048,0.257896,0.786776,0.600062,-0.143771,-0.015437
57345828303,1.47467,-0.118759,-0.563518,-2.64579,0.0558295,2.27415,-0.422105,-0.00217803,0.00419862,0.00662253,-0.00824353,0.0375722,0.0551863,0.110584,-0.00820395,0.0158149,0.024945,-0.0310508,0.141523,0.20787,0.416535,0.233478,0.31352,0.257789,0.791321,0.59445,-0.142045,-0.0162416
57631139973,1.47455,-0.118126,-0.562808,-2.6465,0.0601448,2.27983,-0.410539,-0.000883672,0.00170347,0.0026869,-0.00334458,0.0152439,0.0223903,0.0448663,0.0119947,-0.0231225,-0.0364714,0.0453984,-0.206916,-0.30392,-0.609003,0.23356,0.31404,0.257674,0.797018,0.58731,-0.139762,-0.0172192
57825925931,1.47425,-0.117564,-0.561922,-2.6476,0.0651736,2.28722,-0.395738,0,0,0,0,0,0,0,0.00817877,-0.0157663,-0.0248684,0.0309555,-0.141088,-0.207232,-0.415256,0.233655,0.314589,0.257555,0.803063,0.579565,-0.13733,-0.0182905
57825925931,1.47394,-0.11696,-0.56097,-2.64878,0.0705736,2.29515,-0.379845,0,0,0,0,0,0,0,0,0,0,0,0,0,0,0.233741,0.31505,0.257457,0.808157,0.5729,-0.135272,-0.0192212
58111237602,1.47367,-0.116446,-0.560159,-2.64979,0.0751773,2.30191,-0.366295,-0.0014126,0.00242742,0.00469573,-0.00549227,0.0179801,0.0345853,0.0657176,-0.0130504,0.0224259,0.0433818,-0.0507407,0.16611,0.319519,0.607137,0.233796,0.315354,0.257392,0.811468,0.56851,-0.133879,-0.0198017
58396549273,1.47349,-0.116107,-0.559594,-2.65049,0.0780733,2.30645,-0.357315,-0.00193628,0.00332731,0.00643652,-0.00752836,0.0246457,0.0474067,0.0900804,-0.00482924,0.0082986,0.0160532,-0.0187764,0.0614684,0.118236,0.224668,0.233848,0.315697,0.257314,0.815037,0.563752,-0.132233,-0.0203369
58681860943,1.47328,-0.115737,-0.558892,-2.65131,0.0808825,2.31169,-0.347312,-0.000523677,0.000899892,0.0017408,-0.00203609,0.00666557,0.0128214,0.0243628,0.013003,-0.0223445,-0.0432244,0.0505566,-0.165508,-0.318359,-0.604933,0.233916,0.316138,0.257215,0.819608,0.557566,-0.130081,-0.0210217
58787631412,1.473,-0.115257,-0.557963,-2.6524,0.0844372,2.31853,-0.334319,0,0,0,0,0,0,0,0.00481723,-0.00827797,-0.0160133,0.0187297,-0.0613156,-0.117942,-0.224109,0.233989,0.316584,0.257117,0.824242,0.551178,-0.127889,-0.0217433
58787631412,1.47271,-0.114765,-0.557012,-2.65351,0.08808,2.32553,-0.321005,0,0,0,0,0,0,0,0,0,0,0,0,0,0,0.234052,0.316947,0.257039,0.828019,0.54588,-0.126092,-0.0223525
59072943082,1.47248,-0.11436,-0.556228,-2.65443,0.09108,2.33131,-0.31004,-0.00161684,0.00257452,0.00540624,-0.00569509,0.0133418,0.0352651,0.0657176,-0.0148461,0.0236398,0.0496412,-0.0522935,0.122507,0.323811,0.603432,0.234089,0.317169,0.25699,0.830289,0.542669,-0.124966,-0.0226819
59358254753,1.47233,-0.114106,-0.555721,-2.655,0.0927591,2.33488,-0.303298,-0.00274583,0.00437222,0.00918124,-0.00967179,0.022658,0.0598896,0.111606,-0.0103478,0.016477,0.0346002,-0.0364489,0.0853883,0.225698,0.420596,0.234134,0.317488,0.256915,0.833404,0.538241,-0.123307,-0.0230292
59643566424,1.47209,-0.113731,-0.554936,-2.65583,0.0947273,2.34002,-0.293713,-0.00112899,0.0017977,0.003775,-0.0039767,0.00931616,0.0246245,0.0458885,0.0147926,-0.0235545,-0.0494621,0.0521049,-0.122065,-0.322643,-0.601255,0.234205,0.317977,0.256802,0.838181,0.531337,-0.120736,-0.0235825
59842790256,1.47173,-0.113148,-0.553712,-2.65712,0.0977478,2.348,-0.278834,0,0,0,0,0,0,0,0.0103162,-0.0164266,-0.0344943,0.0363374,-0.0851271,-0.225008,-0.419309,0.234285,0.318497,0.256685,0.843259,0.52384,-0.11798,-0.0242128
59842790256,1.47133,-0.11252,-0.552394,-2.65851,0.101002,2.3566,-0.262806,0,0,0,0,0,0,0,0,0,0,0,0,0,0,0.234356,0.318934,0.25659,0.847537,0.517392,-0.115639,-0.0247789
60128101927,1.47099,-0.111984,-0.551268,-2.65969,0.10378,2.36395,-0.249121,-0.00194371,0.0028833,0.00607284,-0.00555611,0.00823471,0.0348801,0.0657176,-0.0177289,0.026299,0.0553912,-0.0506781,0.0751099,0.318146,0.599419,0.234402,0.319222,0.256527,0.850316,0.513146,-0.114073,-0.0251098
60413413598,1.47076,-0.111616,-0.550495,-2.66047,0.105446,2.36882,-0.240018,-0.00320133,0.00474885,0.0100021,-0.00915101,0.0135627,0.0574481,0.108238,-0.0114503,0.0169854,0.0357747,-0.0327307,0.0485102,0.205476,0.387138,0.234449,0.319551,0.256448,0.853352,0.508476,-0.112254,-0.0253348
60698725268,1.47046,-0.111167,-0.549548,-2.66135,0.106834,2.37433,-0.229646,-0.00125762,0.00186555,0.00392923,-0.0035949,0.005328,0.022568,0.0425204,0.0176653,-0.0262048,-0.0551927,0.0504965,-0.0748408,-0.317006,-0.597271,0.234514,0.320009,0.256341,0.857553,0.50191,-0.109691,-0.0256401
60883326784,1.47003,-0.110526,-0.548199,-2.66259,0.108664,2.38208,-0.215041,0,0,0,0,0,0,0,0.0114165,-0.0169353,-0.0356693,0.0326342,-0.0483672,-0.204871,-0.385997,0.234584,0.320493,0.25623,0.861974,0.494857,-0.106966,-0.026004
60883326784,1.46956,-0.109842,-0.546758,-2.66391,0.110618,2.39035,-0.199454,0,0,0,0,0,0,0,0,0,0,0,0,0,0,0.234644,0.3209,0.256141,0.865679,0.488829,-0.104658,-0.0263438
61168638454,1.46917,-0.109261,-0.545535,-2.66503,0.112277,2.39738,-0.186211,-0.00234774,0.00324599,0.00657889,-0.00515395,0.00340508,0.0335756,0.0657176,-0.0212745,0.0294142,0.059616,-0.0467036,0.0308558,0.304252,0.595514,0.234683,0.321164,0.256081,0.868054,0.484912,-0.103143,-0.0265238
61453950125,1.4689,-0.108866,-0.544712,-2.66575,0.113195,2.40195,-0.177509,-0.00361697,0.00500083,0.0101356,-0.00794028,0.00524593,0.0517272,0.101246,-0.0114809,0.0158735,0.0321721,-0.0252039,0.0166515,0.164191,0.321372,0.234727,0.321468,0.256008,0.870699,0.480518,-0.101381,-0.0265891
61739261796,1.46855,-0.108372,-0.543708,-2.66655,0.113791,2.40714,-0.1674,-0.00126923,0.00175484,0.00355668,-0.00278633,0.00184085,0.0181516,0.0355282,0.0211988,-0.0293095,-0.0594038,0.0465374,-0.030746,-0.303169,-0.593394,0.234786,0.321887,0.255908,0.874303,0.47444,-0.0989434,-0.0266758
61893506885,1.46805,-0.10768,-0.542306,-2.66765,0.114517,2.41429,-0.153395,0,0,0,0,0,0,0,0.0114495,-0.01583,-0.032084,0.0251348,-0.0166059,-0.163741,-0.320492,0.234846,0.322322,0.255807,0.878029,0.468033,-0.0963925,-0.0268046
61893506885,1.46752,-0.106955,-0.540835,-2.6688,0.115278,2.4218,-0.138704,0,0,0,0,0,0,0,0,0,0,0,0,0,0,0.234896,0.322686,0.255726,0.881119,0.462622,-0.0942539,-0.0269426
62178818556,1.46708,-0.106345,-0.539599,-2.66977,0.115918,2.42811,-0.126357,-0.00356387,0.00431449,0.00604472,-0.00318907,-0.000692988,0.0303739,0.0657176,-0.0320918,0.0388509,0.0544312,-0.0287168,-0.00624019,0.27351,0.591771,0.234955,0.322911,0.255678,0.883064,0.459172,-0.092901,-0.026989
62464130227,1.46675,-0.105916,-0.538827,-2.67032,0.116181,2.43203,-0.118451,-0.00712775,0.00862898,0.0120894,-0.00637814,-0.00138598,0.0607478,0.131435,-0.032035,0.0387821,0.0543348,-0.0286659,-0.00622913,0.273025,0.590722,0.235106,0.323183,0.255626,0.885479,0.454842,-0.0912199,-0.0269109
62749441897,1.46622,-0.105267,-0.537896,-2.67082,0.116118,2.43672,-0.108391,-0.00385106,0.00466216,0.00653182,-0.00344606,-0.000748831,0.0328215,0.0710133,0.0294014,-0.0355939,-0.0498679,0.0263093,0.00571704,-0.25058,-0.54216,0.235369,0.32363,0.255543,0.889445,0.447606,-0.0884271,-0.0267941
63034753568,1.46531,-0.104166,-0.536353,-2.67164,0.115941,2.44447,-0.0916143,-0.000287186,0.000347673,0.000487099,-0.000256984,-5.58428e-05,0.00244761,0.0052957,0.0319218,-0.0386451,-0.0541429,0.0285647,0.00620713,-0.272061,-0.588636,0.23567,0.324148,0.255453,0.893966,0.439151,-0.0851882,-0.0267226
63057744724,1.46425,-0.102886,-0.534559,-2.67258,0.115735,2.45348,-0.0721164,0,0,0,0,0,0,0,0.00257198,-0.00311368,-0.00436235,0.00230149,0.000500116,-0.0219203,-0.0474271,0.235932,0.324601,0.255378,0.897869,0.431667,-0.0823434,-0.0267166
63057744724,1.46332,-0.101758,-0.53298,-2.67342,0.115554,2.46142,-0.0549471,0,0,0,0,0,0,0,0,0,0,0,0,0,0,0.236085,0.324867,0.255336,0.90014,0.427232,-0.080667,-0.0267381
63343056395,1.46277,-0.101093,-0.532048,-2.67391,0.115447,2.4661,-0.044809,-0.00424434,0.00471691,0.00618986,-0.00229621,-0.00615266,0.0274879,0.0657176,-0.0379444,0.0421692,0.0553373,-0.0205282,-0.0550048,0.245742,0.587515,0.236167,0.324997,0.255315,0.901237,0.42507,-0.0798388,-0.0266883
63628368065,1.46247,-0.100745,-0.531575,-2.67412,0.115199,2.46835,-0.0397286,-0.00848868,0.00943382,0.0123797,-0.00459243,-0.0123053,0.0549758,0.131435,-0.0378776,0.042095,0.05524,-0.020492,-0.054908,0.24531,0.586482,0.236327,0.325228,0.255272,0.903186,0.421211,-0.0783321,-0.0264637
63913679736,1.46187,-0.100071,-0.530691,-2.67445,0.114321,2.47228,-0.0303384,-0.00481625,0.0053525,0.00702392,-0.00260562,-0.00698171,0.0311918,0.0745728,0.0327162,-0.0363589,-0.0477127,0.0176997,0.0474259,-0.211882,-0.506564,0.236615,0.325646,0.255199,0.906667,0.414196,-0.0756037,-0.0260986
64198991406,1.46077,-0.0988496,-0.529088,-2.67505,0.112728,2.47939,-0.0133218,-0.000571908,0.000635586,0.00083406,-0.000309406,-0.000829047,0.00370389,0.00885519,0.0377448,-0.0419474,-0.0550463,0.0204202,0.0547155,-0.244449,-0.584425,0.236946,0.326137,0.255117,0.910671,0.405922,-0.0724025,-0.0257397
64237436056,1.45948,-0.0974147,-0.527205,-2.67575,0.110856,2.48776,0.00667021,0,0,0,0,0,0,0,0.00508477,-0.00565091,-0.00741552,0.00275089,0.00737096,-0.0329308,-0.0787304,0.237234,0.326572,0.255049,0.914139,0.398571,-0.0695745,-0.0254852
64237436056,1.45833,-0.0961449,-0.525539,-2.67636,0.1092,2.49516,0.024361,0,0,0,0,0,0,0,0,0,0,0,0,0,0,0.237404,0.326834,0.255009,0.916195,0.394129,-0.0678731,-0.0253603
64522747726,1.45765,-0.0953798,-0.524535,-2.67674,0.108202,2.49961,0.0350205,-0.00470223,0.0048811,0.00629479,-0.00163693,-0.0108256,0.0245805,0.0657176,-0.0417338,0.0433213,0.0558683,-0.0145283,-0.0960804,0.21816,0.583265,0.23749,0.326962,0.254989,0.917193,0.391951,-0.0670328,-0.0252468
64808059397,1.45728,-0.0949891,-0.524026,-2.6769,0.107533,2.50175,0.0403822,-0.00774196,0.00803646,0.010364,-0.00269511,-0.0178237,0.0404705,0.1082,-0.0269315,0.0279559,0.0360526,-0.00937531,-0.0620022,0.140782,0.37639,0.237638,0.327176,0.25495,0.91885,0.388314,-0.0656126,-0.0249338
65093371067,1.45662,-0.0943006,-0.523138,-2.67713,0.106009,2.50522,0.0496533,-0.00303973,0.00315536,0.00406923,-0.00105818,-0.00699813,0.01589,0.0424828,0.0415883,-0.0431703,-0.0556734,0.0144776,0.0957454,-0.217399,-0.581231,0.237868,0.327513,0.25489,0.921423,0.382576,-0.0633767,-0.0244723
65277809228,1.45558,-0.0932161,-0.521739,-2.6775,0.103604,2.51068,0.0642557,0,0,0,0,0,0,0,0.0268542,-0.0278758,-0.0359493,0.00934843,0.0618244,-0.140378,-0.375311,0.238109,0.327874,0.254828,0.92412,0.376438,-0.0609921,-0.0240247
65277809228,1.45446,-0.0920587,-0.520247,-2.67788,0.101037,2.51651,0.0798376,0,0,0,0,0,0,0,0,0,0,0,0,0,0,0.23831,0.328181,0.254778,0.926372,0.371211,-0.0589677,-0.0236808
65563120898,1.45351,-0.0910755,-0.518979,-2.67821,0.0988562,2.52146,0.0930758,-0.00511558,0.0049658,0.00627469,-0.000960868,-0.014738,0.0215722,0.0657176,-0.0451145,0.0437936,0.0553368,-0.00847395,-0.129975,0.190246,0.579567,0.238441,0.328379,0.254745,0.927812,0.367821,-0.0576567,-0.0234214
65848432569,1.45288,-0.0904265,-0.518146,-2.67841,0.097284,2.52461,0.101773,-0.00993328,0.00964244,0.012184,-0.00186579,-0.0286179,0.0418882,0.127609,-0.0424138,0.041172,0.0520242,-0.00796667,-0.122195,0.178857,0.544872,0.238599,0.328605,0.254703,0.929452,0.36392,-0.0561469,-0.0229863
66133744240,1.45208,-0.0896456,-0.517158,-2.67857,0.0950211,2.52805,0.112123,-0.0048177,0.00467664,0.00590932,-0.000904918,-0.0138798,0.020316,0.061891,0.0449582,-0.0436419,-0.0551451,0.00844458,0.129525,-0.189587,-0.577559,0.238841,0.328955,0.254639,0.931955,0.357864,-0.0538051,-0.0223145
66402442585,1.45082,-0.0884269,-0.515618,-2.6788,0.0914039,2.53335,0.128253,0,0,0,0,0,0,0,0.0422714,-0.0410337,-0.0518495,0.00793991,0.121784,-0.178257,-0.543042,0.239107,0.329353,0.254568,0.934722,0.351012,-0.051161,-0.0216142
66402442585,1.4494,-0.087051,-0.513879,-2.67907,0.0873205,2.53932,0.146461,0,0,0,0,0,0,0,0,0,0,0,0,0,0,0.239334,0.329701,0.254509,0.937082,0.345031,-0.0488576,-0.0210544
66687754256,1.44817,-0.0858523,-0.512365,-2.6793,0.0837627,2.54453,0.162325,-0.00569407,0.00700135,0.00544551,0.00205719,-0.016508,0.0179407,0.0657176,-0.0498745,0.061325,0.0476974,0.018019,-0.144594,0.157143,0.575622,0.239521,0.329955,0.254468,0.938717,0.340811,-0.0472541,-0.020641
66973065927,1.44728,-0.0849348,-0.511327,-2.67936,0.0811922,2.54807,0.173506,-0.0113881,0.0140027,0.010891,0.00411438,-0.033016,0.0358814,0.131435,-0.0497886,0.0612193,0.0476151,0.0179879,-0.144345,0.156872,0.57463,0.239805,0.330233,0.25443,0.940364,0.33649,-0.0456679,-0.0201011
67258377597,1.4463,-0.083779,-0.510351,-2.67909,0.078371,2.55131,0.18496,-0.00764445,0.00939949,0.00731074,0.00276183,-0.0221625,0.0240859,0.0882276,0.0326783,-0.0401808,-0.0312518,-0.0118062,0.0947396,-0.102962,-0.377154,0.240286,0.330679,0.25437,0.942886,0.329741,-0.0432166,-0.0192385
67543689268,1.44476,-0.0818747,-0.50887,-2.67853,0.0738811,2.55619,0.202834,-0.00195037,0.00239815,0.00186523,0.000704643,-0.00565444,0.00614517,0.02251,0.0496175,-0.0610089,-0.0474516,-0.0179261,0.143849,-0.156333,-0.572656,0.240865,0.331227,0.254298,0.945885,0.321483,-0.0402207,-0.0182591
67641416150,1.44286,-0.0795497,-0.507062,-2.67785,0.068399,2.56215,0.224658,0,0,0,0,0,0,0,0.0169853,-0.0208849,-0.0162439,-0.00613657,0.0492432,-0.0535168,-0.196035,0.24138,0.331726,0.254233,0.948524,0.313993,-0.0375074,-0.0174425
67641416150,1.44115,-0.077445,-0.505425,-2.67723,0.0634367,2.56754,0.244413,0,0,0,0,0,0,0,0,0,0,0,0,0,0,0.241705,0.332046,0.254192,0.950168,0.309213,-0.0357781,-0.0169567
67926727821,1.44006,-0.0761038,-0.504382,-2.67684,0.0602743,2.57098,0.257002,-0.00589632,0.00823964,0.00455581,0.00432652,-0.0186184,0.0142999,0.0657176,-0.0512617,0.0716341,0.0396075,0.0376141,-0.161865,0.124321,0.571338,0.241891,0.332213,0.254172,0.950993,0.306782,-0.0349148,-0.0166726
68212039491,1.4395,-0.0753742,-0.50388,-2.67656,0.0585829,2.57261,0.263436,-0.0117926,0.0164793,0.00911163,0.00865305,-0.0372368,0.0285998,0.131435,-0.051174,0.0715116,0.0395397,0.0375497,-0.161589,0.124109,0.570361,0.242219,0.332467,0.254146,0.952189,0.303216,-0.0336882,-0.0161478
68497351162,1.43864,-0.0741838,-0.503219,-2.67593,0.0558915,2.57469,0.272951,-0.00642036,0.00897194,0.00496071,0.00471104,-0.0202731,0.0155708,0.0715583,0.0465462,-0.0650447,-0.0359641,-0.0341541,0.146976,-0.112885,-0.518782,0.242794,0.332914,0.254098,0.954247,0.296962,-0.0315379,-0.0152539
68782662832,1.43715,-0.07209,-0.502064,-2.67483,0.0511618,2.57831,0.289631,-0.000524035,0.000732297,0.000404897,0.000384519,-0.00165471,0.0012709,0.00584064,0.0509994,-0.0712677,-0.0394049,-0.0374217,0.161037,-0.123685,-0.568416,0.243461,0.333441,0.254042,0.956599,0.28961,-0.0290085,-0.0142627
68808019870,1.43539,-0.0696358,-0.500707,-2.67354,0.0456163,2.58257,0.309205,0,0,0,0,0,0,0,0.00453188,-0.00633295,-0.00350157,-0.00332534,0.01431,-0.0109908,-0.0505102,0.244043,0.333908,0.253991,0.958615,0.283123,-0.0267761,-0.0134381
68808019870,1.43384,-0.0674732,-0.499512,-2.67241,0.0407296,2.58632,0.326453,0,0,0,0,0,0,0,0,0,0,0,0,0,0,0.244385,0.334185,0.25396,0.959786,0.279277,-0.0254525,-0.0129712
69093331541,1.43293,-0.0661921,-0.498803,-2.67174,0.0378349,2.58854,0.336671,-0.00569134,0.00796052,0.00398653,0.00492241,-0.0214111,0.0109758,0.0657176,-0.0491353,0.0687258,0.0344171,0.0424968,-0.184849,0.0947578,0.567362,0.244556,0.33432,0.253946,0.960355,0.277384,-0.0248111,-0.0126999
69378643211,1.43247,-0.0655598,-0.498468,-2.67138,0.036284,2.58954,0.341793,-0.0110893,0.0155107,0.00776755,0.00959106,-0.0417184,0.0213858,0.128047,-0.046523,0.0650721,0.0325873,0.0402375,-0.175022,0.0897201,0.537199,0.244866,0.334559,0.25392,0.961364,0.27399,-0.0236822,-0.0121184
69663954882,1.43166,-0.0644223,-0.497899,-2.67067,0.0332253,2.59111,0.351184,-0.00539794,0.00755014,0.00378102,0.00466865,-0.0203073,0.01041,0.0623297,0.0489686,-0.0684927,-0.0343003,-0.0423527,0.184222,-0.0944363,-0.565437,0.245398,0.33497,0.253875,0.963069,0.268145,-0.0217345,-0.0111458
69934558120,1.43026,-0.0624646,-0.496918,-2.66946,0.0279599,2.59381,0.367345,0,0,0,0,0,0,0,0.0463695,-0.0648574,-0.0324798,-0.0401048,0.174444,-0.0894241,-0.535427,0.245994,0.335437,0.253823,0.964945,0.261531,-0.0195252,-0.0100901
69934558120,1.42868,-0.0602515,-0.49581,-2.66809,0.0220075,2.59686,0.385615,0,0,0,0,0,0,0,0,0,0,0,0,0,0,0.246509,0.335845,0.253777,0.966537,0.255759,-0.0175936,-0.00920768
70219869790,1.4273,-0.0583224,-0.494844,-2.6669,0.0168187,2.59952,0.401541,-0.00633156,0.0144412,0.00164067,0.0131718,-0.0188169,0.00641097,0.0657176,-0.0542976,0.123843,0.0140699,0.112958,-0.161368,0.0549786,0.563575,0.246965,0.336168,0.253746,0.96766,0.251589,-0.0162382,-0.00856138
70505181461,1.4263,-0.0567295,-0.494246,-2.66577,0.0132486,2.60123,0.412783,-0.0109474,0.0249691,0.00283676,0.0227744,-0.0325349,0.0110847,0.113627,-0.0395175,0.0901322,0.01024,0.08221,-0.117443,0.0400131,0.410166,0.247708,0.336594,0.253722,0.968847,0.247087,-0.014893,-0.00779053
70790493131,1.42523,-0.0544329,-0.493886,-2.66375,0.00990203,2.60249,0.42418,-0.00461586,0.010528,0.00119609,0.00960259,-0.013718,0.00467376,0.0479097,0.0541146,-0.123426,-0.0140225,-0.112577,0.160824,-0.0547934,-0.561676,0.248799,0.337195,0.253691,0.970406,0.241027,-0.0131215,-0.0067419
70998492267,1.42378,-0.0511257,-0.49351,-2.66073,0.00559277,2.60396,0.43923,0,0,0,0,0,0,0,0.0394025,-0.08987,-0.0102102,-0.0819708,0.117101,-0.0398967,-0.408973,0.249979,0.337845,0.253655,0.972045,0.234459,-0.0111933,-0.00563525
70998492267,1.42221,-0.0475449,-0.493103,-2.65746,0.00092684,2.60555,0.455526,0,0,0,0,0,0,0,0,0,0,0,0,0,0,0.250988,0.338401,0.253621,0.973408,0.22883,-0.00953433,-0.00471158
71283803937,1.42086,-0.044479,-0.492755,-2.65467,-0.003068,2.60691,0.469478,-0.00660868,0.0220473,-0.00117509,0.0228102,-0.0143397,0.00138289,0.0657176,-0.056319,0.187887,-0.0100141,0.194388,-0.122202,0.011785,0.560044,0.251771,0.338815,0.253599,0.97433,0.224932,-0.00843372,-0.00406307
71569115608,1.41995,-0.042153,-0.492622,-2.65245,-0.00558564,2.60764,0.478828,-0.00969216,0.0323341,-0.00172337,0.033453,-0.0210303,0.00202812,0.0963802,-0.0262333,0.0875174,-0.00466457,0.0905456,-0.0569217,0.00548943,0.260868,0.252933,0.339385,0.253582,0.9754,0.220301,-0.00725954,-0.00324414
71854427278,1.41892,-0.038846,-0.492752,-2.64906,-0.00791518,2.60796,0.489115,-0.00308349,0.0102869,-0.000548277,0.0106428,-0.00669062,0.000645231,0.0306626,0.0561304,-0.187257,0.0099806,-0.193737,0.121793,-0.0117455,-0.558169,0.254541,0.340162,0.253559,0.976793,0.2141,-0.00571023,-0.00214829
71987548451,1.41756,-0.0342926,-0.492995,-2.64435,-0.0108767,2.60824,0.502688,0,0,0,0,0,0,0,0.026169,-0.0873026,0.00465313,-0.0903234,0.056782,-0.00547596,-0.260228,0.256209,0.340965,0.253529,0.978192,0.207661,-0.00408973,-0.00102812
71987548451,1.41614,-0.0295681,-0.493247,-2.63946,-0.0139495,2.60854,0.51677,0,0,0,0,0,0,0,0,0,0,0,0,0,0,0.257599,0.341632,0.253501,0.979322,0.202291,-0.00272898,-0.000107602
72272860122,1.41496,-0.0256299,-0.493457,-2.63539,-0.016511,2.60879,0.528509,-0.00966533,0.057638,-0.0120716,0.0657176,0.0416523,-0.0144782,0.011479,-0.0818908,0.488345,-0.102278,0.556801,0.352905,-0.122668,0.0972574,0.258998,0.342228,0.25349,0.980045,0.198763,-0.00206924,0.000366459
72558171793,1.41411,-0.0218831,-0.493978,-2.63129,-0.0161255,2.60837,0.53396,-0.00825467,0.0492257,-0.0103097,0.0561261,0.0355731,-0.0123651,0.00980363,0.0119321,-0.0711555,0.0149027,-0.08113,-0.0514208,0.0178737,-0.0141711,0.261739,0.343288,0.253492,0.98091,0.194455,-0.00176045,0.000677671
72801842014,1.4129,-0.0148392,-0.495426,-2.62328,-0.0112702,2.60666,0.535839,0,0,0,0,0,0,0,0.0697229,-0.415784,0.0870808,-0.474068,-0.300467,0.104441,-0.0828062,0.265001,0.344532,0.253488,0.981878,0.189506,-0.00144419,0.000999903
72801842014,1.4115,-0.00646718,-0.497179,-2.61373,-0.00522016,2.60456,0.537506,0,0,0,0,0,0,0,0,0,0,0,0,0,0,0.268259,0.345764,0.253476,0.982817,0.184574,-0.00111409,0.00131246
73087153684,1.4101,0.00190486,-0.498933,-2.60419,0.000829925,2.60245,0.539174,-0.0118691,0.0556191,-0.00979747,0.0657176,0.0642422,-0.0211199,-0.0364474,-0.100085,0.469004,-0.0826166,0.55416,0.541718,-0.178092,-0.30734,0.271509,0.34696,0.253464,0.983636,0.18016,-0.000985317,0.00150297
73372465355,1.40861,0.0102049,-0.500605,-2.59464,0.00768565,2.60011,0.539132,-0.0145261,0.0680702,-0.0119908,0.0804294,0.0786237,-0.0258479,-0.0446066,-0.0223683,0.104819,-0.0184642,0.123851,0.12107,-0.0398023,-0.0686883,0.275029,0.348184,0.253459,0.984264,0.176695,-0.00139455,0.00139548
73657777026,1.4068,0.0190412,-0.502212,-2.58427,0.0172436,2.59695,0.534622,-0.00265706,0.0124511,-0.0021933,0.0147118,0.0143815,-0.00472799,-0.00815926,0.0997536,-0.46745,0.0823428,-0.552323,-0.539923,0.177502,0.306322,0.279103,0.349573,0.253449,0.984896,0.173129,-0.00203885,0.00113457
73721648106,1.40462,0.0292498,-0.50401,-2.5722,0.029035,2.59307,0.527933,0,0,0,0,0,0,0,0.022323,-0.104607,0.0184268,-0.1236,-0.120825,0.0397217,0.0685491,0.283201,0.350958,0.253427,0.985514,0.16957,-0.00267426,0.000826696
73721648106,1.40242,0.0395579,-0.505826,-2.56002,0.0409412,2.58916,0.521178,0,0,0,0,0,0,0,0,0,0,0,0,0,0,0.286499,0.352065,0.2534,0.985998,0.166725,-0.00317603,0.000545521
74006959776,1.40064,0.0478824,-0.507292,-2.55019,0.0505563,2.586,0.515723,-0.0167132,0.052278,-0.00441971,0.0635837,0.0657176,-0.0242208,-0.0492394,-0.140182,0.438481,-0.0370703,0.533308,0.551206,-0.203152,-0.412995,0.288426,0.352702,0.253389,0.986244,0.165256,-0.00353516,0.000354897
74292271447,1.39941,0.0527179,-0.507973,-2.54441,0.0563318,2.58401,0.51202,-0.0288956,0.0903841,-0.00764129,0.109931,0.11362,-0.0418757,-0.0851306,-0.102011,0.319087,-0.0269764,0.388093,0.401117,-0.147835,-0.30054,0.29144,0.353675,0.253382,0.986548,0.163414,-0.00426294,3.91555e-07
74577583118,1.39703,0.0602066,-0.508615,-2.5353,0.0657355,2.58055,0.504995,-0.0121825,0.0381061,-0.00322158,0.046347,0.0479024,-0.0176548,-0.0358912,0.13972,-0.437036,0.0369481,-0.53155,-0.549389,0.202482,0.411633,0.296236,0.355215,0.253355,0.987015,0.160537,-0.0054271,-0.000637297
74785550307,1.3932,0.0721783,-0.509627,-2.52074,0.0807849,2.575,0.493719,0,0,0,0,0,0,0,0.101721,-0.318179,0.0268996,-0.386988,-0.399976,0.147415,0.299685,0.301397,0.356863,0.253301,0.987496,0.157496,-0.00667872,-0.0014243
74785550307,1.38906,0.0851406,-0.510723,-2.50498,0.0970796,2.56899,0.48151,0,0,0,0,0,0,0,0,0,0,0,0,0,0,0.305788,0.358259,0.253233,0.987889,0.154954,-0.00774186,-0.0021776
75070861977,1.38551,0.0962385,-0.511662,-2.49148,0.11103,2.56385,0.471057,-0.0232174,0.0533627,0.000189966,0.0657176,0.0586909,-0.0238292,-0.0497487,-0.193543,0.444836,0.00158357,0.547828,0.489253,-0.198642,-0.414709,0.308756,0.35919,0.253186,0.98813,0.153364,-0.00838945,-0.00268222
75356173648,1.3829,0.103715,-0.512126,-2.48236,0.120129,2.56042,0.464034,-0.0388038,0.0891862,0.000317494,0.109835,0.0980915,-0.0398263,-0.0831461,-0.129716,0.298138,0.00106134,0.367165,0.327907,-0.133134,-0.277947,0.312184,0.360235,0.253146,0.98836,0.151839,-0.00894584,-0.00316917
75641485318,1.37932,0.112215,-0.512183,-2.4719,0.129634,2.55661,0.4561,-0.0155864,0.0358235,0.000127528,0.0441177,0.0394005,-0.0159971,-0.0333974,0.192909,-0.443379,-0.00157839,-0.546033,-0.48765,0.197992,0.413351,0.317005,0.361689,0.253072,0.988659,0.149812,-0.00968547,-0.00388488
75833021331,1.37411,0.124183,-0.51214,-2.45717,0.142797,2.55126,0.444942,0,0,0,0,0,0,0,0.129362,-0.297323,-0.00105844,-0.366161,-0.327011,0.13277,0.277187,0.322141,0.363225,0.252959,0.988964,0.147711,-0.010481,-0.00473264
75833021331,1.36853,0.137009,-0.512095,-2.44137,0.156904,2.54554,0.432985,0,0,0,0,0,0,0,0,0,0,0,0,0,0,0.32649,0.364517,0.252836,0.989209,0.14598,-0.0111599,-0.00552025
76118333002,1.36378,0.147931,-0.512056,-2.42792,0.168917,2.54066,0.422802,-0.0243273,0.0526193,0.000184545,0.0657176,0.0382564,-0.0219678,-0.0329836,-0.201579,0.436008,0.00152916,0.544542,0.316996,-0.182027,-0.273306,0.329367,0.365362,0.252758,0.98937,0.144849,-0.011466,-0.00592902
76403644672,1.3606,0.155124,-0.51203,-2.41903,0.176128,2.5375,0.41667,-0.0435368,0.0941688,0.000330266,0.11761,0.0684645,-0.0393141,-0.0590283,-0.158912,0.343721,0.00120549,0.429283,0.249899,-0.143499,-0.215457,0.332757,0.366338,0.252702,0.989565,0.143506,-0.0114247,-0.00602223
76688956343,1.35677,0.163447,-0.512001,-2.40865,0.182499,2.534,0.411191,-0.0192094,0.0415495,0.000145721,0.0518922,0.0302081,-0.0173463,-0.0260447,0.200922,-0.434589,-0.00152418,-0.542769,-0.315964,0.181434,0.272416,0.337767,0.367761,0.252603,0.989848,0.141554,-0.0112784,-0.00609632
76914245371,1.35108,0.175752,-0.511958,-2.39328,0.191445,2.52886,0.403477,0,0,0,0,0,0,0,0.158449,-0.342721,-0.00120198,-0.428033,-0.249172,0.143081,0.21483,0.343227,0.369289,0.252457,0.990142,0.139483,-0.0111323,-0.00622217
76914245371,1.34485,0.189227,-0.511911,-2.37645,0.201242,2.52324,0.395031,0,0,0,0,0,0,0,0,0,0,0,0,0,0,0.347903,0.370579,0.252299,0.990384,0.137756,-0.0110185,-0.00636786
77199557042,1.33949,0.200826,-0.51187,-2.36197,0.209675,2.5184,0.38776,-0.0245554,0.0507685,0.000473543,0.0657176,0.0292102,-0.0234081,-0.0194014,-0.202216,0.418085,0.00389968,0.541192,0.24055,-0.192768,-0.159773,0.351065,0.371448,0.252199,0.990559,0.136503,-0.0109122,-0.00642171
77484868712,1.33584,0.208647,-0.511832,-2.35212,0.215086,2.51505,0.383301,-0.0421932,0.087235,0.000813683,0.112922,0.0501916,-0.0402218,-0.0333373,-0.145014,0.299819,0.00279656,0.388102,0.172504,-0.138239,-0.114577,0.354486,0.372397,0.252145,0.990788,0.134852,-0.0107031,-0.0063095
77770180383,1.33183,0.216987,-0.511761,-2.34137,0.220063,2.51126,0.379827,-0.0176378,0.0364664,0.00034014,0.0472042,0.0209814,-0.0168137,-0.0139358,0.201562,-0.416732,-0.00388706,-0.539441,-0.239771,0.192144,0.159256,0.359236,0.373704,0.252064,0.99111,0.132495,-0.0103948,-0.00611946
77975116404,1.32622,0.22857,-0.511653,-2.32638,0.226727,2.50592,0.375401,0,0,0,0,0,0,0,0.144611,-0.298986,-0.00278879,-0.387024,-0.172025,0.137855,0.114259,0.364344,0.375088,0.251943,0.991444,0.130004,-0.0100803,-0.00594426
77975116404,1.32017,0.241086,-0.511536,-2.31018,0.233928,2.50015,0.370618,0,0,0,0,0,0,0,0,0,0,0,0,0,0,0.368692,0.376248,0.251811,0.991719,0.127918,-0.00982671,-0.00581926
78260428074,1.31499,0.251792,-0.511436,-2.29632,0.240088,2.49521,0.366526,-0.0243978,0.0491733,0.000282699,0.0657176,0.0247633,-0.0247921,-0.00825211,-0.199713,0.402518,0.00231409,0.537945,0.202705,-0.202941,-0.0675493,0.371585,0.377014,0.25173,0.991914,0.126413,-0.00965359,-0.00571923
78545739745,1.31154,0.258891,-0.511376,-2.28706,0.244047,2.49186,0.364189,-0.0385364,0.0776695,0.000446524,0.103801,0.0391137,-0.0391593,-0.0130342,-0.115548,0.232885,0.00133886,0.311239,0.117279,-0.117416,-0.0390821,0.374806,0.377866,0.251688,0.992175,0.124375,-0.009435,-0.00553666
78831051415,1.30768,0.266685,-0.511328,-2.27668,0.248039,2.48797,0.362681,-0.0141386,0.0284962,0.000163825,0.0380837,0.0143504,-0.0143671,-0.00478213,0.19907,-0.401223,-0.00230664,-0.536214,-0.202053,0.202288,0.067332,0.379202,0.379016,0.251624,0.992533,0.12152,-0.00914045,-0.00528324
78996390870,1.3024,0.277331,-0.511267,-2.26245,0.2534,2.4826,0.360894,0,0,0,0,0,0,0,0.115255,-0.232294,-0.00133547,-0.310449,-0.116981,0.117118,0.0389829,0.383819,0.380206,0.251529,0.992896,0.118552,-0.00884652,-0.00503781
78996390870,1.29682,0.288566,-0.511203,-2.24744,0.259058,2.47694,0.359009,0,0,0,0,0,0,0,0,0,0,0,0,0,0,0.387697,0.381191,0.251425,0.99319,0.116083,-0.00861212,-0.00484821
79281702540,1.29212,0.298048,-0.511148,-2.23476,0.263833,2.47216,0.357418,-0.0237161,0.0477718,-0.000540624,0.0657176,0.0218088,-0.0265019,0.00202906,-0.193018,0.3888,-0.00439997,0.534855,0.177495,-0.215691,0.0165139,0.390193,0.381817,0.251368,0.993392,0.114362,-0.00846655,-0.00471126
79567014211,1.2891,0.304127,-0.511142,-2.22657,0.266814,2.46901,0.356756,-0.0409475,0.0824814,-0.000933427,0.113466,0.0376546,-0.0457574,0.00350332,-0.140017,0.282039,-0.00319178,0.387989,0.128757,-0.156464,0.0119793,0.393246,0.382575,0.251343,0.993678,0.111874,-0.00829213,-0.00448861
79852325881,1.28546,0.311467,-0.511215,-2.2165,0.270193,2.46497,0.356944,-0.0172314,0.0347097,-0.000392803,0.0477486,0.0158457,-0.0192556,0.00147426,0.1924,-0.387556,0.0043859,-0.533144,-0.176928,0.215001,-0.0164611,0.397781,0.383686,0.251294,0.994096,0.108127,-0.00804481,-0.00416114
80059625621,1.28003,0.322398,-0.511339,-2.20146,0.275183,2.4589,0.357408,0,0,0,0,0,0,0,0.139631,-0.281261,0.00318298,-0.386919,-0.128402,0.156032,-0.0119463,0.402662,0.384861,0.25121,0.994527,0.10412,-0.00779549,-0.00382863
80059625621,1.27416,0.334228,-0.511473,-2.18519,0.280583,2.45234,0.357911,0,0,0,0,0,0,0,0,0,0,0,0,0,0,0.406816,0.385845,0.251114,0.994878,0.100732,-0.00759749,-0.00356198
80344937291,1.26913,0.344354,-0.511587,-2.17126,0.285206,2.44672,0.358341,-0.0236216,0.0467598,-0.00129892,0.0657176,0.0201275,-0.0270141,0.00989633,-0.191106,0.378301,-0.0105087,0.531676,0.162838,-0.218553,0.0800645,0.409595,0.386486,0.251054,0.995117,0.0983567,-0.00746161,-0.00338523
80630248962,1.26577,0.351101,-0.511691,-2.16193,0.288243,2.44294,0.358909,-0.0368605,0.0729667,-0.00202692,0.10255,0.0314082,-0.0421545,0.0154428,-0.106937,0.211685,-0.00588032,0.297508,0.0911188,-0.122295,0.0448014,0.412701,0.387168,0.251029,0.99541,0.0953766,-0.00728586,-0.00317601
80915560633,1.26203,0.35851,-0.511882,-2.15154,0.291455,2.43868,0.360325,-0.0132389,0.0262069,-0.000727994,0.036832,0.0112807,-0.0151403,0.00554649,0.190499,-0.377098,0.0104753,-0.529986,-0.16232,0.217858,-0.0798099,0.41691,0.388071,0.250988,0.995797,0.0912668,-0.0070502,-0.00289911
81075466038,1.25696,0.368556,-0.512161,-2.13742,0.29578,2.43288,0.362452,0,0,0,0,0,0,0,0.106672,-0.21116,0.00586575,-0.296771,-0.0908929,0.121992,-0.0446903,0.421313,0.388999,0.25092,0.996183,0.0869838,-0.0068167,-0.00262355
81075466038,1.25162,0.379126,-0.512455,-2.12257,0.30033,2.42677,0.364689,0,0,0,0,0,0,0,0,0,0,0,0,0,0,0.425002,0.389763,0.250844,0.99649,0.0834094,-0.00663175,-0.00240391
